; HEADER_BLOCK_START
; generated by OrcaSlicer 2.3.0 on 2025-06-04 at 20:47:42
; total layer number: 25
;_GP_TOTAL_LAYER_NUMBER_PLACEHOLDER
; filament_density: 1.31
; filament_diameter: 1.75
; max_z_height: 5.00
; HEADER_BLOCK_END
; THUMBNAIL_BLOCK_START
;
; THUMBNAIL_BLOCK_END
; THUMBNAIL_BLOCK_START
;
; THUMBNAIL_BLOCK_END
; external perimeters extrusion width = 0.45mm
; perimeters extrusion width = 0.45mm
; infill extrusion width = 0.45mm
; solid infill extrusion width = 0.45mm
; top infill extrusion width = 0.40mm
; EXECUTABLE_BLOCK_START
M73 P0 R30
M201 X1000 Y1000 Z200 E800
M203 X200 Y200 Z12 E120
M204 P1250 R1000 T1250
M205 X6.00 Y6.00 Z0.40 E1.00 ; sets the jerk limits, mm/sec
;TYPE:Custom
M862.3 P "" ; printer model check
M862.1 P0.4 ; nozzle diameter check
M115 U3.2.3 ; tell printer latest fw version
G90 ; use absolute coordinates
M83 ; extruder relative mode
M204 S1250 T1000 ; MK2 firmware only supports the old M204 format
M104 S220 ; set extruder temp
M140 S55 ; set bed temp
M190 S55 ; wait for bed temp
M109 S220 ; wait for extruder temp
G28 W ; home all without mesh bed level
G80 ; mesh bed leveling
G1 Z2.0 F3000 ;Move Z Axis up
G1 X83.3076 Y73.3035 Z0.8 F5000 ; Move to start
M109 S220 ; wait for nozzle temp to stabilize
G92 E0 ;Reset Extruder
G1 X83.3076 Y103.304 E30 F360.0 ; Extrude 30mm in Y
G92 E0 ;Reset Extruder
G1 E-0.5 F2100 ; Retract
G1 Y113.304 F5000 ; Move 10mm in Y
G92 E0  ;Reset Extrude
G90
G21
M83 ; use relative distances for extrusion
; Filament gcode
M106 S0
;LAYER_CHANGE
M117 DASHBOARD_LAYER_INDICATOR 1
;Z:0.2
;HEIGHT:0.2
;BEFORE_LAYER_CHANGE
G92 E0.0
;0.2
G1 E-.8 F1800
;_SET_FAN_SPEED_CHANGING_LAYER
M204 S300
; printing object Kissojen raapimapuun aluslevy v0.stl id:18446744069414584327 copy 0
G1 X153.222 Y110.997 F7200
G1 Z.6
G1 Z.2
G1 E.8 F1800
;TYPE:Inner wall
;WIDTH:0.449999
G1 F1200
G1 X152.813 Y112.674 E.05725
G1 X152.305 Y114.323 E.05725
G1 X151.698 Y115.939 E.05725
G1 X150.996 Y117.516 E.05725
G1 X150.201 Y119.048 E.05725
G1 X149.316 Y120.529 E.05725
G1 X148.344 Y121.955 E.05725
G1 X147.288 Y123.321 E.05725
G1 X146.152 Y124.62 E.05725
G1 X144.941 Y125.85 E.05725
G1 X143.659 Y127.005 E.05725
G1 X142.309 Y128.081 E.05725
G1 X140.898 Y129.074 E.05725
G1 X139.43 Y129.981 E.05725
G1 X137.91 Y130.799 E.05725
G1 X136.344 Y131.525 E.05725
G1 X134.737 Y132.155 E.05725
G1 X133.096 Y132.689 E.05725
G1 X131.426 Y133.123 E.05725
G1 X129.732 Y133.456 E.05725
G1 X128.022 Y133.688 E.05725
G1 X126.301 Y133.817 E.05725
G1 X124.575 Y133.843 E.05725
G1 X122.851 Y133.765 E.05725
G1 X121.135 Y133.585 E.05725
G1 X119.432 Y133.302 E.05725
G1 X117.749 Y132.918 E.05725
G1 X116.093 Y132.434 E.05725
G1 X114.468 Y131.852 E.05725
G1 X112.881 Y131.174 E.05725
G1 X111.337 Y130.402 E.05725
G1 X109.843 Y129.539 E.05725
G1 X108.402 Y128.588 E.05725
G1 X107.021 Y127.553 E.05725
G1 X105.705 Y126.437 E.05725
G1 X104.457 Y125.244 E.05725
G1 X103.284 Y123.979 E.05725
G1 X102.187 Y122.646 E.05725
G1 X101.173 Y121.25 E.05725
G1 X100.244 Y119.795 E.05725
G1 X99.403 Y118.288 E.05725
G1 X98.655 Y116.733 E.05725
G1 X98 Y115.136 E.05725
G1 X97.442 Y113.503 E.05725
G1 X96.983 Y111.839 E.05725
G1 X96.624 Y110.151 E.05725
G1 X96.367 Y108.444 E.05725
G1 X96.212 Y106.725 E.05725
G1 X96.161 Y105 E.05725
G1 X96.212 Y103.275 E.05725
G1 X96.367 Y101.556 E.05725
G1 X96.624 Y99.849 E.05725
G1 X96.983 Y98.161 E.05725
G1 X97.442 Y96.497 E.05725
G1 X98 Y94.864 E.05725
G1 X98.655 Y93.267 E.05725
G1 X99.403 Y91.712 E.05725
G1 X100.244 Y90.205 E.05725
G1 X101.173 Y88.75 E.05725
G1 X102.187 Y87.354 E.05725
G1 X103.284 Y86.021 E.05725
G1 X104.457 Y84.756 E.05725
G1 X105.705 Y83.563 E.05725
G1 X107.021 Y82.447 E.05725
G1 X108.402 Y81.412 E.05725
G1 X109.843 Y80.461 E.05725
G1 X111.337 Y79.598 E.05725
G1 X112.881 Y78.826 E.05725
G1 X114.468 Y78.148 E.05725
G1 X116.093 Y77.566 E.05725
G1 X117.749 Y77.082 E.05725
G1 X119.432 Y76.698 E.05725
G1 X121.135 Y76.415 E.05725
G1 X122.851 Y76.235 E.05725
G1 X124.575 Y76.157 E.05725
G1 X126.301 Y76.183 E.05725
G1 X128.022 Y76.312 E.05725
G1 X129.732 Y76.544 E.05725
G1 X131.426 Y76.877 E.05725
G1 X133.096 Y77.311 E.05725
G1 X134.737 Y77.845 E.05725
G1 X136.344 Y78.475 E.05725
G1 X137.91 Y79.201 E.05725
G1 X139.43 Y80.019 E.05725
G1 X140.898 Y80.926 E.05725
G1 X142.309 Y81.919 E.05725
G1 X143.659 Y82.995 E.05725
G1 X144.941 Y84.15 E.05725
G1 X146.152 Y85.38 E.05725
G1 X147.288 Y86.679 E.05725
G1 X148.344 Y88.045 E.05725
G1 X149.316 Y89.471 E.05725
G1 X150.201 Y90.952 E.05725
G1 X150.996 Y92.484 E.05725
G1 X151.698 Y94.061 E.05725
G1 X152.305 Y95.677 E.05725
G1 X152.813 Y97.326 E.05725
G1 X153.222 Y99.003 E.05725
G1 X153.531 Y100.701 E.05725
G1 X153.737 Y102.414 E.05725
G1 X153.819 Y103.791 E.04574
G1 X153.84 Y104.484 E.02302
G1 X153.84 Y105.863 E.04574
G1 X153.737 Y107.586 E.05725
G1 X153.531 Y109.299 E.05725
G1 X153.23 Y110.958 E.05592
G1 X153.642 Y111.087 F7200
;TYPE:Outer wall
G1 F1200
G1 X153.227 Y112.788 E.0581
G1 X152.71 Y114.462 E.0581
G1 X152.095 Y116.102 E.0581
G1 X151.382 Y117.702 E.0581
G1 X150.576 Y119.256 E.0581
G1 X149.677 Y120.76 E.0581
G1 X148.691 Y122.207 E.0581
G1 X147.619 Y123.593 E.0581
G1 X146.467 Y124.912 E.0581
G1 X145.237 Y126.16 E.0581
G1 X143.936 Y127.332 E.0581
G1 X142.566 Y128.424 E.0581
G1 X141.134 Y129.432 E.0581
M73 P1 R30
G1 X139.644 Y130.353 E.0581
G1 X138.102 Y131.183 E.0581
G1 X136.512 Y131.919 E.0581
G1 X134.882 Y132.559 E.0581
G1 X133.216 Y133.1 E.0581
G1 X131.521 Y133.541 E.0581
G1 X129.802 Y133.879 E.0581
G1 X128.067 Y134.114 E.0581
G1 X126.32 Y134.245 E.0581
G1 X124.569 Y134.272 E.0581
G1 X122.819 Y134.193 E.0581
G1 X121.077 Y134.01 E.0581
G1 X119.349 Y133.723 E.0581
G1 X117.642 Y133.333 E.0581
G1 X115.96 Y132.842 E.0581
G1 X114.311 Y132.251 E.0581
G1 X112.701 Y131.563 E.0581
G1 X111.134 Y130.779 E.0581
G1 X109.617 Y129.904 E.0581
G1 X108.156 Y128.939 E.0581
G1 X106.754 Y127.888 E.0581
G1 X105.418 Y126.755 E.0581
G1 X104.152 Y125.545 E.0581
G1 X102.961 Y124.261 E.0581
G1 X101.848 Y122.908 E.0581
G1 X100.819 Y121.491 E.0581
G1 X99.876 Y120.015 E.0581
G1 X99.023 Y118.485 E.0581
G1 X98.263 Y116.907 E.0581
G1 X97.599 Y115.286 E.0581
G1 X97.033 Y113.629 E.0581
G1 X96.567 Y111.94 E.0581
G1 X96.202 Y110.227 E.0581
G1 X95.941 Y108.495 E.0581
G1 X95.784 Y106.751 E.0581
G1 X95.732 Y105 E.0581
G1 X95.784 Y103.249 E.0581
G1 X95.941 Y101.505 E.0581
G1 X96.202 Y99.773 E.0581
G1 X96.567 Y98.06 E.0581
G1 X97.033 Y96.371 E.0581
G1 X97.599 Y94.714 E.0581
G1 X98.263 Y93.093 E.0581
G1 X99.023 Y91.515 E.0581
G1 X99.876 Y89.985 E.0581
G1 X100.819 Y88.509 E.0581
G1 X101.848 Y87.092 E.0581
G1 X102.961 Y85.739 E.0581
G1 X104.152 Y84.455 E.0581
G1 X105.418 Y83.245 E.0581
G1 X106.754 Y82.112 E.0581
G1 X108.156 Y81.061 E.0581
G1 X109.617 Y80.096 E.0581
G1 X111.134 Y79.221 E.0581
G1 X112.701 Y78.437 E.0581
G1 X114.311 Y77.749 E.0581
G1 X115.96 Y77.158 E.0581
G1 X117.642 Y76.667 E.0581
G1 X119.349 Y76.277 E.0581
G1 X121.077 Y75.99 E.0581
G1 X122.819 Y75.807 E.0581
G1 X124.569 Y75.728 E.0581
G1 X126.32 Y75.755 E.0581
G1 X128.067 Y75.886 E.0581
G1 X129.802 Y76.121 E.0581
G1 X131.521 Y76.459 E.0581
G1 X133.216 Y76.9 E.0581
G1 X134.882 Y77.441 E.0581
G1 X136.512 Y78.081 E.0581
G1 X138.102 Y78.817 E.0581
G1 X139.644 Y79.647 E.0581
G1 X141.134 Y80.568 E.0581
G1 X142.566 Y81.576 E.0581
G1 X143.936 Y82.668 E.0581
G1 X145.237 Y83.84 E.0581
G1 X146.467 Y85.088 E.0581
G1 X147.619 Y86.407 E.0581
G1 X148.691 Y87.793 E.0581
G1 X149.677 Y89.24 E.0581
G1 X150.576 Y90.743 E.0581
G1 X151.382 Y92.298 E.0581
G1 X152.095 Y93.898 E.0581
G1 X152.71 Y95.538 E.0581
G1 X153.227 Y97.212 E.0581
G1 X153.642 Y98.913 E.0581
G1 X153.955 Y100.637 E.0581
G1 X154.164 Y102.376 E.0581
G1 X154.247 Y103.765 E.04616
G1 X154.268 Y104.484 E.02387
G1 X154.268 Y105.876 E.04616
G1 X154.164 Y107.624 E.0581
G1 X153.955 Y109.363 E.0581
G1 X153.649 Y111.047 E.05677
G1 E-.08 F1800
;WIPE_START
G1 F1200
G1 X153.413 Y112.019 E-.72
;WIPE_END
G1 X146.247 Y109.393 Z.6 F7200
G1 X130.48 Y103.614 Z.6
M73 P1 R29
G1 Z.2
G1 E.8 F1800
;TYPE:Inner wall
G1 F1200
G1 X130.511 Y103.713 E.00344
G1 X130.64 Y104.538 E.02769
G1 X130.647 Y105.372 E.02769
G1 X130.531 Y106.199 E.02768
G1 X130.294 Y107 E.02772
G1 X129.896 Y107.835 E.03069
G1 X129.479 Y108.457 E.02484
G1 X128.833 Y109.157 E.03161
G1 X128.275 Y109.611 E.02385
G1 X127.709 Y109.953 E.02193
G1 X126.795 Y110.36 E.0332
G1 X126.093 Y110.539 E.02402
G1 X125.155 Y110.648 E.03132
G1 X124.52 Y110.63 E.02108
G1 X123.707 Y110.499 E.0273
G1 X122.911 Y110.248 E.02769
G1 X122.244 Y109.907 E.02485
G1 X121.831 Y109.666 E.01587
G1 X121.404 Y109.354 E.01753
G1 X120.858 Y108.839 E.0249
G1 X120.284 Y108.103 E.03096
G1 X119.917 Y107.46 E.02455
G1 X119.681 Y106.867 E.02117
G1 X119.571 Y106.536 E.01157
G1 X119.423 Y105.877 E.02241
G1 X119.364 Y105.174 E.02341
G1 X119.409 Y104.212 E.03194
G1 X119.571 Y103.464 E.02541
G1 X119.881 Y102.616 E.02993
G1 X120.284 Y101.897 E.02735
G1 X120.8 Y101.225 E.02809
G1 X121.402 Y100.647 E.0277
G1 X122.083 Y100.164 E.02769
G1 X122.829 Y99.786 E.02773
G1 X123.619 Y99.522 E.02765
G1 X124.245 Y99.402 E.02112
G1 X125.181 Y99.36 E.03109
G1 X125.908 Y99.421 E.02419
G1 X126.847 Y99.665 E.0322
G1 X127.493 Y99.924 E.02308
G1 X128.206 Y100.341 E.0274
G1 X128.833 Y100.843 E.02663
G1 X129.425 Y101.475 E.02875
G1 X129.896 Y102.164 E.02769
G1 X130.261 Y102.917 E.02775
G1 X130.468 Y103.576 E.02291
G1 X130.072 Y103.744 F7200
;TYPE:Outer wall
G1 F1200
G1 X130.101 Y103.838 E.00325
G1 X130.217 Y104.601 E.02559
G1 X130.219 Y105.372 E.02559
G1 X130.107 Y106.135 E.02558
G1 X129.884 Y106.875 E.02562
G1 X129.554 Y107.573 E.02561
G1 X129.125 Y108.215 E.0256
G1 X128.562 Y108.825 E.02755
G1 X128.008 Y109.276 E.02371
G1 X127.491 Y109.585 E.01997
G1 X126.633 Y109.964 E.0311
G1 X125.991 Y110.122 E.02193
G1 X125.116 Y110.221 E.02923
G1 X124.536 Y110.201 E.01926
G1 X123.778 Y110.076 E.02547
G1 X123.043 Y109.84 E.0256
G1 X122.444 Y109.528 E.02243
G1 X122.08 Y109.318 E.01393
G1 X121.696 Y109.041 E.01568
G1 X121.154 Y108.529 E.02474
G1 X120.656 Y107.891 E.02685
G1 X120.292 Y107.252 E.02442
G1 X120.081 Y106.713 E.0192
G1 X119.841 Y105.783 E.03185
G1 X119.791 Y105.142 E.02132
G1 X119.837 Y104.244 E.02984
G1 X119.989 Y103.558 E.02331
G1 X120.281 Y102.771 E.02783
G1 X120.656 Y102.109 E.02526
G1 X121.137 Y101.49 E.02599
G1 X121.697 Y100.958 E.0256
G1 X122.328 Y100.515 E.02559
G1 X123.019 Y100.169 E.02564
G1 X123.752 Y99.93 E.02556
G1 X124.322 Y99.823 E.01927
G1 X125.197 Y99.789 E.02903
G1 X125.861 Y99.847 E.0221
G1 X126.736 Y100.079 E.03005
G1 X127.325 Y100.319 E.02108
G1 X127.987 Y100.71 E.0255
G1 X128.562 Y101.175 E.02454
G1 X129.109 Y101.764 E.02666
G1 X129.541 Y102.403 E.02559
G1 X129.874 Y103.101 E.02566
G1 X130.06 Y103.706 E.02099
G1 E-.08 F1800
;WIPE_START
G1 F1200
G1 X130.101 Y103.838 E-.09941
G1 X130.217 Y104.601 E-.55552
G1 X130.217 Y104.691 E-.06507
;WIPE_END
G1 X135.56 Y99.241 Z.6 F7200
G1 X147.459 Y87.1 Z.6
G1 Z.2
G1 E.8 F1800
;TYPE:Bottom surface
;WIDTH:0.450582
G1 F3600
G1 X144.726 Y84.367 E.12841
G1 X143.461 Y83.228 E.05653
G1 X142.126 Y82.164 E.05673
G1 X141.517 Y81.735 E.02472
G1 X148.29 Y88.508 E.31816
G1 X149.058 Y89.635 E.04533
G1 X149.382 Y90.176 E.02093
G1 X139.831 Y80.625 E.44868
G1 X139.277 Y80.283 E.02164
G1 X138.487 Y79.858 E.0298
G1 X150.155 Y91.526 E.54813
G1 X150.762 Y92.71 E.04422
G1 X137.313 Y79.261 E.63182
G1 X136.239 Y78.763 E.03933
G1 X151.225 Y93.749 E.70402
G1 X151.415 Y94.177 E.01555
G1 X151.619 Y94.72 E.01927
G1 X135.289 Y78.389 E.76721
G1 X134.634 Y78.132 E.02335
G1 X134.369 Y78.046 E.00926
G1 X151.966 Y95.643 E.82667
G1 X152.236 Y96.489 E.02952
G1 X133.515 Y77.769 E.87948
G1 X133.01 Y77.605 E.01763
M73 P2 R29
G1 X132.692 Y77.522 E.01093
G1 X152.493 Y97.323 E.93024
G1 X152.686 Y98.093 E.02637
G1 X131.913 Y77.319 E.97592
G1 X131.151 Y77.134 E.02603
G1 X152.872 Y98.855 E1.02043
G1 X153.016 Y99.576 E.02441
G1 X130.433 Y76.993 E1.06092
G1 X129.715 Y76.851 E.02431
G1 X153.144 Y100.28 E1.10066
G1 X153.255 Y100.968 E.02314
G1 X129.046 Y76.759 E1.13732
G1 X128.379 Y76.668 E.02235
G1 X153.334 Y101.623 E1.17235
G1 X153.413 Y102.278 E.02193
G1 X127.731 Y76.596 E1.20653
G1 X127.107 Y76.55 E.02076
G1 X153.46 Y102.902 E1.23803
G1 X153.497 Y103.515 E.02041
G1 X126.484 Y76.503 E1.26903
G1 X125.887 Y76.482 E.01985
G1 X153.534 Y104.129 E1.29882
G1 X153.535 Y104.706 E.01919
G1 X125.302 Y76.473 E1.32636
G1 X124.716 Y76.465 E.01944
G1 X153.535 Y105.283 E1.35386
G1 X153.534 Y105.859 E.01914
G1 X124.157 Y76.482 E1.38013
G1 X123.605 Y76.506 E.01835
G1 X153.502 Y106.403 E1.40452
G1 X153.469 Y106.947 E.0181
G1 X123.053 Y76.531 E1.42891
G1 X122.522 Y76.576 E.01772
G1 X153.436 Y107.491 E1.45235
G1 X153.378 Y108.009 E.01732
G1 X122 Y76.631 E1.47412
G1 X121.478 Y76.686 E.01743
G1 X153.316 Y108.524 E1.49572
G1 X153.254 Y109.038 E.01722
G1 X120.968 Y76.752 E1.51678
G1 X120.474 Y76.834 E.01665
G1 X153.177 Y109.538 E1.53637
G1 X153.089 Y110.025 E.01647
G1 X119.979 Y76.916 E1.55544
G1 X119.485 Y76.999 E.01664
M73 P3 R29
G1 X153 Y110.513 E1.57449
G1 X152.908 Y110.998 E.01638
G1 X119.016 Y77.106 E1.59223
G1 X118.546 Y77.213 E.01599
G1 X152.795 Y111.461 E1.60896
G1 X152.682 Y111.925 E.01585
G1 X118.077 Y77.32 E1.6257
G1 X117.619 Y77.438 E.01573
G1 X152.569 Y112.388 E1.64193
G1 X152.443 Y112.839 E.01554
G1 X117.172 Y77.568 E1.65698
G1 X116.726 Y77.699 E.01544
G1 X152.307 Y113.28 E1.67156
G1 X152.171 Y113.72 E.01532
G1 X116.28 Y77.829 E1.68613
G1 X115.851 Y77.977 E.01507
G1 X152.035 Y114.161 E1.6999
G1 X151.881 Y114.583 E.01493
G1 X115.427 Y78.129 E1.71259
G1 X115.002 Y78.281 E.01498
G1 X151.724 Y115.002 E1.72514
G1 X151.566 Y115.422 E.01487
G1 X114.578 Y78.433 E1.73769
G1 X114.174 Y78.606 E.01459
G1 X151.408 Y115.84 E1.74923
G1 X151.231 Y116.239 E.01451
G1 X113.77 Y78.778 E1.75986
G1 X113.366 Y78.951 E.01459
G1 X151.053 Y116.638 E1.77049
G1 X150.875 Y117.037 E.01451
G1 X112.965 Y79.126 E1.78102
G1 X112.58 Y79.318 E.01427
G1 X150.695 Y117.433 E1.79061
G1 X150.498 Y117.813 E.01421
M73 P4 R29
G1 X112.196 Y79.51 E1.79941
G1 X111.812 Y79.702 E.01427
G1 X150.301 Y118.192 E1.80821
G1 X150.104 Y118.572 E.01421
G1 X111.43 Y79.897 E1.81688
G1 X111.065 Y80.108 E.01402
G1 X149.905 Y118.949 E1.82468
G1 X149.689 Y119.309 E.01397
G1 X110.699 Y80.319 E1.83172
G1 X110.334 Y80.53 E.01402
G1 X149.473 Y119.67 E1.83876
G1 X149.258 Y120.031 E.01397
G1 X109.97 Y80.743 E1.84572
G1 X109.622 Y80.972 E.01382
G1 X149.041 Y120.391 E1.85184
G1 X148.807 Y120.734 E.01378
G1 X130.24 Y102.167 E.87226
G1 X130.191 Y102.061 E.00388
G1 X129.667 Y101.288 E.03101
G1 X129.106 Y100.675 E.0276
G1 X128.467 Y100.151 E.02744
G1 X127.857 Y99.784 E.02367
G1 X109.275 Y81.202 E.87296
G1 X108.928 Y81.431 E.01382
G1 X126.847 Y99.35 E.84182
G1 X126.059 Y99.139 E.02709
G1 X108.581 Y81.66 E.82113
G1 X108.251 Y81.907 E.01368
G1 X125.412 Y99.068 E.80622
G1 X125.26 Y99.052 E.00509
G1 X124.838 Y99.07 E.01404
G1 X107.922 Y82.154 E.7947
G1 X107.592 Y82.401 E.01368
M73 P4 R28
G1 X124.285 Y99.094 E.78423
G1 X123.791 Y99.177 E.01664
G1 X107.262 Y82.648 E.77649
G1 X106.948 Y82.91 E.0136
G1 X123.334 Y99.296 E.7698
G1 X122.899 Y99.438 E.01518
G1 X106.636 Y83.174 E.76405
G1 X106.324 Y83.439 E.01359
G1 X122.498 Y99.613 E.75985
G1 X122.115 Y99.807 E.01425
G1 X106.012 Y83.703 E.75654
G1 X105.711 Y83.98 E.01355
G1 X121.754 Y100.022 E.75365
G1 X121.415 Y100.259 E.01375
G1 X105.417 Y84.261 E.75157
G1 X105.122 Y84.543 E.01355
M73 P5 R28
G1 X121.097 Y100.518 E.75051
G1 X120.8 Y100.797 E.01355
G1 X104.827 Y84.825 E.75038
G1 X104.541 Y85.115 E.01354
G1 X120.522 Y101.097 E.7508
G1 X120.266 Y101.417 E.01363
G1 X104.263 Y85.414 E.75182
G1 X103.986 Y85.713 E.01355
G1 X120.021 Y101.748 E.7533
G1 X119.813 Y102.117 E.01406
G1 X103.708 Y86.012 E.75657
G1 X103.436 Y86.316 E.01356
G1 X119.605 Y102.485 E.7596
G1 X119.447 Y102.904 E.01487
G1 X103.176 Y86.633 E.76442
G1 X102.916 Y86.949 E.01361
G1 X119.29 Y103.323 E.76924
G1 X119.185 Y103.795 E.01605
G1 X102.656 Y87.266 E.77653
G1 X102.398 Y87.584 E.01362
G1 X119.099 Y104.286 E.78464
G1 X119.058 Y104.821 E.01784
G1 X102.155 Y87.918 E.7941
G1 X101.912 Y88.252 E.01371
G1 X119.081 Y105.421 E.80658
G1 X119.112 Y105.879 E.01526
G1 X119.157 Y106.073 E.00662
