; HEADER_BLOCK_START
; generated by OrcaSlicer 2.3.1 on 2025-12-24 at 10:09:25
; total layer number: 1
; filament_density: 1.31
; filament_diameter: 1.75
; max_z_height: 0.20
; HEADER_BLOCK_END

; THUMBNAIL_BLOCK_START

;
; THUMBNAIL_BLOCK_END

; THUMBNAIL_BLOCK_START

;
; THUMBNAIL_BLOCK_END

; external perimeters extrusion width = 0.40mm
; perimeters extrusion width = 0.44mm
; infill extrusion width = 0.44mm
; solid infill extrusion width = 0.48mm
; top infill extrusion width = 0.38mm
; first layer extrusion width = 0.48mm

; EXECUTABLE_BLOCK_START
M73 P0 R2
;TYPE:Custom
M115 U3.2.3 ; tell printer latest fw version
G90 ; use absolute coordinates
M83 ; extruder relative mode
M204 S10000 T1500 ; MK2 firmware only supports the old M204 format
M104 S230 ; set extruder temp
M140 S55 ; set bed temp
M190 S55 ; wait for bed temp
M109 S230 ; wait for extruder temp
G28 W ; home all without mesh bed level
G80 ; mesh bed leveling
G1 Z0.2 F720
G1 Y-2 F1000 ; go outside print area
G92 E0
G1 X60 E9 F1000 ; intro line
G1 X100 E12.5 F1000 ; intro line
M73 P2 R2
G92 E0
G90
G21
M83 ; use relative distances for extrusion
; Filament gcode
SET_PRESSURE_ADVANCE ADVANCE=0.0775; Override pressure advance value
M106 S0
;LAYER_CHANGE
;Z:0.2
;HEIGHT:0.2
;BEFORE_LAYER_CHANGE
G92 E0.0
;0.2

G1 E-.4 F2100
M73 P4 R2
;AFTER_LAYER_CHANGE
;0.2
;_SET_FAN_SPEED_CHANGING_LAYER
SET_VELOCITY_LIMIT ACCEL=800 ACCEL_TO_DECEL=400
; printing object Cube id:106035774743264 copy 0
G1 Z.6 F10800
G1 X169.301 Y119.301
G1 Z.6
G1 Z.2
G1 E.4 F2100
;TYPE:Inner wall
;WIDTH:0.479999
G1 F1200
M73 P5 R2
G1 X80.699 Y119.301 E3.15572
G1 X80.699 Y90.699 E1.01873
M73 P8 R2
G1 X169.301 Y90.699 E3.15572
M73 P9 R2
G1 X169.301 Y119.261 E1.01731
M73 P12 R2
G1 X169.76 Y119.76 F10800
M73 P13 R2
;TYPE:Outer wall
G1 F1200
G1 X80.24 Y119.76 E3.18838
G1 X80.24 Y90.24 E1.0514
M73 P16 R2
G1 X169.76 Y90.24 E3.18838
M73 P17 R2
G1 X169.76 Y119.72 E1.04997
M73 P20 R1
G1 E-.28 F2100
M73 P21 R1
;WIPE_START
G1 F1200
G1 X168.76 Y119.72 E-.12
;WIPE_END
G1 Z.6 F10800
G1 X169.17 Y91.718 Z.6
G1 Z.2
G1 E.4 F2100
;TYPE:Bottom surface
;WIDTH:0.482111
G1 F3600
G1 X168.479 Y91.026 E.03499
G1 X167.858 Y91.026 E.02223
G1 X168.974 Y92.142 E.05647
G1 X168.974 Y92.763 E.02223
G1 X167.237 Y91.026 E.08791
G1 X166.616 Y91.026 E.02223
G1 X168.974 Y93.384 E.11934
G1 X168.974 Y94.005 E.02223
G1 X165.995 Y91.026 E.15078
G1 X165.373 Y91.026 E.02223
M73 P22 R1
G1 X168.974 Y94.627 E.18222
G1 X168.974 Y95.248 E.02223
G1 X164.752 Y91.026 E.21365
G1 X164.131 Y91.026 E.02223
G1 X168.974 Y95.869 E.24509
G1 X168.974 Y96.49 E.02223
G1 X163.51 Y91.026 E.27652
G1 X162.889 Y91.026 E.02223
G1 X168.974 Y97.111 E.30796
G1 X168.974 Y97.732 E.02223
G1 X162.268 Y91.026 E.3394
G1 X161.647 Y91.026 E.02223
G1 X168.974 Y98.353 E.37083
G1 X168.974 Y98.974 E.02223
M73 P23 R1
G1 X161.026 Y91.026 E.40227
G1 X160.405 Y91.026 E.02223
G1 X168.974 Y99.595 E.4337
G1 X168.974 Y100.217 E.02223
G1 X159.783 Y91.026 E.46514
G1 X159.162 Y91.026 E.02223
G1 X168.974 Y100.838 E.49658
G1 X168.974 Y101.459 E.02223
G1 X158.541 Y91.026 E.52801
G1 X157.92 Y91.026 E.02223
M73 P24 R1
G1 X168.974 Y102.08 E.55945
G1 X168.974 Y102.701 E.02223
G1 X157.299 Y91.026 E.59088
G1 X156.678 Y91.026 E.02223
G1 X168.974 Y103.322 E.62232
G1 X168.974 Y103.943 E.02223
G1 X156.057 Y91.026 E.65376
G1 X155.436 Y91.026 E.02223
M73 P25 R1
G1 X168.974 Y104.564 E.68519
G1 X168.974 Y105.185 E.02223
G1 X154.815 Y91.026 E.71663
G1 X154.193 Y91.026 E.02223
G1 X168.974 Y105.807 E.74806
G1 X168.974 Y106.428 E.02223
G1 X153.572 Y91.026 E.7795
G1 X152.951 Y91.026 E.02223
M73 P26 R1
G1 X168.974 Y107.049 E.81094
G1 X168.974 Y107.67 E.02223
G1 X152.33 Y91.026 E.84237
G1 X151.709 Y91.026 E.02223
G1 X168.974 Y108.291 E.87381
G1 X168.974 Y108.912 E.02223
M73 P27 R1
G1 X151.088 Y91.026 E.90524
G1 X150.467 Y91.026 E.02223
G1 X168.974 Y109.533 E.93668
G1 X168.974 Y110.154 E.02223
G1 X149.846 Y91.026 E.96812
G1 X149.225 Y91.026 E.02223
M73 P28 R1
G1 X168.974 Y110.775 E.99955
G1 X168.974 Y111.397 E.02223
G1 X148.603 Y91.026 E1.03099
G1 X147.982 Y91.026 E.02223
G1 X168.974 Y112.018 E1.06242
M73 P29 R1
G1 X168.974 Y112.639 E.02223
G1 X147.361 Y91.026 E1.09386
G1 X146.74 Y91.026 E.02223
G1 X168.974 Y113.26 E1.1253
G1 X168.974 Y113.881 E.02223
M73 P30 R1
G1 X146.119 Y91.026 E1.15673
G1 X145.498 Y91.026 E.02223
G1 X168.974 Y114.502 E1.18817
G1 X168.974 Y115.123 E.02223
M73 P31 R1
G1 X144.877 Y91.026 E1.2196
G1 X144.256 Y91.026 E.02223
G1 X168.974 Y115.744 E1.25104
G1 X168.974 Y116.365 E.02223
G1 X143.635 Y91.026 E1.28248
G1 X143.013 Y91.026 E.02223
M73 P32 R1
G1 X168.974 Y116.987 E1.31391
G1 X168.974 Y117.608 E.02223
G1 X142.392 Y91.026 E1.34535
G1 X141.771 Y91.026 E.02223
M73 P33 R1
G1 X168.974 Y118.229 E1.37678
G1 X168.974 Y118.85 E.02223
G1 X141.15 Y91.026 E1.40822
G1 X140.529 Y91.026 E.02223
M73 P34 R1
G1 X168.476 Y118.974 E1.41449
G1 X167.855 Y118.974 E.02223
G1 X139.908 Y91.026 E1.41449
G1 X139.287 Y91.026 E.02223
M73 P35 R1
G1 X167.234 Y118.974 E1.41449
G1 X166.613 Y118.974 E.02223
G1 X138.666 Y91.026 E1.41449
G1 X138.045 Y91.026 E.02223
M73 P36 R1
G1 X165.992 Y118.974 E1.41449
G1 X165.371 Y118.974 E.02223
G1 X137.424 Y91.026 E1.41449
G1 X136.802 Y91.026 E.02223
M73 P37 R1
G1 X164.75 Y118.974 E1.41449
G1 X164.129 Y118.974 E.02223
G1 X136.181 Y91.026 E1.41449
G1 X135.56 Y91.026 E.02223
M73 P38 R1
G1 X163.507 Y118.974 E1.41449
G1 X162.886 Y118.974 E.02223
G1 X134.939 Y91.026 E1.41449
G1 X134.318 Y91.026 E.02223
M73 P39 R1
G1 X162.265 Y118.974 E1.41449
G1 X161.644 Y118.974 E.02223
G1 X133.697 Y91.026 E1.41449
G1 X133.076 Y91.026 E.02223
M73 P40 R1
G1 X161.023 Y118.974 E1.41449
G1 X160.402 Y118.974 E.02223
G1 X132.455 Y91.026 E1.41449
G1 X131.834 Y91.026 E.02223
M73 P41 R1
G1 X159.781 Y118.974 E1.41449
G1 X159.16 Y118.974 E.02223
G1 X131.212 Y91.026 E1.41449
G1 X130.591 Y91.026 E.02223
M73 P42 R1
G1 X158.539 Y118.974 E1.41449
G1 X157.917 Y118.974 E.02223
G1 X129.97 Y91.026 E1.41449
M73 P43 R1
G1 X129.349 Y91.026 E.02223
G1 X157.296 Y118.974 E1.41449
G1 X156.675 Y118.974 E.02223
M73 P44 R1
G1 X128.728 Y91.026 E1.41449
G1 X128.107 Y91.026 E.02223
G1 X156.054 Y118.974 E1.41449
G1 X155.433 Y118.974 E.02223
M73 P45 R1
G1 X127.486 Y91.026 E1.41449
G1 X126.865 Y91.026 E.02223
G1 X154.812 Y118.974 E1.41449
G1 X154.191 Y118.974 E.02223
M73 P46 R1
G1 X126.244 Y91.026 E1.41449
G1 X125.622 Y91.026 E.02223
G1 X153.57 Y118.974 E1.41449
G1 X152.949 Y118.974 E.02223
M73 P47 R1
G1 X125.001 Y91.026 E1.41449
G1 X124.38 Y91.026 E.02223
G1 X152.328 Y118.974 E1.41449
G1 X151.706 Y118.974 E.02223
M73 P48 R1
G1 X123.759 Y91.026 E1.41449
G1 X123.138 Y91.026 E.02223
G1 X151.085 Y118.974 E1.41449
G1 X150.464 Y118.974 E.02223
M73 P49 R1
G1 X122.517 Y91.026 E1.41449
G1 X121.896 Y91.026 E.02223
G1 X149.843 Y118.974 E1.41449
G1 X149.222 Y118.974 E.02223
M73 P50 R1
G1 X121.275 Y91.026 E1.41449
G1 X120.654 Y91.026 E.02223
G1 X148.601 Y118.974 E1.41449
G1 X147.98 Y118.974 E.02223
M73 P51 R1
G1 X120.032 Y91.026 E1.41449
G1 X119.411 Y91.026 E.02223
G1 X147.359 Y118.974 E1.41449
G1 X146.738 Y118.974 E.02223
M73 P52 R1
G1 X118.79 Y91.026 E1.41449
G1 X118.169 Y91.026 E.02223
G1 X146.116 Y118.974 E1.41449
G1 X145.495 Y118.974 E.02223
M73 P53 R1
G1 X117.548 Y91.026 E1.41449
G1 X116.927 Y91.026 E.02223
G1 X144.874 Y118.974 E1.41449
G1 X144.253 Y118.974 E.02223
M73 P54 R1
G1 X116.306 Y91.026 E1.41449
G1 X115.685 Y91.026 E.02223
G1 X143.632 Y118.974 E1.41449
G1 X143.011 Y118.974 E.02223
M73 P55 R1
G1 X115.064 Y91.026 E1.41449
G1 X114.442 Y91.026 E.02223
G1 X142.39 Y118.974 E1.41449
G1 X141.769 Y118.974 E.02223
M73 P56 R1
G1 X113.821 Y91.026 E1.41449
G1 X113.2 Y91.026 E.02223
G1 X141.148 Y118.974 E1.41449
G1 X140.526 Y118.974 E.02223
M73 P57 R1
G1 X112.579 Y91.026 E1.41449
G1 X111.958 Y91.026 E.02223
G1 X139.905 Y118.974 E1.41449
G1 X139.284 Y118.974 E.02223
M73 P58 R1
G1 X111.337 Y91.026 E1.41449
G1 X110.716 Y91.026 E.02223
G1 X138.663 Y118.974 E1.41449
G1 X138.042 Y118.974 E.02223
M73 P59 R1
G1 X110.095 Y91.026 E1.41449
G1 X109.474 Y91.026 E.02223
M73 P59 R0
G1 X137.421 Y118.974 E1.41449
G1 X136.8 Y118.974 E.02223
M73 P60 R0
G1 X108.852 Y91.026 E1.41449
G1 X108.231 Y91.026 E.02223
G1 X136.179 Y118.974 E1.41449
G1 X135.558 Y118.974 E.02223
M73 P61 R0
G1 X107.61 Y91.026 E1.41449
G1 X106.989 Y91.026 E.02223
G1 X134.936 Y118.974 E1.41449
G1 X134.315 Y118.974 E.02223
M73 P62 R0
G1 X106.368 Y91.026 E1.41449
G1 X105.747 Y91.026 E.02223
G1 X133.694 Y118.974 E1.41449
G1 X133.073 Y118.974 E.02223
M73 P63 R0
G1 X105.126 Y91.026 E1.41449
G1 X104.505 Y91.026 E.02223
G1 X132.452 Y118.974 E1.41449
G1 X131.831 Y118.974 E.02223
M73 P64 R0
G1 X103.884 Y91.026 E1.41449
G1 X103.262 Y91.026 E.02223
G1 X131.21 Y118.974 E1.41449
G1 X130.589 Y118.974 E.02223
M73 P65 R0
G1 X102.641 Y91.026 E1.41449
G1 X102.02 Y91.026 E.02223
G1 X129.968 Y118.974 E1.41449
G1 X129.346 Y118.974 E.02223
M73 P66 R0
G1 X101.399 Y91.026 E1.41449
G1 X100.778 Y91.026 E.02223
G1 X128.725 Y118.974 E1.41449
G1 X128.104 Y118.974 E.02223
M73 P67 R0
G1 X100.157 Y91.026 E1.41449
G1 X99.536 Y91.026 E.02223
G1 X127.483 Y118.974 E1.41449
G1 X126.862 Y118.974 E.02223
M73 P68 R0
G1 X98.915 Y91.026 E1.41449
G1 X98.294 Y91.026 E.02223
G1 X126.241 Y118.974 E1.41449
G1 X125.62 Y118.974 E.02223
M73 P69 R0
G1 X97.672 Y91.026 E1.41449
G1 X97.051 Y91.026 E.02223
G1 X124.999 Y118.974 E1.41449
G1 X124.378 Y118.974 E.02223
M73 P70 R0
G1 X96.43 Y91.026 E1.41449
G1 X95.809 Y91.026 E.02223
G1 X123.756 Y118.974 E1.41449
G1 X123.135 Y118.974 E.02223
M73 P71 R0
G1 X95.188 Y91.026 E1.41449
G1 X94.567 Y91.026 E.02223
G1 X122.514 Y118.974 E1.41449
G1 X121.893 Y118.974 E.02223
M73 P72 R0
G1 X93.946 Y91.026 E1.41449
G1 X93.325 Y91.026 E.02223
G1 X121.272 Y118.974 E1.41449
G1 X120.651 Y118.974 E.02223
M73 P73 R0
G1 X92.704 Y91.026 E1.41449
G1 X92.082 Y91.026 E.02223
G1 X120.03 Y118.974 E1.41449
G1 X119.409 Y118.974 E.02223
M73 P74 R0
G1 X91.461 Y91.026 E1.41449
G1 X90.84 Y91.026 E.02223
G1 X118.788 Y118.974 E1.41449
G1 X118.166 Y118.974 E.02223
M73 P75 R0
G1 X90.219 Y91.026 E1.41449
G1 X89.598 Y91.026 E.02223
G1 X117.545 Y118.974 E1.41449
G1 X116.924 Y118.974 E.02223
M73 P76 R0
G1 X88.977 Y91.026 E1.41449
G1 X88.356 Y91.026 E.02223
G1 X116.303 Y118.974 E1.41449
G1 X115.682 Y118.974 E.02223
M73 P77 R0
G1 X87.735 Y91.026 E1.41449
G1 X87.114 Y91.026 E.02223
G1 X115.061 Y118.974 E1.41449
G1 X114.44 Y118.974 E.02223
M73 P78 R0
G1 X86.492 Y91.026 E1.41449
G1 X85.871 Y91.026 E.02223
G1 X113.819 Y118.974 E1.41449
G1 X113.198 Y118.974 E.02223
M73 P79 R0
G1 X85.25 Y91.026 E1.41449
G1 X84.629 Y91.026 E.02223
G1 X112.576 Y118.974 E1.41449
G1 X111.955 Y118.974 E.02223
M73 P80 R0
G1 X84.008 Y91.026 E1.41449
G1 X83.387 Y91.026 E.02223
G1 X111.334 Y118.974 E1.41449
G1 X110.713 Y118.974 E.02223
M73 P81 R0
G1 X82.766 Y91.026 E1.41449
G1 X82.145 Y91.026 E.02223
G1 X110.092 Y118.974 E1.41449
G1 X109.471 Y118.974 E.02223
M73 P82 R0
G1 X81.524 Y91.026 E1.41449
G1 X81.026 Y91.026 E.0178
G1 X81.026 Y91.15 E.00443
M73 P83 R0
G1 X108.85 Y118.974 E1.40822
G1 X108.229 Y118.974 E.02223
G1 X81.026 Y91.771 E1.37678
G1 X81.026 Y92.392 E.02223
G1 X107.608 Y118.974 E1.34535
M73 P84 R0
G1 X106.986 Y118.974 E.02223
G1 X81.026 Y93.014 E1.31391
G1 X81.026 Y93.635 E.02223
G1 X106.365 Y118.974 E1.28247
G1 X105.744 Y118.974 E.02223
M73 P85 R0
G1 X81.026 Y94.256 E1.25104
G1 X81.026 Y94.877 E.02223
G1 X105.123 Y118.974 E1.2196
G1 X104.502 Y118.974 E.02223
M73 P86 R0
G1 X81.026 Y95.498 E1.18817
G1 X81.026 Y96.119 E.02223
G1 X103.881 Y118.974 E1.15673
G1 X103.26 Y118.974 E.02223
M73 P87 R0
G1 X81.026 Y96.74 E1.12529
G1 X81.026 Y97.361 E.02223
G1 X102.639 Y118.974 E1.09386
G1 X102.018 Y118.974 E.02223
G1 X81.026 Y97.982 E1.06242
M73 P88 R0
G1 X81.026 Y98.604 E.02223
G1 X101.396 Y118.974 E1.03099
G1 X100.775 Y118.974 E.02223
G1 X81.026 Y99.225 E.99955
G1 X81.026 Y99.846 E.02223
M73 P89 R0
G1 X100.154 Y118.974 E.96811
G1 X99.533 Y118.974 E.02223
G1 X81.026 Y100.467 E.93668
G1 X81.026 Y101.088 E.02223
G1 X98.912 Y118.974 E.90524
G1 X98.291 Y118.974 E.02223
M73 P90 R0
G1 X81.026 Y101.709 E.87381
G1 X81.026 Y102.33 E.02223
G1 X97.67 Y118.974 E.84237
G1 X97.049 Y118.974 E.02223
G1 X81.026 Y102.951 E.81093
G1 X81.026 Y103.572 E.02223
M73 P91 R0
G1 X96.428 Y118.974 E.7795
G1 X95.807 Y118.974 E.02223
G1 X81.026 Y104.193 E.74806
G1 X81.026 Y104.815 E.02223
G1 X95.185 Y118.974 E.71663
G1 X94.564 Y118.974 E.02223
M73 P92 R0
G1 X81.026 Y105.436 E.68519
G1 X81.026 Y106.057 E.02223
G1 X93.943 Y118.974 E.65375
G1 X93.322 Y118.974 E.02223
G1 X81.026 Y106.678 E.62232
G1 X81.026 Y107.299 E.02223
G1 X92.701 Y118.974 E.59088
G1 X92.08 Y118.974 E.02223
M73 P93 R0
G1 X81.026 Y107.92 E.55945
G1 X81.026 Y108.541 E.02223
G1 X91.459 Y118.974 E.52801
G1 X90.838 Y118.974 E.02223
G1 X81.026 Y109.162 E.49657
G1 X81.026 Y109.783 E.02223
G1 X90.217 Y118.974 E.46514
G1 X89.595 Y118.974 E.02223
G1 X81.026 Y110.405 E.4337
G1 X81.026 Y111.026 E.02223
M73 P94 R0
G1 X88.974 Y118.974 E.40227
G1 X88.353 Y118.974 E.02223
G1 X81.026 Y111.647 E.37083
G1 X81.026 Y112.268 E.02223
G1 X87.732 Y118.974 E.33939
G1 X87.111 Y118.974 E.02223
G1 X81.026 Y112.889 E.30796
G1 X81.026 Y113.51 E.02223
G1 X86.49 Y118.974 E.27652
G1 X85.869 Y118.974 E.02223
G1 X81.026 Y114.131 E.24509
M73 P95 R0
G1 X81.026 Y114.752 E.02223
G1 X85.248 Y118.974 E.21365
G1 X84.627 Y118.974 E.02223
G1 X81.026 Y115.373 E.18221
G1 X81.026 Y115.995 E.02223
G1 X84.005 Y118.974 E.15078
G1 X83.384 Y118.974 E.02223
G1 X81.026 Y116.616 E.11934
G1 X81.026 Y117.237 E.02223
G1 X82.763 Y118.974 E.08791
G1 X82.142 Y118.974 E.02223
G1 X81.026 Y117.858 E.05647
G1 X81.026 Y118.479 E.02223
G1 X81.718 Y119.17 E.03499
; stop printing object Cube id:106035774743264 copy 0
G1 E-.28 F2100
;WIPE_START
G1 F3600
G1 X81.026 Y118.479 E-.11732
G1 X81.026 Y118.457 E-.00268
;WIPE_END
M106 S0
;TYPE:Custom
; filament end gcode
G1 Z1.2 F720 ; Move print head up
G1 X0 Y200 F3600 ; park
G1 Z49.2 F720 ; Move print head further up
M73 P97 R0
G4 ; wait
M104 S0 ; turn off temperature
M140 S0 ; turn off heatbed
M107 ; turn off fan
M900 K0 ; reset LA
M84 ; disable motors
M73 P100 R0
; EXECUTABLE_BLOCK_END

; filament used [mm] = 242.75
; filament used [cm3] = 0.58
; filament used [g] = 0.76
; filament cost = 0.02
; total filament used [g] = 0.76
; total filament cost = 0.02
; total layers count = 1
; estimated printing time (normal mode) = 2m 26s
; estimated first layer printing time (normal mode) = 7s

; CONFIG_BLOCK_START
; accel_to_decel_enable = 1
; accel_to_decel_factor = 50%
; activate_air_filtration = 0
; activate_chamber_temp_control = 0
; adaptive_bed_mesh_margin = 0
; adaptive_pressure_advance = 0
; adaptive_pressure_advance_bridges = 0
; adaptive_pressure_advance_model = "0,0,0\n0,0,0"
; adaptive_pressure_advance_overhangs = 0
; additional_cooling_fan_speed = 70
; align_infill_direction_to_model = 0
; alternate_extra_wall = 0
; auxiliary_fan = 0
; bbl_calib_mark_logo = 1
; bbl_use_printhost = 0
; bed_custom_model = /home/jepsu/Documents/Rintteri/_Prusa/mk2_bed.stl
; bed_custom_texture = /home/jepsu/Documents/Rintteri/_Prusa/jose-mk1.png
; bed_exclude_area = 0x0
; bed_mesh_max = 99999,99999
; bed_mesh_min = -99999,-99999
; bed_mesh_probe_distance = 50,50
; before_layer_change_gcode = ;BEFORE_LAYER_CHANGE\nG92 E0.0\n;[layer_z]\n
; best_object_pos = 0.5,0.5
; bottom_shell_layers = 2
; bottom_shell_thickness = 0
; bottom_solid_infill_flow_ratio = 1
; bottom_surface_density = 100%
; bottom_surface_pattern = rectilinear
; bridge_acceleration = 1000
; bridge_angle = 0
; bridge_density = 100%
; bridge_flow = 1
; bridge_no_support = 0
; bridge_speed = 15
; brim_ears_detection_length = 1
; brim_ears_max_angle = 125
; brim_object_gap = 0.1
; brim_type = no_brim
; brim_width = 5
; calib_flowrate_topinfill_special_order = 0
; chamber_temperature = 0
; change_extrusion_role_gcode = 
; change_filament_gcode = M600\nG1 E0.3 F1500 ; prime after color change
; close_fan_the_first_x_layers = 1
; complete_print_exhaust_fan_speed = 70
; cool_plate_temp = 35
; cool_plate_temp_initial_layer = 35
; cooling_tube_length = 5
; cooling_tube_retraction = 91.5
