; HEADER_BLOCK_START
; generated by OrcaSlicer 2.3.1 on 2025-12-21 at 11:54:55
; total layer number: 1
; filament_density: 1.31
; filament_diameter: 1.75
; max_z_height: 0.20
; HEADER_BLOCK_END

; THUMBNAIL_BLOCK_START

;
; THUMBNAIL_BLOCK_END

; THUMBNAIL_BLOCK_START

;
; THUMBNAIL_BLOCK_END

; external perimeters extrusion width = 0.40mm
; perimeters extrusion width = 0.44mm
; infill extrusion width = 0.44mm
; solid infill extrusion width = 0.48mm
; top infill extrusion width = 0.38mm
; first layer extrusion width = 0.48mm

; EXECUTABLE_BLOCK_START
EXCLUDE_OBJECT_DEFINE NAME=Cube_id_0_copy_0 CENTER=125,105 POLYGON=[[100,80],[150,80],[150,130],[100,130],[100,80]]
M73 P0 R2
;TYPE:Custom
M115 U3.2.3 ; tell printer latest fw version
G90 ; use absolute coordinates
M83 ; extruder relative mode
M204 S10000 T1500 ; MK2 firmware only supports the old M204 format
M104 S220 ; set extruder temp
M140 S55 ; set bed temp
M190 S55 ; wait for bed temp
M109 S220 ; wait for extruder temp
G28 W ; home all without mesh bed level
G80 ; mesh bed leveling
G1 Z0.2 F720
G1 Y-2 F1000 ; go outside print area
G92 E0
G1 X60 E9 F1000 ; intro line
G1 X100 E12.5 F1000 ; intro line
M73 P2 R2
G92 E0
G90
G21
M83 ; use relative distances for extrusion
; Filament gcode
M106 S0
;LAYER_CHANGE
;Z:0.2
;HEIGHT:0.2
;BEFORE_LAYER_CHANGE
G92 E0.0
;0.2

G1 E-.4 F2100
M73 P4 R2
;AFTER_LAYER_CHANGE
;0.2
;_SET_FAN_SPEED_CHANGING_LAYER
SET_VELOCITY_LIMIT ACCEL=800 ACCEL_TO_DECEL=400
; printing object Cube id:0 copy 0
EXCLUDE_OBJECT_START NAME=Cube_id_0_copy_0
G1 Z.6 F10800
G1 X148.864 Y128.864
G1 Z.6
M73 P5 R2
G1 Z.2
G1 E.4 F2100
;TYPE:Inner wall
;WIDTH:0.479999
G1 F1200
G1 X101.136 Y128.864 E1.69993
G1 X101.136 Y81.136 E1.69993
M73 P6 R2
G1 X148.864 Y81.136 E1.69993
M73 P8 R2
G1 X148.864 Y128.824 E1.6985
M73 P10 R2
G1 X149.301 Y129.301 F10800
M73 P12 R2
G1 F1200
G1 X100.699 Y129.301 E1.73106
G1 X100.699 Y80.699 E1.73106
M73 P13 R2
G1 X149.301 Y80.699 E1.73106
M73 P15 R1
G1 X149.301 Y129.261 E1.72964
M73 P17 R1
G1 X149.76 Y129.76 F10800
M73 P19 R1
;TYPE:Outer wall
G1 F1200
G1 X100.24 Y129.76 E1.76372
G1 X100.24 Y80.24 E1.76372
M73 P20 R1
G1 X149.76 Y80.24 E1.76372
M73 P22 R1
G1 X149.76 Y129.72 E1.7623
M73 P24 R1
G1 E-.28 F2100
M73 P26 R1
;WIPE_START
G1 F1200
G1 X148.76 Y129.721 E-.12
;WIPE_END
G1 Z.6 F10800
G1 X148.733 Y82.155 Z.6
G1 Z.2
G1 E.4 F2100
;TYPE:Bottom surface
;WIDTH:0.482067
G1 F3600
G1 X148.042 Y81.463 E.03498
G1 X147.421 Y81.463 E.02222
G1 X148.537 Y82.579 E.05646
G1 X148.537 Y83.2 E.02222
G1 X146.8 Y81.463 E.08789
G1 X146.179 Y81.463 E.02222
G1 X148.537 Y83.821 E.11932
G1 X148.537 Y84.442 E.02222
G1 X145.558 Y81.463 E.15075
G1 X144.937 Y81.463 E.02222
M73 P27 R1
G1 X148.537 Y85.063 E.18218
G1 X148.537 Y85.684 E.02222
G1 X144.316 Y81.463 E.21361
G1 X143.695 Y81.463 E.02222
G1 X148.537 Y86.305 E.24504
G1 X148.537 Y86.926 E.02222
G1 X143.074 Y81.463 E.27647
G1 X142.453 Y81.463 E.02222
G1 X148.537 Y87.547 E.3079
G1 X148.537 Y88.168 E.02222
G1 X141.832 Y81.463 E.33933
G1 X141.21 Y81.463 E.02222
G1 X148.537 Y88.79 E.37076
G1 X148.537 Y89.411 E.02222
M73 P28 R1
G1 X140.589 Y81.463 E.40218
G1 X139.968 Y81.463 E.02222
G1 X148.537 Y90.032 E.43361
G1 X148.537 Y90.653 E.02222
G1 X139.347 Y81.463 E.46504
G1 X138.726 Y81.463 E.02222
G1 X148.537 Y91.274 E.49647
G1 X148.537 Y91.895 E.02222
G1 X138.105 Y81.463 E.5279
G1 X137.484 Y81.463 E.02222
M73 P29 R1
G1 X148.537 Y92.516 E.55933
G1 X148.537 Y93.137 E.02222
G1 X136.863 Y81.463 E.59076
G1 X136.242 Y81.463 E.02222
G1 X148.537 Y93.758 E.62219
G1 X148.537 Y94.379 E.02222
G1 X135.621 Y81.463 E.65362
G1 X135 Y81.463 E.02222
M73 P30 R1
G1 X148.537 Y95 E.68505
G1 X148.537 Y95.621 E.02222
G1 X134.379 Y81.463 E.71648
G1 X133.758 Y81.463 E.02222
G1 X148.537 Y96.242 E.74791
G1 X148.537 Y96.863 E.02222
M73 P31 R1
G1 X133.137 Y81.463 E.77934
G1 X132.516 Y81.463 E.02222
G1 X148.537 Y97.484 E.81077
G1 X148.537 Y98.105 E.02222
G1 X131.895 Y81.463 E.8422
G1 X131.274 Y81.463 E.02222
M73 P32 R1
G1 X148.537 Y98.726 E.87363
G1 X148.537 Y99.347 E.02222
G1 X130.653 Y81.463 E.90506
G1 X130.032 Y81.463 E.02222
G1 X148.537 Y99.968 E.93649
G1 X148.537 Y100.589 E.02222
M73 P33 R1
G1 X129.411 Y81.463 E.96792
G1 X128.79 Y81.463 E.02222
G1 X148.537 Y101.21 E.99935
G1 X148.537 Y101.832 E.02222
G1 X128.168 Y81.463 E1.03078
G1 X127.547 Y81.463 E.02222
M73 P34 R1
G1 X148.537 Y102.453 E1.06221
G1 X148.537 Y103.074 E.02222
G1 X126.926 Y81.463 E1.09364
G1 X126.305 Y81.463 E.02222
M73 P35 R1
G1 X148.537 Y103.695 E1.12507
G1 X148.537 Y104.316 E.02222
G1 X125.684 Y81.463 E1.1565
G1 X125.063 Y81.463 E.02222
M73 P36 R1
G1 X148.537 Y104.937 E1.18793
G1 X148.537 Y105.558 E.02222
G1 X124.442 Y81.463 E1.21936
G1 X123.821 Y81.463 E.02222
G1 X148.537 Y106.179 E1.25079
G1 X148.537 Y106.8 E.02222
M73 P37 R1
G1 X123.2 Y81.463 E1.28222
G1 X122.579 Y81.463 E.02222
G1 X148.537 Y107.421 E1.31365
G1 X148.537 Y108.042 E.02222
M73 P38 R1
G1 X121.958 Y81.463 E1.34507
G1 X121.337 Y81.463 E.02222
G1 X148.537 Y108.663 E1.3765
G1 X148.537 Y109.284 E.02222
M73 P39 R1
G1 X120.716 Y81.463 E1.40793
G1 X120.095 Y81.463 E.02222
G1 X148.537 Y109.905 E1.43936
G1 X148.537 Y110.526 E.02222
M73 P40 R1
G1 X119.474 Y81.463 E1.47079
G1 X118.853 Y81.463 E.02222
M73 P41 R1
G1 X148.537 Y111.147 E1.50222
G1 X148.537 Y111.768 E.02222
G1 X118.232 Y81.463 E1.53365
G1 X117.611 Y81.463 E.02222
M73 P42 R1
G1 X148.537 Y112.389 E1.56508
G1 X148.537 Y113.01 E.02222
G1 X116.99 Y81.463 E1.59651
G1 X116.369 Y81.463 E.02222
M73 P43 R1
G1 X148.537 Y113.631 E1.62794
G1 X148.537 Y114.252 E.02222
G1 X115.748 Y81.463 E1.65937
G1 X115.126 Y81.463 E.02222
M73 P44 R1
G1 X148.537 Y114.874 E1.6908
G1 X148.537 Y115.495 E.02222
M73 P45 R1
G1 X114.505 Y81.463 E1.72223
G1 X113.884 Y81.463 E.02222
G1 X148.537 Y116.116 E1.75366
G1 X148.537 Y116.737 E.02222
M73 P46 R1
G1 X113.263 Y81.463 E1.78509
G1 X112.642 Y81.463 E.02222
M73 P47 R1
G1 X148.537 Y117.358 E1.81652
G1 X148.537 Y117.979 E.02222
G1 X112.021 Y81.463 E1.84795
G1 X111.4 Y81.463 E.02222
M73 P48 R1
G1 X148.537 Y118.6 E1.87938
G1 X148.537 Y119.221 E.02222
M73 P49 R1
G1 X110.779 Y81.463 E1.91081
G1 X110.158 Y81.463 E.02222
G1 X148.537 Y119.842 E1.94224
G1 X148.537 Y120.463 E.02222
M73 P50 R1
G1 X109.537 Y81.463 E1.97367
G1 X108.916 Y81.463 E.02222
M73 P51 R1
G1 X148.537 Y121.084 E2.0051
G1 X148.537 Y121.705 E.02222
G1 X108.295 Y81.463 E2.03653
G1 X107.674 Y81.463 E.02222
M73 P52 R1
G1 X148.537 Y122.326 E2.06796
G1 X148.537 Y122.947 E.02222
M73 P53 R1
G1 X107.053 Y81.463 E2.09939
G1 X106.432 Y81.463 E.02222
M73 P54 R1
G1 X148.537 Y123.568 E2.13082
G1 X148.537 Y124.189 E.02222
G1 X105.811 Y81.463 E2.16225
G1 X105.19 Y81.463 E.02222
M73 P55 R1
G1 X148.537 Y124.81 E2.19368
G1 X148.537 Y125.431 E.02222
M73 P56 R1
G1 X104.569 Y81.463 E2.22511
G1 X103.948 Y81.463 E.02222
M73 P57 R1
G1 X148.537 Y126.052 E2.25654
G1 X148.537 Y126.673 E.02222
M73 P58 R0
G1 X103.327 Y81.463 E2.28797
G1 X102.706 Y81.463 E.02222
G1 X148.537 Y127.294 E2.31939
G1 X148.537 Y127.916 E.02222
M73 P59 R0
G1 X102.084 Y81.463 E2.35082
G1 X101.463 Y81.463 E.02222
M73 P60 R0
G1 X148.537 Y128.537 E2.38225
G1 X147.916 Y128.537 E.02222
M73 P61 R0
G1 X101.463 Y82.084 E2.35083
G1 X101.463 Y82.706 E.02222
M73 P62 R0
G1 X147.294 Y128.537 E2.3194
G1 X146.673 Y128.537 E.02222
M73 P63 R0
G1 X101.463 Y83.327 E2.28797
G1 X101.463 Y83.948 E.02222
G1 X146.052 Y128.537 E2.25654
G1 X145.431 Y128.537 E.02222
M73 P64 R0
G1 X101.463 Y84.569 E2.22511
G1 X101.463 Y85.19 E.02222
M73 P65 R0
G1 X144.81 Y128.537 E2.19368
G1 X144.189 Y128.537 E.02222
M73 P66 R0
G1 X101.463 Y85.811 E2.16225
G1 X101.463 Y86.432 E.02222
M73 P67 R0
G1 X143.568 Y128.537 E2.13082
G1 X142.947 Y128.537 E.02222
G1 X101.463 Y87.053 E2.09939
G1 X101.463 Y87.674 E.02222
M73 P68 R0
G1 X142.326 Y128.537 E2.06796
G1 X141.705 Y128.537 E.02222
M73 P69 R0
G1 X101.463 Y88.295 E2.03653
G1 X101.463 Y88.916 E.02222
M73 P70 R0
G1 X141.084 Y128.537 E2.0051
G1 X140.463 Y128.537 E.02222
G1 X101.463 Y89.537 E1.97367
G1 X101.463 Y90.158 E.02222
M73 P71 R0
G1 X139.842 Y128.537 E1.94224
G1 X139.221 Y128.537 E.02222
M73 P72 R0
G1 X101.463 Y90.779 E1.91081
G1 X101.463 Y91.4 E.02222
G1 X138.6 Y128.537 E1.87938
M73 P73 R0
G1 X137.979 Y128.537 E.02222
G1 X101.463 Y92.021 E1.84795
G1 X101.463 Y92.642 E.02222
M73 P74 R0
G1 X137.358 Y128.537 E1.81652
G1 X136.737 Y128.537 E.02222
M73 P75 R0
G1 X101.463 Y93.263 E1.78509
G1 X101.463 Y93.884 E.02222
G1 X136.116 Y128.537 E1.75366
G1 X135.495 Y128.537 E.02222
M73 P76 R0
G1 X101.463 Y94.505 E1.72223
G1 X101.463 Y95.126 E.02222
G1 X134.874 Y128.537 E1.6908
G1 X134.252 Y128.537 E.02222
M73 P77 R0
G1 X101.463 Y95.748 E1.65937
G1 X101.463 Y96.369 E.02222
M73 P78 R0
G1 X133.631 Y128.537 E1.62794
G1 X133.01 Y128.537 E.02222
G1 X101.463 Y96.99 E1.59651
G1 X101.463 Y97.611 E.02222
M73 P79 R0
G1 X132.389 Y128.537 E1.56508
G1 X131.768 Y128.537 E.02222
G1 X101.463 Y98.232 E1.53365
G1 X101.463 Y98.853 E.02222
M73 P80 R0
G1 X131.147 Y128.537 E1.50222
G1 X130.526 Y128.537 E.02222
M73 P81 R0
G1 X101.463 Y99.474 E1.47079
G1 X101.463 Y100.095 E.02222
G1 X129.905 Y128.537 E1.43937
G1 X129.284 Y128.537 E.02222
M73 P82 R0
G1 X101.463 Y100.716 E1.40794
G1 X101.463 Y101.337 E.02222
G1 X128.663 Y128.537 E1.37651
G1 X128.042 Y128.537 E.02222
M73 P83 R0
G1 X101.463 Y101.958 E1.34508
G1 X101.463 Y102.579 E.02222
G1 X127.421 Y128.537 E1.31365
G1 X126.8 Y128.537 E.02222
M73 P84 R0
G1 X101.463 Y103.2 E1.28222
G1 X101.463 Y103.821 E.02222
G1 X126.179 Y128.537 E1.25079
G1 X125.558 Y128.537 E.02222
M73 P85 R0
G1 X101.463 Y104.442 E1.21936
G1 X101.463 Y105.063 E.02222
G1 X124.937 Y128.537 E1.18793
G1 X124.316 Y128.537 E.02222
M73 P86 R0
G1 X101.463 Y105.684 E1.1565
G1 X101.463 Y106.305 E.02222
G1 X123.695 Y128.537 E1.12507
G1 X123.074 Y128.537 E.02222
G1 X101.463 Y106.926 E1.09364
G1 X101.463 Y107.547 E.02222
M73 P87 R0
G1 X122.453 Y128.537 E1.06221
G1 X121.832 Y128.537 E.02222
G1 X101.463 Y108.168 E1.03078
G1 X101.463 Y108.79 E.02222
M73 P88 R0
G1 X121.21 Y128.537 E.99935
G1 X120.589 Y128.537 E.02222
G1 X101.463 Y109.411 E.96792
G1 X101.463 Y110.032 E.02222
G1 X119.968 Y128.537 E.93649
G1 X119.347 Y128.537 E.02222
M73 P89 R0
G1 X101.463 Y110.653 E.90506
G1 X101.463 Y111.274 E.02222
G1 X118.726 Y128.537 E.87363
G1 X118.105 Y128.537 E.02222
M73 P90 R0
G1 X101.463 Y111.895 E.8422
G1 X101.463 Y112.516 E.02222
G1 X117.484 Y128.537 E.81077
G1 X116.863 Y128.537 E.02222
G1 X101.463 Y113.137 E.77934
G1 X101.463 Y113.758 E.02222
M73 P91 R0
G1 X116.242 Y128.537 E.74791
G1 X115.621 Y128.537 E.02222
G1 X101.463 Y114.379 E.71648
G1 X101.463 Y115 E.02222
G1 X115 Y128.537 E.68505
G1 X114.379 Y128.537 E.02222
G1 X101.463 Y115.621 E.65362
G1 X101.463 Y116.242 E.02222
M73 P92 R0
G1 X113.758 Y128.537 E.62219
G1 X113.137 Y128.537 E.02222
G1 X101.463 Y116.863 E.59076
G1 X101.463 Y117.484 E.02222
G1 X112.516 Y128.537 E.55933
G1 X111.895 Y128.537 E.02222
G1 X101.463 Y118.105 E.5279
G1 X101.463 Y118.726 E.02222
M73 P93 R0
G1 X111.274 Y128.537 E.49647
G1 X110.653 Y128.537 E.02222
G1 X101.463 Y119.347 E.46505
G1 X101.463 Y119.968 E.02222
G1 X110.032 Y128.537 E.43362
G1 X109.411 Y128.537 E.02222
G1 X101.463 Y120.589 E.40219
G1 X101.463 Y121.21 E.02222
G1 X108.79 Y128.537 E.37076
M73 P94 R0
G1 X108.168 Y128.537 E.02222
G1 X101.463 Y121.832 E.33933
G1 X101.463 Y122.453 E.02222
G1 X107.547 Y128.537 E.3079
G1 X106.926 Y128.537 E.02222
G1 X101.463 Y123.074 E.27647
G1 X101.463 Y123.695 E.02222
G1 X106.305 Y128.537 E.24504
G1 X105.684 Y128.537 E.02222
G1 X101.463 Y124.316 E.21361
G1 X101.463 Y124.937 E.02222
G1 X105.063 Y128.537 E.18218
G1 X104.442 Y128.537 E.02222
M73 P95 R0
G1 X101.463 Y125.558 E.15075
G1 X101.463 Y126.179 E.02222
G1 X103.821 Y128.537 E.11932
G1 X103.2 Y128.537 E.02222
G1 X101.463 Y126.8 E.08789
G1 X101.463 Y127.421 E.02222
G1 X102.579 Y128.537 E.05646
G1 X101.958 Y128.537 E.02222
G1 X101.267 Y127.845 E.03498
; stop printing object Cube id:0 copy 0
G1 E-.28 F2100
;WIPE_START
G1 F3600
G1 X101.958 Y128.537 E-.11731
G1 X101.98 Y128.537 E-.00269
;WIPE_END
EXCLUDE_OBJECT_END NAME=Cube_id_0_copy_0
M106 S0
;TYPE:Custom
; filament end gcode
G1 Z1.2 F720 ; Move print head up
G1 X0 Y200 F3600 ; park
G1 Z49.2 F720 ; Move print head further up
M73 P97 R0
G4 ; wait
M104 S0 ; turn off temperature
M140 S0 ; turn off heatbed
M107 ; turn off fan
M900 K0 ; reset LA
M84 ; disable motors
M73 P100 R0
; EXECUTABLE_BLOCK_END

; filament used [mm] = 226.20
; filament used [cm3] = 0.54
; filament used [g] = 0.71
; filament cost = 0.02
; total filament used [g] = 0.71
; total filament cost = 0.02
; total layers count = 1
; estimated printing time (normal mode) = 2m 20s
; estimated first layer printing time (normal mode) = 7s

; CONFIG_BLOCK_START
; accel_to_decel_enable = 1
; accel_to_decel_factor = 50%
; activate_air_filtration = 0
; activate_chamber_temp_control = 0
; adaptive_bed_mesh_margin = 0
; adaptive_pressure_advance = 0
; adaptive_pressure_advance_bridges = 0
; adaptive_pressure_advance_model = "0,0,0\n0,0,0"
; adaptive_pressure_advance_overhangs = 0
; additional_cooling_fan_speed = 70
; align_infill_direction_to_model = 0
; alternate_extra_wall = 0
; auxiliary_fan = 0
; bbl_calib_mark_logo = 1
; bbl_use_printhost = 0
; bed_custom_model = 
; bed_custom_texture = 
; bed_exclude_area = 0x0
; bed_mesh_max = 99999,99999
; bed_mesh_min = -99999,-99999
; bed_mesh_probe_distance = 50,50
; before_layer_change_gcode = ;BEFORE_LAYER_CHANGE\nG92 E0.0\n;[layer_z]\n
; best_object_pos = 0.5,0.5
; bottom_shell_layers = 3
; bottom_shell_thickness = 0
; bottom_solid_infill_flow_ratio = 1
; bottom_surface_density = 100%
; bottom_surface_pattern = monotonic
; bridge_acceleration = 1000
; bridge_angle = 0
; bridge_density = 100%
; bridge_flow = 1
; bridge_no_support = 0
; bridge_speed = 15
; brim_ears_detection_length = 1
; brim_ears_max_angle = 125
; brim_object_gap = 0.1
; brim_type = no_brim
; brim_width = 5
; calib_flowrate_topinfill_special_order = 0
; chamber_temperature = 0
; change_extrusion_role_gcode = 
; change_filament_gcode = M600\nG1 E0.3 F1500 ; prime after color change
; close_fan_the_first_x_layers = 1
; complete_print_exhaust_fan_speed = 70
; cool_plate_temp = 35
; cool_plate_temp_initial_layer = 35
; cooling_tube_length = 5
; cooling_tube_retraction = 91.5
; counterbore_hole_bridging = none
; curr_bed_type = High Temp Plate
; default_acceleration = 800
; default_bed_type = 
; default_filament_colour = ""
; default_filament_profile = "Generic PLA @System"
; default_jerk = 0
; default_junction_deviation = 0
; default_print_profile = 0.20mm Standard @MyKlipper
; deretraction_speed = 0
; detect_narrow_internal_solid_infill = 1
; detect_overhang_wall = 1
; detect_thin_wall = 0
; different_settings_to_system = bridge_acceleration;bridge_speed;brim_type;default_acceleration;gap_infill_speed;initial_layer_acceleration;initial_layer_infill_speed;initial_layer_speed;inner_wall_acceleration;inner_wall_speed;internal_solid_infill_acceleration;internal_solid_infill_speed;outer_wall_acceleration;outer_wall_speed;overhang_2_4_speed;overhang_3_4_speed;overhang_4_4_speed;small_perimeter_speed;sparse_infill_acceleration;sparse_infill_pattern;sparse_infill_speed;top_surface_acceleration;top_surface_speed;travel_acceleration;travel_speed;;before_layer_change_gcode;change_filament_gcode;deretraction_speed;machine_end_gcode;machine_max_acceleration_extruding;machine_max_acceleration_retracting;machine_max_acceleration_x;machine_max_acceleration_y;machine_max_jerk_x;machine_max_jerk_y;machine_max_speed_e;machine_pause_gcode;machine_start_gcode;max_layer_height;min_layer_height;print_host;printable_area;printable_height;retraction_length;retraction_speed
; disable_m73 = 0
; dont_filter_internal_bridges = disabled
; dont_slow_down_outer_wall = 0
; draft_shield = disabled
; during_print_exhaust_fan_speed = 70
; elefant_foot_compensation = 0
; elefant_foot_compensation_layers = 1
; emit_machine_limits_to_gcode = 1
; enable_arc_fitting = 0
; enable_extra_bridge_layer = disabled
; enable_filament_ramming = 1
; enable_long_retraction_when_cut = 0
; enable_overhang_bridge_fan = 1
; enable_overhang_speed = 1
