M118 E1 OCTOAPP_DISABLE_LAYER_MAXIC
; HEADER_BLOCK_START
; generated by OrcaSlicer 2.3.0 on 2025-09-02 at 21:44:27
; total layer number: 67
;_GP_TOTAL_LAYER_NUMBER_PLACEHOLDER
; filament_density: 1.31
; filament_diameter: 1.75
; max_z_height: 13.40
; HEADER_BLOCK_END
; THUMBNAIL_BLOCK_START
;
; THUMBNAIL_BLOCK_END
; THUMBNAIL_BLOCK_START
;
; THUMBNAIL_BLOCK_END
; external perimeters extrusion width = 0.80mm
; perimeters extrusion width = 0.80mm
; infill extrusion width = 0.80mm
; solid infill extrusion width = 0.80mm
; top infill extrusion width = 0.80mm
; external perimeters extrusion width = 0.80mm
; perimeters extrusion width = 0.80mm
; infill extrusion width = 0.80mm
; solid infill extrusion width = 0.80mm
; top infill extrusion width = 0.80mm
; external perimeters extrusion width = 0.80mm
; perimeters extrusion width = 0.80mm
; infill extrusion width = 0.80mm
; solid infill extrusion width = 0.80mm
; top infill extrusion width = 0.80mm
; external perimeters extrusion width = 0.80mm
; perimeters extrusion width = 0.80mm
; infill extrusion width = 0.80mm
; solid infill extrusion width = 0.80mm
; top infill extrusion width = 0.80mm
; external perimeters extrusion width = 0.80mm
; perimeters extrusion width = 0.80mm
; infill extrusion width = 0.80mm
; solid infill extrusion width = 0.80mm
; top infill extrusion width = 0.80mm
; external perimeters extrusion width = 0.80mm
; perimeters extrusion width = 0.80mm
; infill extrusion width = 0.80mm
; solid infill extrusion width = 0.80mm
; top infill extrusion width = 0.80mm
; external perimeters extrusion width = 0.80mm
; perimeters extrusion width = 0.80mm
; infill extrusion width = 0.80mm
; solid infill extrusion width = 0.80mm
; top infill extrusion width = 0.80mm
; external perimeters extrusion width = 0.80mm
; perimeters extrusion width = 0.80mm
; infill extrusion width = 0.80mm
; solid infill extrusion width = 0.80mm
; top infill extrusion width = 0.80mm
; external perimeters extrusion width = 0.80mm
; perimeters extrusion width = 0.80mm
; infill extrusion width = 0.80mm
; solid infill extrusion width = 0.80mm
; top infill extrusion width = 0.80mm
; EXECUTABLE_BLOCK_START
M73 P0 R100
M201 X1000 Y1000 Z200 E800
M203 X200 Y200 Z12 E120
M204 P1250 R1000 T1250
M205 X10.00 Y10.00 Z0.40 E5.00 ; sets the jerk limits, mm/sec
;TYPE:Custom
M862.3 P "" ; printer model check
M862.1 P0.4 ; nozzle diameter check
M115 U3.2.3 ; tell printer latest fw version
G90 ; use absolute coordinates
M83 ; extruder relative mode
M204 S1250 T1000 ; MK2 firmware only supports the old M204 format
M104 S220 ; set extruder temp
M140 S55 ; set bed temp
M190 S55 ; wait for bed temp
M109 S220 ; wait for extruder temp
G28 W ; home all without mesh bed level
G80 ; mesh bed leveling
G1 Z2.0 F3000 ;Move Z Axis up
G1 X43.3127 Y49.3 Z0.8 F5000 ; Move to start
M109 S220 ; wait for nozzle temp to stabilize
G92 E0 ;Reset Extruder
G1 X43.3127 Y79.3 E30 F360.0 ; Extrude 30mm in Y
G92 E0 ;Reset Extruder
G1 E-0.5 F2100 ; Retract
G1 Y89.3 F5000 ; Move 10mm in Y
G92 E0  ;Reset Extrude
G90
G21
M83 ; use relative distances for extrusion
; Filament gcode
M106 S0
;LAYER_CHANGE
M118 E1 OCTOAPP_LAYER LAYER=0
M117 DASHBOARD_LAYER_INDICATOR 1
;Z:0.2
;HEIGHT:0.2
;BEFORE_LAYER_CHANGE
G92 E0.0
;0.2
G1 E-.8 F1800
;_SET_FAN_SPEED_CHANGING_LAYER
M204 S300
; printing object Body1.stl id:15 copy 0
G1 X153.544 Y52.789 F7200
G1 Z.6
G1 Z.2
G1 E.8 F1800
;TYPE:Inner wall
;WIDTH:1.02187
G1 F1200
G1 X155.734 Y52.789 E.17112
G1 X155.278 Y53.061 E.04143
G1 X154.733 Y53.5 E.05468
G1 X154.375 Y53.873 E.0404
G1 X154.046 Y54.298 E.04199
G1 X153.787 Y54.736 E.0398
G1 X153.78 Y53.329 E.10995
G1 X153.56 Y52.826 E.04292
G1 X152.407 Y53.1 F7200
;TYPE:Outer wall
;WIDTH:0.799999
G1 F1200
G1 X143.37 Y53.1 E.54614
G1 X142.897 Y52.627 E.04041
G1 X142.897 Y51.9 E.04395
G1 X161.646 Y51.9 E1.13301
G1 X162.246 Y51.926 E.03629
G1 X162.246 Y53.075 E.06948
G1 X161.646 Y53.1 E.03629
G1 X157.974 Y53.1 E.22186
G1 X157.404 Y53.146 E.03458
G1 X156.85 Y53.273 E.03434
G1 X156.317 Y53.482 E.03458
G1 X155.823 Y53.764 E.0344
G1 X155.414 Y54.081 E.03128
G1 X155.141 Y54.36 E.02357
G1 X154.733 Y54.869 E.03947
G1 X154.457 Y55.368 E.03442
G1 X154.256 Y55.903 E.03455
G1 X154.136 Y56.458 E.03434
G1 X154.097 Y56.991 E.03229
G1 X154.097 Y101.127 E2.66729
G1 X153.625 Y101.6 E.04041
G1 X142.897 Y101.6 E.64828
G1 X142.897 Y100.873 E.04395
G1 X143.37 Y100.4 E.04041
G1 X152.54 Y100.4 E.55418
G1 X152.788 Y100.3 E.01613
G1 X152.897 Y100.043 E.0169
G1 X152.897 Y53.457 E2.81534
G1 X152.808 Y53.221 E.01527
G1 X152.54 Y53.1 E.01775
G1 X152.447 Y53.1 E.00563
G1 E-.08 F1800
;WIPE_START
G1 F1200
G1 X151.447 Y53.1 E-.72
;WIPE_END
G1 X157.312 Y52.526 Z.6 F7200
G1 Z.2
G1 E.8 F1800
;TYPE:Inner wall
;WIDTH:0.494844
G1 F1200
G1 X157.631 Y52.513 E.01152
;WIDTH:0.468882
G1 X157.95 Y52.5 E.01086
;WIDTH:0.44292
G1 X161.646 Y52.5 E.118
G1 E-.08 F1800
;WIPE_START
G1 F1200
G1 X160.646 Y52.5 E-.72
;WIPE_END
G1 X153.013 Y52.5 Z.6 F7200
G1 X143.619 Y52.5 Z.6
G1 Z.2
G1 E.8 F1800
G1 F1200
G1 X152.54 Y52.5 E.28486
G1 E-.08 F1800
;WIPE_START
G1 F1200
G1 X151.54 Y52.5 E-.72
;WIPE_END
G1 X150.31 Y60.033 Z.6 F7200
G1 X143.619 Y101 Z.6
G1 Z.2
G1 E.8 F1800
;WIDTH:0.442916
G1 F1200
G1 X152.54 Y101 E.28486
;WIDTH:0.45742
G1 X152.707 Y100.993 E.00552
;WIDTH:0.506812
G1 X152.808 Y100.968 E.00384
;WIDTH:0.556204
G1 X152.909 Y100.943 E.00425
;WIDTH:0.605596
G1 X153.009 Y100.919 E.00466
;WIDTH:0.654988
G1 X153.11 Y100.894 E.00507
;WIDTH:0.70438
G1 X153.211 Y100.869 E.00548
;WIDTH:0.753772
G1 X153.312 Y100.845 E.00589
G1 X153.338 Y100.75 E.00556
;WIDTH:0.709365
G1 X153.365 Y100.656 E.00522
;WIDTH:0.664957
G1 X153.391 Y100.561 E.00487
;WIDTH:0.62055
G1 X153.418 Y100.467 E.00452
;WIDTH:0.576143
G1 X153.444 Y100.373 E.00417
;WIDTH:0.531735
G1 X153.471 Y100.278 E.00383
;WIDTH:0.487328
G1 X153.497 Y100.184 E.00348
;WIDTH:0.44292
G1 X153.497 Y56.991 E1.37913
;WIDTH:0.48267
G1 X153.517 Y56.413 E.02031
;WIDTH:0.503738
G1 X153.528 Y56.269 E.0053
; stop printing object Body1.stl id:15 copy 0
; printing object Body1.stl id:0 copy 0
G1 E-.08 F1800
;WIPE_START
G1 F1200
G1 X153.517 Y56.413 E-.10364
G1 X153.497 Y56.991 E-.41658
G1 X153.497 Y57.269 E-.19978
;WIPE_END
G1 X145.955 Y56.102 Z.6 F7200
G1 X124.549 Y52.789 Z.6
G1 Z.2
G1 E.8 F1800
;WIDTH:1.02187
G1 F1200
G1 X126.739 Y52.789 E.17112
G1 X126.283 Y53.061 E.04143
G1 X125.739 Y53.5 E.05468
G1 X125.38 Y53.873 E.0404
G1 X125.051 Y54.298 E.04199
G1 X124.792 Y54.736 E.0398
G1 X124.785 Y53.329 E.10995
G1 X124.565 Y52.826 E.04292
G1 X123.412 Y53.1 F7200
;TYPE:Outer wall
;WIDTH:0.799999
G1 F1200
G1 X114.375 Y53.1 E.54614
G1 X113.903 Y52.627 E.04041
G1 X113.903 Y51.9 E.04395
G1 X132.651 Y51.9 E1.13301
G1 X133.251 Y51.926 E.03629
G1 X133.251 Y53.075 E.06948
G1 X132.651 Y53.1 E.03629
G1 X128.979 Y53.1 E.22186
G1 X128.409 Y53.146 E.03458
G1 X127.855 Y53.273 E.03434
G1 X127.322 Y53.482 E.03458
G1 X126.828 Y53.764 E.0344
G1 X126.419 Y54.081 E.03128
G1 X126.146 Y54.36 E.02357
G1 X125.738 Y54.869 E.03947
G1 X125.462 Y55.368 E.03442
G1 X125.261 Y55.903 E.03455
G1 X125.141 Y56.458 E.03434
G1 X125.103 Y56.991 E.03229
G1 X125.103 Y101.127 E2.66729
G1 X124.63 Y101.6 E.04041
G1 X113.903 Y101.6 E.64828
G1 X113.903 Y100.873 E.04395
G1 X114.375 Y100.4 E.04041
G1 X123.545 Y100.4 E.55418
G1 X123.793 Y100.3 E.01613
G1 X123.903 Y100.043 E.0169
G1 X123.903 Y53.457 E2.81534
G1 X123.813 Y53.221 E.01527
G1 X123.545 Y53.1 E.01775
G1 X123.452 Y53.1 E.00563
G1 E-.08 F1800
;WIPE_START
G1 F1200
G1 X122.452 Y53.1 E-.72
;WIPE_END
G1 X128.317 Y52.526 Z.6 F7200
G1 Z.2
G1 E.8 F1800
;TYPE:Inner wall
;WIDTH:0.494844
G1 F1200
G1 X128.636 Y52.513 E.01152
;WIDTH:0.468882
G1 X128.955 Y52.5 E.01086
;WIDTH:0.44292
G1 X132.651 Y52.5 E.118
G1 E-.08 F1800
;WIPE_START
G1 F1200
G1 X131.651 Y52.5 E-.72
;WIPE_END
G1 X124.018 Y52.5 Z.6 F7200
G1 X114.624 Y52.5 Z.6
G1 Z.2
G1 E.8 F1800
G1 F1200
G1 X123.545 Y52.5 E.28486
G1 E-.08 F1800
;WIPE_START
G1 F1200
G1 X122.545 Y52.5 E-.72
;WIPE_END
G1 X121.315 Y60.033 Z.6 F7200
G1 X114.624 Y101 Z.6
G1 Z.2
G1 E.8 F1800
;WIDTH:0.442916
G1 F1200
G1 X123.545 Y101 E.28486
;WIDTH:0.45742
G1 X123.712 Y100.993 E.00552
;WIDTH:0.506812
G1 X123.813 Y100.968 E.00384
;WIDTH:0.556204
G1 X123.914 Y100.943 E.00425
;WIDTH:0.605596
G1 X124.014 Y100.919 E.00466
;WIDTH:0.654988
G1 X124.115 Y100.894 E.00507
;WIDTH:0.70438
G1 X124.216 Y100.869 E.00548
;WIDTH:0.753772
G1 X124.317 Y100.845 E.00589
G1 X124.343 Y100.75 E.00556
;WIDTH:0.709365
G1 X124.37 Y100.656 E.00522
;WIDTH:0.664957
G1 X124.396 Y100.561 E.00487
;WIDTH:0.62055
G1 X124.423 Y100.467 E.00452
;WIDTH:0.576143
G1 X124.449 Y100.373 E.00417
;WIDTH:0.531735
G1 X124.476 Y100.278 E.00383
;WIDTH:0.487328
G1 X124.503 Y100.184 E.00348
;WIDTH:0.44292
G1 X124.503 Y56.991 E1.37913
;WIDTH:0.48267
G1 X124.522 Y56.413 E.02031
;WIDTH:0.503738
G1 X124.533 Y56.269 E.0053
; stop printing object Body1.stl id:0 copy 0
; printing object Body1.stl id:15 copy 0
G1 E-.08 F1800
;WIPE_START
G1 F1200
G1 X124.522 Y56.413 E-.10364
G1 X124.503 Y56.991 E-.41658
G1 X124.503 Y57.269 E-.19978
;WIPE_END
G1 X116.96 Y56.102 Z.6 F7200
G1 X95.554 Y52.789 Z.6
M73 P0 R99
G1 Z.2
G1 E.8 F1800
;WIDTH:1.02187
G1 F1200
G1 X97.744 Y52.789 E.17112
G1 X97.288 Y53.061 E.04143
G1 X96.744 Y53.5 E.05468
G1 X96.386 Y53.873 E.0404
G1 X96.056 Y54.298 E.04199
G1 X95.797 Y54.736 E.0398
G1 X95.79 Y53.329 E.10995
G1 X95.57 Y52.826 E.04292
G1 X94.417 Y53.1 F7200
;TYPE:Outer wall
;WIDTH:0.799999
G1 F1200
G1 X85.38 Y53.1 E.54614
G1 X84.908 Y52.627 E.04041
G1 X84.908 Y51.9 E.04395
G1 X103.656 Y51.9 E1.13301
G1 X104.256 Y51.926 E.03629
G1 X104.256 Y53.075 E.06948
G1 X103.656 Y53.1 E.03629
G1 X99.985 Y53.1 E.22186
G1 X99.414 Y53.146 E.03458
G1 X98.86 Y53.273 E.03434
G1 X98.327 Y53.482 E.03458
G1 X97.833 Y53.764 E.0344
G1 X97.424 Y54.081 E.03128
G1 X97.151 Y54.36 E.02357
G1 X96.743 Y54.869 E.03947
G1 X96.467 Y55.368 E.03442
G1 X96.266 Y55.903 E.03455
G1 X96.146 Y56.458 E.03434
G1 X96.108 Y56.991 E.03229
G1 X96.108 Y101.127 E2.66729
G1 X95.635 Y101.6 E.04041
G1 X84.908 Y101.6 E.64828
G1 X84.908 Y100.873 E.04395
G1 X85.38 Y100.4 E.04041
G1 X94.551 Y100.4 E.55418
G1 X94.798 Y100.3 E.01613
G1 X94.908 Y100.043 E.0169
G1 X94.908 Y53.457 E2.81534
G1 X94.818 Y53.221 E.01527
G1 X94.551 Y53.1 E.01775
G1 X94.457 Y53.1 E.00563
G1 E-.08 F1800
;WIPE_START
G1 F1200
G1 X93.457 Y53.1 E-.72
;WIPE_END
G1 X99.322 Y52.526 Z.6 F7200
G1 Z.2
G1 E.8 F1800
;TYPE:Inner wall
;WIDTH:0.494844
G1 F1200
G1 X99.641 Y52.513 E.01152
;WIDTH:0.468882
G1 X99.96 Y52.5 E.01086
;WIDTH:0.44292
G1 X103.656 Y52.5 E.118
G1 E-.08 F1800
;WIPE_START
G1 F1200
G1 X102.656 Y52.5 E-.72
;WIPE_END
G1 X95.023 Y52.5 Z.6 F7200
G1 X85.629 Y52.5 Z.6
G1 Z.2
G1 E.8 F1800
G1 F1200
G1 X94.551 Y52.5 E.28486
G1 E-.08 F1800
;WIPE_START
G1 F1200
G1 X93.551 Y52.5 E-.72
;WIPE_END
G1 X92.32 Y60.033 Z.6 F7200
G1 X85.629 Y101 Z.6
G1 Z.2
G1 E.8 F1800
;WIDTH:0.442916
G1 F1200
G1 X94.551 Y101 E.28486
;WIDTH:0.45742
G1 X94.717 Y100.993 E.00552
;WIDTH:0.506812
G1 X94.818 Y100.968 E.00384
;WIDTH:0.556204
G1 X94.919 Y100.943 E.00425
;WIDTH:0.605596
G1 X95.02 Y100.919 E.00466
;WIDTH:0.654988
G1 X95.12 Y100.894 E.00507
;WIDTH:0.70438
G1 X95.221 Y100.869 E.00548
;WIDTH:0.753772
G1 X95.322 Y100.845 E.00589
G1 X95.348 Y100.75 E.00556
;WIDTH:0.709365
G1 X95.375 Y100.656 E.00522
;WIDTH:0.664957
G1 X95.401 Y100.561 E.00487
;WIDTH:0.62055
G1 X95.428 Y100.467 E.00452
;WIDTH:0.576143
G1 X95.455 Y100.373 E.00417
;WIDTH:0.531735
G1 X95.481 Y100.278 E.00383
;WIDTH:0.487328
G1 X95.508 Y100.184 E.00348
;WIDTH:0.44292
G1 X95.508 Y56.991 E1.37913
;WIDTH:0.48267
G1 X95.527 Y56.413 E.02031
;WIDTH:0.503738
G1 X95.538 Y56.269 E.0053
; stop printing object Body1.stl id:15 copy 0
; printing object Body1.stl id:7401384512606699519 copy 0
G1 E-.08 F1800
;WIPE_START
G1 F1200
G1 X95.527 Y56.413 E-.10364
G1 X95.508 Y56.991 E-.41658
G1 X95.508 Y57.269 E-.19978
;WIPE_END
G1 X87.965 Y56.102 Z.6 F7200
G1 X66.559 Y52.789 Z.6
G1 Z.2
G1 E.8 F1800
;WIDTH:1.02187
G1 F1200
G1 X68.749 Y52.789 E.17112
G1 X68.294 Y53.061 E.04143
G1 X67.749 Y53.5 E.05468
G1 X67.391 Y53.873 E.0404
G1 X67.061 Y54.298 E.04199
G1 X66.802 Y54.736 E.0398
G1 X66.796 Y53.329 E.10995
G1 X66.575 Y52.826 E.04292
G1 X65.422 Y53.1 F7200
;TYPE:Outer wall
;WIDTH:0.799999
G1 F1200
G1 X56.385 Y53.1 E.54614
G1 X55.913 Y52.627 E.04041
G1 X55.913 Y51.9 E.04395
G1 X74.661 Y51.9 E1.13301
G1 X75.261 Y51.926 E.03629
G1 X75.261 Y53.075 E.06948
G1 X74.661 Y53.1 E.03629
G1 X70.99 Y53.1 E.22186
G1 X70.419 Y53.146 E.03458
G1 X69.865 Y53.273 E.03434
G1 X69.332 Y53.482 E.03458
G1 X68.838 Y53.764 E.0344
G1 X68.429 Y54.081 E.03128
G1 X68.156 Y54.36 E.02357
G1 X67.748 Y54.869 E.03947
G1 X67.472 Y55.368 E.03442
G1 X67.271 Y55.903 E.03455
G1 X67.151 Y56.458 E.03434
G1 X67.113 Y56.991 E.03229
G1 X67.113 Y101.127 E2.66729
G1 X66.64 Y101.6 E.04041
G1 X55.913 Y101.6 E.64828
G1 X55.913 Y100.873 E.04395
G1 X56.385 Y100.4 E.04041
G1 X65.556 Y100.4 E.55418
G1 X65.803 Y100.3 E.01613
G1 X65.913 Y100.043 E.0169
G1 X65.913 Y53.457 E2.81534
G1 X65.823 Y53.221 E.01527
M73 P1 R99
G1 X65.556 Y53.1 E.01775
G1 X65.462 Y53.1 E.00563
G1 E-.08 F1800
;WIPE_START
G1 F1200
G1 X64.462 Y53.1 E-.72
;WIPE_END
G1 X70.327 Y52.526 Z.6 F7200
G1 Z.2
G1 E.8 F1800
;TYPE:Inner wall
;WIDTH:0.494844
G1 F1200
G1 X70.646 Y52.513 E.01152
;WIDTH:0.468882
G1 X70.965 Y52.5 E.01086
;WIDTH:0.44292
G1 X74.661 Y52.5 E.118
G1 E-.08 F1800
;WIPE_START
G1 F1200
G1 X73.661 Y52.5 E-.72
;WIPE_END
G1 X66.028 Y52.5 Z.6 F7200
G1 X56.634 Y52.5 Z.6
G1 Z.2
G1 E.8 F1800
G1 F1200
G1 X65.556 Y52.5 E.28486
G1 E-.08 F1800
;WIPE_START
G1 F1200
G1 X64.556 Y52.5 E-.72
;WIPE_END
G1 X63.325 Y60.033 Z.6 F7200
G1 X56.634 Y101 Z.6
G1 Z.2
G1 E.8 F1800
;WIDTH:0.442916
G1 F1200
G1 X65.556 Y101 E.28486
;WIDTH:0.45742
G1 X65.722 Y100.993 E.00552
;WIDTH:0.506812
G1 X65.823 Y100.968 E.00384
;WIDTH:0.556204
G1 X65.924 Y100.943 E.00425
;WIDTH:0.605596
G1 X66.025 Y100.919 E.00466
;WIDTH:0.654988
G1 X66.125 Y100.894 E.00507
;WIDTH:0.70438
G1 X66.226 Y100.869 E.00548
;WIDTH:0.753772
G1 X66.327 Y100.845 E.00589
G1 X66.354 Y100.75 E.00556
;WIDTH:0.709365
G1 X66.38 Y100.656 E.00522
;WIDTH:0.664957
G1 X66.407 Y100.561 E.00487
;WIDTH:0.62055
G1 X66.433 Y100.467 E.00452
;WIDTH:0.576143
G1 X66.46 Y100.373 E.00417
;WIDTH:0.531735
G1 X66.486 Y100.278 E.00383
;WIDTH:0.487328
G1 X66.513 Y100.184 E.00348
;WIDTH:0.44292
G1 X66.513 Y56.991 E1.37913
;WIDTH:0.48267
G1 X66.533 Y56.413 E.02031
;WIDTH:0.503738
G1 X66.543 Y56.269 E.0053
; stop printing object Body1.stl id:7401384512606699519 copy 0
; printing object Body1.stl id:0 copy 0
G1 E-.08 F1800
;WIPE_START
G1 F1200
G1 X66.533 Y56.413 E-.10364
G1 X66.513 Y56.991 E-.41658
G1 X66.513 Y57.269 E-.19978
;WIPE_END
G1 X66.519 Y64.901 Z.6 F7200
G1 X66.559 Y109.289 Z.6
G1 Z.2
G1 E.8 F1800
;WIDTH:1.02187
G1 F1200
G1 X68.749 Y109.289 E.17112
G1 X68.294 Y109.561 E.04143
G1 X67.749 Y110 E.05468
G1 X67.391 Y110.373 E.0404
G1 X67.061 Y110.798 E.04199
G1 X66.802 Y111.236 E.0398
G1 X66.796 Y109.829 E.10995
G1 X66.575 Y109.326 E.04292
G1 X65.422 Y109.6 F7200
;TYPE:Outer wall
;WIDTH:0.799999
G1 F1200
G1 X56.385 Y109.6 E.54614
G1 X55.913 Y109.127 E.04041
G1 X55.913 Y108.4 E.04395
G1 X74.661 Y108.4 E1.13301
G1 X75.261 Y108.426 E.03629
G1 X75.261 Y109.575 E.06948
G1 X74.661 Y109.6 E.03629
G1 X70.99 Y109.6 E.22186
G1 X70.419 Y109.646 E.03458
G1 X69.865 Y109.773 E.03434
G1 X69.332 Y109.982 E.03458
G1 X68.838 Y110.264 E.0344
G1 X68.429 Y110.581 E.03128
G1 X68.156 Y110.86 E.02357
G1 X67.748 Y111.369 E.03947
G1 X67.472 Y111.868 E.03442
G1 X67.271 Y112.403 E.03455
G1 X67.151 Y112.958 E.03434
G1 X67.113 Y113.491 E.03229
G1 X67.113 Y157.627 E2.66729
G1 X66.64 Y158.1 E.04041
G1 X55.913 Y158.1 E.64828
G1 X55.913 Y157.373 E.04395
G1 X56.385 Y156.9 E.04041
G1 X65.556 Y156.9 E.55418
G1 X65.803 Y156.8 E.01613
G1 X65.913 Y156.543 E.0169
G1 X65.913 Y109.957 E2.81534
G1 X65.823 Y109.721 E.01527
G1 X65.556 Y109.6 E.01775
G1 X65.462 Y109.6 E.00563
G1 E-.08 F1800
;WIPE_START
G1 F1200
G1 X64.462 Y109.6 E-.72
;WIPE_END
G1 X70.327 Y109.026 Z.6 F7200
G1 Z.2
G1 E.8 F1800
;TYPE:Inner wall
;WIDTH:0.494844
G1 F1200
G1 X70.646 Y109.013 E.01152
;WIDTH:0.468882
