M118 E1 OCTOAPP_DISABLE_LAYER_MAXIC
; HEADER_BLOCK_START
; generated by OrcaSlicer 2.3.0 on 2025-09-02 at 21:03:50
; total layer number: 67
;_GP_TOTAL_LAYER_NUMBER_PLACEHOLDER
; filament_density: 1.31
; filament_diameter: 1.75
; max_z_height: 13.40
; HEADER_BLOCK_END
; THUMBNAIL_BLOCK_START
;
; THUMBNAIL_BLOCK_END
; THUMBNAIL_BLOCK_START
;
; THUMBNAIL_BLOCK_END
; external perimeters extrusion width = 0.80mm
; perimeters extrusion width = 0.80mm
; infill extrusion width = 0.80mm
; solid infill extrusion width = 0.80mm
; top infill extrusion width = 0.80mm
; EXECUTABLE_BLOCK_START
M73 P0 R10
M201 X1000 Y1000 Z200 E800
M203 X200 Y200 Z12 E120
M204 P1250 R1000 T1250
M205 X10.00 Y10.00 Z0.40 E5.00 ; sets the jerk limits, mm/sec
;TYPE:Custom
M862.3 P "" ; printer model check
M862.1 P0.4 ; nozzle diameter check
M115 U3.2.3 ; tell printer latest fw version
G90 ; use absolute coordinates
M83 ; extruder relative mode
M204 S1250 T1000 ; MK2 firmware only supports the old M204 format
M104 S220 ; set extruder temp
M140 S55 ; set bed temp
M190 S55 ; wait for bed temp
M109 S220 ; wait for extruder temp
G28 W ; home all without mesh bed level
G80 ; mesh bed leveling
G1 Z2.0 F3000 ;Move Z Axis up
G1 X101.746 Y66.1295 Z0.8 F5000 ; Move to start
M109 S220 ; wait for nozzle temp to stabilize
G92 E0 ;Reset Extruder
G1 X101.746 Y96.1295 E30 F360.0 ; Extrude 30mm in Y
G92 E0 ;Reset Extruder
G1 E-0.5 F2100 ; Retract
M73 P1 R10
G1 Y106.129 F5000 ; Move 10mm in Y
G92 E0  ;Reset Extrude
G90
G21
M83 ; use relative distances for extrusion
; Filament gcode
M106 S0
;LAYER_CHANGE
M118 E1 OCTOAPP_LAYER LAYER=0
M117 DASHBOARD_LAYER_INDICATOR 1
;Z:0.2
;HEIGHT:0.2
;BEFORE_LAYER_CHANGE
G92 E0.0
;0.2
G1 E-.8 F1800
;_SET_FAN_SPEED_CHANGING_LAYER
M204 S300
; printing object Body1.stl id:0 copy 0
G1 X124.992 Y69.619 F7200
G1 Z.6
G1 Z.2
G1 E.8 F1800
;TYPE:Inner wall
;WIDTH:1.02187
G1 F1200
G1 X127.182 Y69.619 E.17112
G1 X126.727 Y69.891 E.04143
G1 X126.182 Y70.33 E.05468
G1 X125.824 Y70.703 E.0404
G1 X125.494 Y71.127 E.04199
G1 X125.235 Y71.566 E.0398
G1 X125.229 Y70.159 E.10995
G1 X125.008 Y69.656 E.04292
G1 X123.856 Y69.929 F7200
;TYPE:Outer wall
;WIDTH:0.799999
G1 F1200
G1 X114.819 Y69.929 E.54614
G1 X114.346 Y69.457 E.04041
G1 X114.346 Y68.729 E.04395
G1 X133.094 Y68.729 E1.13301
G1 X133.694 Y68.755 E.03629
G1 X133.694 Y69.905 E.06948
G1 X133.094 Y69.929 E.03629
G1 X129.423 Y69.929 E.22186
G1 X128.852 Y69.975 E.03458
G1 X128.298 Y70.103 E.03434
G1 X127.766 Y70.311 E.03458
G1 X127.271 Y70.594 E.0344
G1 X126.862 Y70.911 E.03128
G1 X126.589 Y71.189 E.02357
G1 X126.181 Y71.699 E.03947
G1 X125.905 Y72.197 E.03442
G1 X125.704 Y72.732 E.03455
G1 X125.584 Y73.288 E.03434
G1 X125.546 Y73.821 E.03229
G1 X125.546 Y117.957 E2.66729
G1 X125.073 Y118.429 E.04041
G1 X114.346 Y118.429 E.64828
G1 X114.346 Y117.702 E.04395
M73 P2 R10
G1 X114.819 Y117.229 E.04041
G1 X123.989 Y117.229 E.55418
G1 X124.236 Y117.13 E.01613
G1 X124.346 Y116.872 E.0169
G1 X124.346 Y70.287 E2.81534
G1 X124.256 Y70.05 E.01527
G1 X123.989 Y69.929 E.01775
G1 X123.896 Y69.929 E.00563
G1 E-.08 F1800
;WIPE_START
G1 F1200
G1 X122.896 Y69.929 E-.72
;WIPE_END
G1 X128.76 Y69.355 Z.6 F7200
G1 Z.2
G1 E.8 F1800
;TYPE:Inner wall
;WIDTH:0.494844
G1 F1200
G1 X129.079 Y69.342 E.01152
;WIDTH:0.468882
G1 X129.398 Y69.329 E.01086
;WIDTH:0.44292
G1 X133.094 Y69.329 E.118
G1 E-.08 F1800
;WIPE_START
G1 F1200
G1 X132.094 Y69.329 E-.72
;WIPE_END
G1 X124.461 Y69.329 Z.6 F7200
G1 X115.067 Y69.329 Z.6
G1 Z.2
G1 E.8 F1800
G1 F1200
G1 X123.989 Y69.329 E.28486
G1 E-.08 F1800
;WIPE_START
G1 F1200
G1 X122.989 Y69.329 E-.72
;WIPE_END
G1 X121.758 Y76.862 Z.6 F7200
G1 X115.067 Y117.829 Z.6
G1 Z.2
M73 P3 R10
G1 E.8 F1800
;WIDTH:0.442916
G1 F1200
G1 X123.989 Y117.829 E.28486
;WIDTH:0.45742
G1 X124.155 Y117.822 E.00552
;WIDTH:0.506812
G1 X124.256 Y117.798 E.00384
;WIDTH:0.556204
G1 X124.357 Y117.773 E.00425
;WIDTH:0.605596
G1 X124.458 Y117.748 E.00466
;WIDTH:0.654988
G1 X124.558 Y117.723 E.00507
;WIDTH:0.70438
G1 X124.659 Y117.699 E.00548
;WIDTH:0.753772
G1 X124.76 Y117.674 E.00589
G1 X124.787 Y117.58 E.00556
;WIDTH:0.709365
G1 X124.813 Y117.485 E.00522
;WIDTH:0.664957
G1 X124.84 Y117.391 E.00487
;WIDTH:0.62055
G1 X124.866 Y117.296 E.00452
;WIDTH:0.576143
G1 X124.893 Y117.202 E.00417
;WIDTH:0.531735
G1 X124.919 Y117.108 E.00383
;WIDTH:0.487328
G1 X124.946 Y117.013 E.00348
;WIDTH:0.44292
G1 X124.946 Y73.821 E1.37913
;WIDTH:0.48267
G1 X124.966 Y73.242 E.02031
;WIDTH:0.503738
G1 X124.976 Y73.099 E.0053
; stop printing object Body1.stl id:0 copy 0
M106 S255
;LAYER_CHANGE
M118 E1 OCTOAPP_LAYER LAYER=1
M117 DASHBOARD_LAYER_INDICATOR 2
;Z:0.4
;HEIGHT:0.2
;BEFORE_LAYER_CHANGE
G92 E0.0
;0.4
G1 E-.08 F1800
;WIPE_START
G1 F1200
G1 X124.966 Y73.242 E-.10364
G1 X124.946 Y73.821 E-.41658
G1 X124.946 Y74.098 E-.19978
;WIPE_END
;_SET_FAN_SPEED_CHANGING_LAYER
M204 S500
; printing object Body1.stl id:0 copy 0
M204 S180
G1 X123.961 Y69.671 Z.8 F7200
G1 Z.4
G1 E.8 F1800
M204 S300
;WIDTH:0.760112
G1 F3600
G1 X123.861 Y69.66 E.00575
;WIDTH:0.720224
G1 X123.725 Y69.646 E.00741
;WIDTH:0.680336
G1 X123.589 Y69.631 E.00697
;WIDTH:0.64261
G1 X114.943 Y69.63 E.41388
G1 X114.646 Y69.332 E.02012
G1 X114.646 Y69.03 E.01449
G1 X123.59 Y69.033 E.42814
;WIDTH:0.680336
G1 X123.762 Y69.053 E.00885
;WIDTH:0.720224
G1 X123.935 Y69.073 E.00941
;WIDTH:0.760112
G1 X124.108 Y69.093 E.00996
;WIDTH:0.799999
G1 X124.281 Y69.113 E.01052
G1 X128.168 Y69.115 E.23493
G1 X128.399 Y69.092 E.01403
;WIDTH:0.753165
G1 X128.63 Y69.069 E.01316
;WIDTH:0.706331
G1 X128.861 Y69.045 E.01229
;WIDTH:0.659497
G1 X129.441 Y69.035 E.02854
;WIDTH:0.638967
G1 X133.543 Y69.034 E.19517
;WIDTH:0.632973
G1 X133.86 Y69.061 E.01499
;WIDTH:0.631381
G1 X133.86 Y69.598 E.02519
;WIDTH:0.632973
G1 X133.544 Y69.625 E.01497
;WIDTH:0.638967
G1 X129.4 Y69.632 E.19716
;WIDTH:0.66652
G1 X129.059 Y69.65 E.01696
;WIDTH:0.694072
G1 X128.719 Y69.669 E.01771
;WIDTH:0.729381
G1 X128.504 Y69.706 E.01198
;WIDTH:0.76469
G1 X128.288 Y69.743 E.01259
;WIDTH:0.799999
G1 X128.073 Y69.78 E.01321
G1 X127.471 Y70.037 E.03956
G1 X126.899 Y70.398 E.04089
G1 X126.306 Y70.928 E.04807
G1 X125.899 Y71.442 E.03957
G1 X125.576 Y72.011 E.03955
G1 X125.344 Y72.623 E.03956
G1 X125.321 Y72.838 E.01308
;WIDTH:0.754436
G1 X125.298 Y73.053 E.01229
;WIDTH:0.708873
G1 X125.275 Y73.268 E.0115
;WIDTH:0.663309
G1 X125.246 Y73.828 E.02775
;WIDTH:0.64292
G1 X125.246 Y116.659 E2.05138
;WIDTH:0.689488
G1 X125.222 Y116.884 E.01168
;WIDTH:0.736055
G1 X125.199 Y117.109 E.01252
;WIDTH:0.782623
G1 X125.176 Y117.334 E.01336
;WIDTH:0.82919
G1 X125.153 Y117.559 E.0142
;WIDTH:0.875757
G1 X125.129 Y117.784 E.01504
G1 X124.9 Y118.013 E.02152
G1 X124.713 Y118.013 E.01247
G1 X124.488 Y118.036 E.01503
;WIDTH:0.82919
G1 X124.263 Y118.06 E.01419
;WIDTH:0.782622
G1 X124.038 Y118.083 E.01335
;WIDTH:0.736055
G1 X123.814 Y118.106 E.01251
;WIDTH:0.689487
G1 X123.589 Y118.129 E.01167
;WIDTH:0.642919
G1 X114.646 Y118.129 E.42832
G1 X114.646 Y117.827 E.01451
G1 X114.943 Y117.529 E.02012
G1 X123.74 Y117.529 E.42133
;WIDTH:0.689487
G1 X123.876 Y117.484 E.00739
;WIDTH:0.736055
G1 X124.011 Y117.439 E.00792
;WIDTH:0.782622
G1 X124.147 Y117.393 E.00845
;WIDTH:0.82919
G1 X124.283 Y117.348 E.00898
;WIDTH:0.875757
G1 X124.418 Y117.302 E.00952
G1 X124.462 Y117.173 E.00906
;WIDTH:0.831246
G1 X124.505 Y117.044 E.00858
;WIDTH:0.786735
G1 X124.548 Y116.914 E.00809
;WIDTH:0.742224
G1 X124.592 Y116.785 E.00761
;WIDTH:0.697713
G1 X124.635 Y116.656 E.00712
;WIDTH:0.653202
G1 X124.646 Y116.472 E.00896
;WIDTH:0.64292
G1 X124.646 Y73.828 E2.04244
;WIDTH:0.663309
G1 X124.656 Y73.244 E.0289
M73 P4 R10
;WIDTH:0.708873
G1 X124.679 Y73.013 E.01235
;WIDTH:0.754436
G1 X124.702 Y72.782 E.01319
;WIDTH:0.799999
G1 X124.724 Y72.551 E.01403
G1 X124.724 Y71.118 E.08658
G1 X124.709 Y70.499 E.03742
G1 X124.509 Y70.021 E.03131
G1 X124.133 Y69.69 E.03026
G1 X124.001 Y69.676 E.00807
M204 S180
G1 X123.76 Y70.373 F7200
M204 S500
;TYPE:Outer wall
G1 F3600
G1 X123.589 Y70.329 E.01067
G1 X114.653 Y70.329 E.54003
G1 X113.946 Y69.622 E.06043
G1 X113.946 Y68.442 E.07136
G1 X114.011 Y68.33 E.00784
G1 X133.543 Y68.339 E1.18038
G1 X133.96 Y68.373 E.02528
G1 X134.494 Y68.503 E.03318
M204 S250
;TYPE:Overhang wall
G1 X134.554 Y68.517 E.00372
G1 X134.554 Y70.142 E.0982
G1 X134.494 Y70.156 E.00372
M204 S500
;TYPE:Outer wall
M106 S255
G1 X133.96 Y70.286 E.03318
G1 X133.545 Y70.32 E.02517
G1 X129.429 Y70.33 E.24878
G1 X128.885 Y70.376 E.03299
G1 X128.364 Y70.502 E.03236
G1 X127.869 Y70.706 E.03236
G1 X127.406 Y70.988 E.03279
G1 X126.906 Y71.424 E.04007
G1 X126.568 Y71.84 E.03238
G1 X126.298 Y72.302 E.03236
G1 X126.102 Y72.8 E.03236
G1 X125.984 Y73.323 E.03236
G1 X125.946 Y73.828 E.03062
G1 X125.946 Y118.122 E2.67687
G1 X125.239 Y118.829 E.06043
G1 X114.058 Y118.829 E.67569
G1 X113.946 Y118.764 E.00785
G1 X113.946 Y117.537 E.07416
G1 X114.653 Y116.829 E.06043
G1 X123.589 Y116.829 E.54002
G1 X123.841 Y116.725 E.01652
G1 X123.946 Y116.472 E.01652
G1 X123.946 Y70.687 E2.76699
G1 X123.878 Y70.477 E.01329
G1 X123.79 Y70.4 E.0071
M204 S180
G1 X125.421 Y70.917 F7200
M204 S500
;TYPE:Internal solid infill
;WIDTH:0.678602
G1 F4200
G1 X125.853 Y70.394 E.03441
G1 X126.443 Y69.871 E.04005
G1 X126.529 Y69.811 E.00532
G1 X125.173 Y69.81 E.06883
G1 X125.366 Y70.252 E.02445
G1 X125.421 Y70.877 E.03186
; stop printing object Body1.stl id:0 copy 0
;LAYER_CHANGE
M118 E1 OCTOAPP_LAYER LAYER=2
M117 DASHBOARD_LAYER_INDICATOR 3
;Z:0.6
;HEIGHT:0.2
;BEFORE_LAYER_CHANGE
G92 E0.0
;0.6
G1 E-.37143 F1800
;WIPE_START
G1 F4200
G1 X125.366 Y70.252 E-.26907
G1 X125.217 Y69.911 E-.1595
;WIPE_END
;_SET_FAN_SPEED_CHANGING_LAYER
; printing object Body1.stl id:0 copy 0
M204 S180
G1 X123.888 Y69.757 Z1 F7200
G1 Z.6
G1 E.8 F1800
M204 S300
;TYPE:Inner wall
;WIDTH:0.799999
G1 F3600
G1 X123.753 Y69.731 E.00832
;WIDTH:0.77146
G1 X123.489 Y69.679 E.01567
;WIDTH:0.74292
G1 X114.922 Y69.679 E.47867
G1 X114.596 Y69.353 E.02579
G1 X114.596 Y68.979 E.02088
G1 X123.489 Y68.979 E.49691
;WIDTH:0.77146
G1 X123.849 Y68.994 E.02096
;WIDTH:0.799999
G1 X124.209 Y69.008 E.02178
G1 X128.143 Y69.008 E.23774
G1 X128.853 Y68.99 E.04295
;WIDTH:0.763878
G1 X129.443 Y68.979 E.03392
;WIDTH:0.74292
G1 X134.056 Y68.979 E.25777
G1 X134.217 Y69.021 E.00929
G1 X134.217 Y69.646 E.03493
G1 X133.867 Y69.679 E.01964
G1 X129.387 Y69.679 E.25034
;WIDTH:0.779093
G1 X128.707 Y69.73 E.04005
;WIDTH:0.799999
G1 X128.071 Y69.886 E.03959
G1 X127.471 Y70.15 E.0396
G1 X126.917 Y70.506 E.03977
G1 X126.426 Y70.946 E.03989
G1 X126.016 Y71.447 E.03914
G1 X125.685 Y72.013 E.0396
G1 X125.447 Y72.624 E.0396
G1 X125.326 Y73.266 E.03947
;WIDTH:0.763864
G1 X125.296 Y73.828 E.03239
;WIDTH:0.74292
G1 X125.296 Y116.372 E2.37727
;WIDTH:0.774169
G1 X125.28 Y116.674 E.01764
M73 P5 R10
;WIDTH:0.805418
G1 X125.265 Y116.976 E.01839
;WIDTH:0.852293
G1 X125.241 Y117.127 E.00987
;WIDTH:0.899167
G1 X125.218 Y117.278 E.01044
;WIDTH:0.946041
G1 X125.194 Y117.429 E.01101
;WIDTH:0.992915
G1 X125.171 Y117.579 E.01158
G1 X125.171 Y117.801 E.01683
G1 X124.918 Y118.054 E.02715
G1 X124.696 Y118.054 E.01683
G1 X124.545 Y118.078 E.01158
;WIDTH:0.946041
G1 X124.394 Y118.101 E.01101
;WIDTH:0.899167
G1 X124.243 Y118.125 E.01044
;WIDTH:0.852293
G1 X124.092 Y118.148 E.00987
;WIDTH:0.805419
G1 X123.79 Y118.164 E.01839
;WIDTH:0.77417
G1 X123.489 Y118.179 E.01764
;WIDTH:0.74292
G1 X114.596 Y118.179 E.49691
G1 X114.596 Y117.806 E.02088
G1 X114.922 Y117.479 E.02579
G1 X123.489 Y117.479 E.47867
;WIDTH:0.77417
G1 X123.715 Y117.448 E.01332
;WIDTH:0.805419
G1 X123.941 Y117.417 E.01389
;WIDTH:0.852293
G1 X124.046 Y117.374 E.00733
;WIDTH:0.899167
G1 X124.15 Y117.33 E.00775
;WIDTH:0.946041
G1 X124.255 Y117.287 E.00817
;WIDTH:0.992915
G1 X124.36 Y117.244 E.0086
G1 X124.403 Y117.139 E.0086
;WIDTH:0.946041
G1 X124.447 Y117.034 E.00817
;WIDTH:0.899167
G1 X124.49 Y116.929 E.00775
;WIDTH:0.852293
G1 X124.533 Y116.825 E.00733
;WIDTH:0.805418
G1 X124.565 Y116.598 E.01389
;WIDTH:0.774169
G1 X124.596 Y116.372 E.01332
;WIDTH:0.74292
G1 X124.596 Y73.828 E2.37727
;WIDTH:0.763864
G1 X124.606 Y73.237 E.03398
;WIDTH:0.799999
G1 X124.624 Y72.527 E.04297
G1 X124.624 Y71.055 E.08893
G1 X124.591 Y70.513 E.03282
G1 X124.391 Y70.097 E.02789
G1 X124.018 Y69.782 E.02952
G1 X123.928 Y69.764 E.00555
M204 S180
G1 X123.655 Y70.471 F7200
M204 S500
;TYPE:Outer wall
G1 F3600
G1 X123.489 Y70.429 E.01036
G1 X114.611 Y70.429 E.53648
G1 X113.846 Y69.664 E.06544
G1 X113.846 Y68.395 E.07667
G1 X114.011 Y68.229 E.01416
G1 X134.056 Y68.229 E1.21136
G1 X134.322 Y68.269 E.01624
G1 X134.967 Y68.485 E.04112
G1 X134.967 Y70.158 E.1011
G1 X134.351 Y70.399 E.03998
G1 X133.867 Y70.429 E.0293
G1 X129.427 Y70.429 E.26829
G1 X128.886 Y70.477 E.03282
G1 X128.369 Y70.605 E.03223
G1 X127.878 Y70.814 E.03223
G1 X127.424 Y71.097 E.03229
G1 X127.018 Y71.452 E.03263
G1 X126.679 Y71.854 E.03178
G1 X126.404 Y72.311 E.03223
G1 X126.204 Y72.806 E.03223
G1 X126.084 Y73.325 E.03223
G1 X126.046 Y73.828 E.03045
G1 X126.046 Y118.164 E2.67937
G1 X125.28 Y118.929 E.06544
G1 X114.011 Y118.929 E.681
G1 X113.846 Y118.764 E.01416
G1 X113.846 Y117.495 E.07667
G1 X114.611 Y116.729 E.06544
G1 X123.54 Y116.729 E.53959
G1 X123.741 Y116.625 E.0137
G1 X123.816 Y116.514 E.00809
G1 X123.846 Y116.372 E.00875
G1 X123.846 Y70.787 E2.7549
G1 X123.772 Y70.57 E.01383
G1 X123.686 Y70.496 E.00687
M204 S180
G1 X125.375 Y71.075 F7200
M204 S500
;TYPE:Internal solid infill
;WIDTH:0.786973
G1 F4200
G1 X125.866 Y70.448 E.04732
G1 X126.674 Y69.759 E.06309
G1 X125.054 Y69.759 E.0962
G1 X125.294 Y70.239 E.03186
G1 X125.375 Y70.76 E.03131
G1 X125.375 Y71.035 E.01639
; stop printing object Body1.stl id:0 copy 0
;LAYER_CHANGE
M118 E1 OCTOAPP_LAYER LAYER=3
M117 DASHBOARD_LAYER_INDICATOR 4
;Z:0.8
;HEIGHT:0.2
;BEFORE_LAYER_CHANGE
G92 E0.0
;0.8
G1 E-.37143 F1800
;WIPE_START
G1 F4200
G1 X125.375 Y70.76 E-.11824
G1 X125.294 Y70.239 E-.22594
G1 X125.206 Y70.062 E-.08439
;WIPE_END
;_SET_FAN_SPEED_CHANGING_LAYER
; printing object Body1.stl id:0 copy 0
M204 S180
G1 X123.888 Y69.757 Z1.2 F7200
G1 Z.8
M73 P6 R10
G1 E.8 F1800
M204 S300
;TYPE:Inner wall
;WIDTH:0.799999
G1 F3600
G1 X123.753 Y69.731 E.00832
;WIDTH:0.77146
G1 X123.489 Y69.679 E.01567
;WIDTH:0.74292
G1 X114.922 Y69.679 E.47867
G1 X114.596 Y69.353 E.02579
G1 X114.596 Y68.979 E.02088
G1 X123.489 Y68.979 E.49691
;WIDTH:0.77146
G1 X123.849 Y68.994 E.02096
;WIDTH:0.799999
G1 X124.209 Y69.008 E.02178
G1 X128.143 Y69.008 E.23774
G1 X128.853 Y68.99 E.04292
;WIDTH:0.763899
G1 X129.438 Y68.98 E.03367
;WIDTH:0.743033
G1 X132.464 Y68.979 E.16912
;WIDTH:0.742923
G1 X132.872 Y69.001 E.02283
;WIDTH:0.69788
G1 X133.28 Y69.022 E.02136
;WIDTH:0.681148
G1 X133.928 Y69.01 E.03301
;WIDTH:0.71887
G1 X134.553 Y68.967 E.03378
G1 X134.553 Y69.691 E.03907
G1 X133.885 Y69.649 E.03609
;WIDTH:0.685854
G1 X133.611 Y69.637 E.01405
;WIDTH:0.663643
G1 X133.092 Y69.638 E.02576
;WIDTH:0.703283
G1 X132.805 Y69.659 E.01517
;WIDTH:0.742923
G1 X132.517 Y69.679 E.01608
;WIDTH:0.743033
G1 X129.382 Y69.68 E.17526
;WIDTH:0.779094
G1 X128.707 Y69.73 E.03974
;WIDTH:0.799999
G1 X128.071 Y69.886 E.03959
G1 X127.471 Y70.15 E.0396
G1 X126.92 Y70.504 E.0396
G1 X126.43 Y70.94 E.0396
G1 X126.016 Y71.447 E.0396
G1 X125.685 Y72.013 E.0396
G1 X125.447 Y72.624 E.0396
G1 X125.326 Y73.266 E.03947
;WIDTH:0.763864
G1 X125.296 Y73.828 E.03239
;WIDTH:0.74292
G1 X125.296 Y116.372 E2.37727
;WIDTH:0.774169
G1 X125.28 Y116.674 E.01764
;WIDTH:0.805418
G1 X125.265 Y116.976 E.01839
;WIDTH:0.852293
G1 X125.241 Y117.127 E.00987
;WIDTH:0.899167
G1 X125.218 Y117.278 E.01044
;WIDTH:0.946041
G1 X125.194 Y117.429 E.01101
;WIDTH:0.992915
G1 X125.171 Y117.579 E.01158
G1 X125.171 Y117.801 E.01683
G1 X124.918 Y118.054 E.02715
G1 X124.696 Y118.054 E.01683
G1 X124.545 Y118.078 E.01158
;WIDTH:0.946041
G1 X124.394 Y118.101 E.01101
;WIDTH:0.899167
G1 X124.243 Y118.125 E.01044
;WIDTH:0.852293
G1 X124.092 Y118.148 E.00987
;WIDTH:0.805419
G1 X123.79 Y118.164 E.01839
;WIDTH:0.77417
G1 X123.489 Y118.179 E.01764
;WIDTH:0.74292
G1 X114.596 Y118.179 E.49691
G1 X114.596 Y117.806 E.02088
G1 X114.922 Y117.479 E.02579
G1 X123.489 Y117.479 E.47867
;WIDTH:0.77417
