M118 E1 OCTOAPP_DISABLE_LAYER_MAXIC
; HEADER_BLOCK_START
; generated by OrcaSlicer 2.3.0 on 2025-09-13 at 10:45:14
; total layer number: 17
;_GP_TOTAL_LAYER_NUMBER_PLACEHOLDER
; filament_density: 1.31
; filament_diameter: 1.75
; max_z_height: 3.40
; HEADER_BLOCK_END
; THUMBNAIL_BLOCK_START
;
; THUMBNAIL_BLOCK_END
; THUMBNAIL_BLOCK_START
;
; THUMBNAIL_BLOCK_END
; external perimeters extrusion width = 0.45mm
; perimeters extrusion width = 0.45mm
; infill extrusion width = 0.45mm
; solid infill extrusion width = 0.45mm
; top infill extrusion width = 0.40mm
; EXECUTABLE_BLOCK_START
M73 P0 R43
M201 X1000 Y1000 Z200 E800
M203 X200 Y200 Z12 E120
M204 P1250 R1000 T1250
M205 X10.00 Y10.00 Z0.40 E5.00 ; sets the jerk limits, mm/sec
;TYPE:Custom
M862.3 P "" ; printer model check
M862.1 P0.4 ; nozzle diameter check
M115 U3.2.3 ; tell printer latest fw version
G90 ; use absolute coordinates
M83 ; extruder relative mode
M204 S1250 T1000 ; MK2 firmware only supports the old M204 format
M104 S220 ; set extruder temp
M140 S55 ; set bed temp
M190 S55 ; wait for bed temp
M109 S220 ; wait for extruder temp
G28 W ; home all without mesh bed level
G80 ; mesh bed leveling
G1 Z2.0 F3000 ;Move Z Axis up
G1 X90.6045 Y38.1447 Z0.8 F5000 ; Move to start
M109 S220 ; wait for nozzle temp to stabilize
G92 E0 ;Reset Extruder
G1 X90.6045 Y68.1447 E30 F360.0 ; Extrude 30mm in Y
G92 E0 ;Reset Extruder
G1 E-0.5 F2100 ; Retract
G1 Y78.1447 F5000 ; Move 10mm in Y
G92 E0  ;Reset Extrude
G90
G21
M83 ; use relative distances for extrusion
; Filament gcode
M106 S0
;LAYER_CHANGE
M117 DASHBOARD_LAYER_INDICATOR 1
M118 E1 OCTOAPP_LAYER LAYER=0
M117 DASHBOARD_LAYER_INDICATOR 1
;Z:0.2
;HEIGHT:0.2
;BEFORE_LAYER_CHANGE
G92 E0.0
;0.2
G1 E-.8 F1800
;_SET_FAN_SPEED_CHANGING_LAYER
M204 S300
; printing object caution overstimulated do not aproach floor sign.stl id:4 copy 0
G1 X111.964 Y105.177 F7200
G1 Z.6
G1 Z.2
G1 E.8 F1800
;TYPE:Inner wall
;WIDTH:0.449999
G1 F1200
G1 X111.967 Y107.81 E.08557
G1 X112.178 Y108.272 E.01649
G1 X112.511 Y108.395 E.01153
G1 X112.511 Y111.037 E.08584
G1 X112.653 Y111.631 E.01986
G1 X112.764 Y111.854 E.00809
G1 X113.232 Y112.417 E.0238
G1 X113.859 Y112.874 E.02521
G1 X114.637 Y113.27 E.02835
G1 X115.568 Y113.621 E.03234
G1 X116.625 Y113.926 E.03575
G1 X117.823 Y114.192 E.03988
G1 X118.229 Y114.261 E.01337
G1 X118.889 Y114.454 E.02233
G1 X119.607 Y114.574 E.02368
G1 X121.251 Y114.655 E.05348
G1 X122.102 Y114.728 E.02776
G1 X123.642 Y114.806 E.05009
G1 X125.218 Y114.832 E.05122
G1 X126.793 Y114.806 E.05121
G1 X128.344 Y114.727 E.05044
G1 X129.646 Y114.615 E.04246
G1 X130.463 Y114.566 E.02659
G1 X132.598 Y114.195 E.07042
G1 X133.81 Y113.926 E.04034
G1 X134.892 Y113.614 E.0366
G1 X135.86 Y113.242 E.03372
G1 X136.661 Y112.821 E.0294
G1 X137.318 Y112.305 E.02714
G1 X137.671 Y111.854 E.01861
G1 X137.782 Y111.63 E.00814
G1 X137.923 Y111.006 E.02077
G1 X137.923 Y108.14 E.09313
G1 X137.996 Y108.096 E.00277
G1 X138.058 Y107.813 E.00941
G1 X138.036 Y106.846 E.03143
G1 X138.036 Y105.18 E.05415
G1 X139.216 Y105.168 E.03832
G1 X139.083 Y105.484 E.01113
G1 X139.039 Y105.793 E.01012
G1 X146.476 Y169 E2.06807
G1 X138.004 Y169.001 E.27531
M73 P0 R42
G1 X134.243 Y164.556 E.18922
G1 X134.031 Y164.395 E.00866
G1 X133.777 Y164.339 E.00844
G1 X116.223 Y164.339 E.5704
G1 X115.97 Y164.395 E.00844
G1 X115.757 Y164.556 E.00866
G1 X111.996 Y169.001 E.18923
G1 X103.524 Y169 E.2753
G1 X110.961 Y105.794 E2.06801
G1 X110.943 Y105.56 E.00763
G1 X110.809 Y105.167 E.0135
G1 X111.924 Y105.176 E.03622
G1 X112.392 Y105.041 F7200
;TYPE:Outer wall
G1 F1200
G1 X112.395 Y107.81 E.08997
G1 X112.458 Y107.947 E.00492
G1 X112.577 Y107.992 E.00413
G1 X112.94 Y107.992 E.01176
G1 X112.94 Y111.032 E.0988
G1 X113.101 Y111.59 E.01887
G1 X113.489 Y112.074 E.02015
G1 X114.055 Y112.493 E.02291
G1 X114.789 Y112.869 E.02679
G1 X115.687 Y113.209 E.03121
G1 X116.731 Y113.511 E.03532
G1 X117.916 Y113.774 E.03945
G1 X118.327 Y113.843 E.01352
G1 X118.961 Y114.032 E.02151
G1 X119.632 Y114.146 E.0221
G1 X120.774 Y114.184 E.03715
G1 X122.124 Y114.3 E.04401
G1 X123.656 Y114.377 E.04985
G1 X125.218 Y114.404 E.05075
G1 X126.779 Y114.377 E.05074
G1 X128.314 Y114.3 E.04996
G1 X129.652 Y114.185 E.04363
G1 X130.389 Y114.144 E.02398
G1 X132.515 Y113.775 E.0701
G1 X133.704 Y113.511 E.03958
G1 X134.755 Y113.207 E.03556
G1 X135.665 Y112.861 E.03162
G1 X136.405 Y112.477 E.0271
G1 X136.981 Y112.04 E.02348
G1 X137.367 Y111.523 E.02099
G1 X137.494 Y111.006 E.01729
G1 X137.495 Y107.978 E.09839
G1 X137.611 Y107.907 E.00444
G1 X137.63 Y107.822 E.00281
G1 X137.608 Y106.851 E.03158
G1 X137.608 Y105.072 E.05781
G1 X137.648 Y104.834 E.00783
G1 X137.717 Y104.754 E.00344
G1 X138.869 Y104.743 E.03744
G1 X139.625 Y104.764 E.02456
G1 X139.678 Y104.953 E.00638
G1 X139.642 Y105.235 E.00924
G1 X139.465 Y105.743 E.01746
G1 X146.956 Y169.412 E2.08322
G1 X146.907 Y169.428 E.00169
G1 X137.805 Y169.43 E.29575
G1 X133.916 Y164.832 E.19568
G1 X133.777 Y164.768 E.00498
G1 X116.223 Y164.768 E.5704
G1 X116.084 Y164.832 E.00498
G1 X112.195 Y169.43 E.19569
G1 X103.042 Y169.428 E.29742
M73 P1 R42
G1 X110.535 Y105.744 E2.08366
G1 X110.452 Y105.394 E.0117
G1 X110.361 Y105.253 E.00546
G1 X110.322 Y105.047 E.0068
G1 X110.348 Y104.817 E.00755
G1 X110.404 Y104.744 E.00297
G1 X111.112 Y104.734 E.02303
G1 X112.254 Y104.753 E.0371
G1 X112.343 Y104.792 E.00318
G1 X112.385 Y105.002 E.00694
G1 E-.08 F1800
;WIPE_START
G1 F1200
G1 X112.388 Y106.002 E-.72
;WIPE_END
G1 X120.018 Y105.794 Z.6 F7200
G1 X138.202 Y105.3 Z.6
G1 Z.2
G1 E.8 F1800
;TYPE:Bottom surface
;WIDTH:0.450022
G1 F3600
G1 X138.736 Y105.834 E.02455
G1 X138.813 Y106.487 E.02135
G1 X138.342 Y106.015 E.02167
G1 X138.342 Y106.591 E.01871
G1 X138.89 Y107.139 E.0252
G1 X138.967 Y107.792 E.02135
G1 X138.348 Y107.173 E.02843
G1 X138.36 Y107.761 E.01909
G1 X139.044 Y108.444 E.03141
G1 X139.12 Y109.097 E.02135
G1 X138.268 Y108.245 E.03917
G1 X138.228 Y108.274 E.00161
G1 X138.228 Y108.78 E.01645
G1 X139.197 Y109.749 E.04453
G1 X139.274 Y110.402 E.02135
G1 X138.228 Y109.356 E.04807
G1 X138.228 Y109.931 E.0187
G1 X139.351 Y111.054 E.05162
G1 X139.427 Y111.707 E.02135
G1 X138.227 Y110.507 E.05516
G1 X138.224 Y111.079 E.0186
G1 X139.504 Y112.359 E.05883
G1 X139.581 Y113.012 E.02135
G1 X138.118 Y111.549 E.06722
G1 X138.075 Y111.716 E.0056
G1 X137.954 Y111.961 E.00888
G1 X139.658 Y113.664 E.07828
G1 X139.735 Y114.317 E.02135
G1 X137.713 Y112.296 E.09289
G1 X137.554 Y112.499 E.00838
G1 X137.446 Y112.604 E.00491
G1 X139.811 Y114.969 E.10871
G1 X139.888 Y115.622 E.02135
G1 X137.123 Y112.857 E.12706
G1 X136.787 Y113.097 E.01341
G1 X139.965 Y116.274 E.14603
G1 X140.042 Y116.927 E.02135
G1 X136.411 Y113.296 E.16686
G1 X136.034 Y113.495 E.01384
G1 X140.118 Y117.579 E.1877
G1 X140.195 Y118.232 E.02135
G1 X135.623 Y113.659 E.21014
G1 X135.207 Y113.819 E.01448
G1 X140.272 Y118.884 E.23278
G1 X140.349 Y119.537 E.02135
G1 X134.774 Y113.963 E.25618
G1 X134.328 Y114.092 E.0151
G1 X140.426 Y120.19 E.28023
G1 X140.502 Y120.842 E.02135
G1 X133.882 Y114.221 E.30427
G1 X133.411 Y114.327 E.01566
G1 X140.579 Y121.495 E.32941
G1 X140.656 Y122.147 E.02135
G1 X132.94 Y114.431 E.3546
G1 X132.462 Y114.529 E.01586
G1 X140.733 Y122.8 E.38011
G1 X140.809 Y123.452 E.02135
G1 X131.971 Y114.613 E.4062
G1 X131.48 Y114.698 E.01619
G1 X140.886 Y124.105 E.43228
G1 X140.963 Y124.757 E.02135
G1 X130.989 Y114.783 E.45837
G1 X130.498 Y114.868 E.01619
G1 X141.04 Y125.41 E.48445
G1 X141.117 Y126.062 E.02135
G1 X129.957 Y114.903 E.51286
G1 X129.42 Y114.941 E.0175
G1 X141.193 Y126.715 E.54108
G1 X141.27 Y127.367 E.02135
G1 X128.889 Y114.986 E.56898
G1 X128.359 Y115.032 E.0173
G1 X141.347 Y128.02 E.59688
G1 X141.424 Y128.672 E.02135
G1 X127.811 Y115.06 E.62558
G1 X127.263 Y115.088 E.01783
G1 X141.5 Y129.325 E.6543
G1 X141.577 Y129.977 E.02135
G1 X126.712 Y115.112 E.68316
G1 X126.146 Y115.121 E.0184
G1 X141.654 Y130.63 E.71271
G1 X141.731 Y131.282 E.02135
G1 X125.58 Y115.131 E.74226
G1 X125.007 Y115.134 E.01861
G1 X141.808 Y131.935 E.77211
G1 X141.884 Y132.587 E.02135
G1 X124.421 Y115.124 E.80255
G1 X123.836 Y115.114 E.01903
G1 X141.961 Y133.24 E.83299
G1 X142.038 Y133.892 E.02135
G1 X123.236 Y115.09 E.86407
G1 X122.63 Y115.06 E.01973
G1 X142.115 Y134.545 E.89546
G1 X142.191 Y135.197 E.02135
G1 X122.021 Y115.027 E.92696
G1 X121.392 Y114.973 E.02053
G1 X142.268 Y135.85 E.95942
G1 X142.345 Y136.502 E.02135
G1 X120.762 Y114.92 E.99188
G1 X120.18 Y114.912 E.01894
G1 X142.422 Y137.155 E1.02219
G1 X142.499 Y137.807 E.02135
G1 X119.567 Y114.876 E1.05387
G1 X118.878 Y114.762 E.02271
G1 X142.575 Y138.46 E1.08908
G1 X142.652 Y139.112 E.02135
G1 X118.087 Y114.547 E1.12896
G1 X117.368 Y114.404 E.02382
G1 X142.729 Y139.765 E1.16553
G1 X142.806 Y140.417 E.02135
G1 X116.628 Y114.239 E1.20307
G1 X115.825 Y114.012 E.02711
G1 X142.883 Y141.07 E1.24349
G1 X142.959 Y141.722 E.02135
M73 P2 R42
G1 X114.629 Y113.392 E1.30197
G1 E-.3 F1800
;WIPE_START
G1 F3600
G1 X115.336 Y114.099 E-.5
;WIPE_END
G1 X112.313 Y107.091 Z.6 F7200
G1 X111.843 Y106 Z.6
G1 Z.2
G1 E.8 F1800
G1 F3600
G1 X111.314 Y105.471 E.02431
G1 X111.226 Y105.47 E.00285
G1 X111.27 Y105.674 E.0068
G1 X111.246 Y105.979 E.00994
G1 X111.66 Y106.393 E.01902
G1 X111.661 Y106.97 E.01874
G1 X111.186 Y106.495 E.02185
G1 X111.125 Y107.01 E.01686
G1 X111.846 Y107.73 E.03312
G1 X112.389 Y108.849 F7200
G1 F3600
G1 X111.065 Y107.525 E.06086
G1 X111.004 Y108.04 E.01686
G1 X112.206 Y109.242 E.05524
G1 X112.206 Y109.818 E.01872
G1 X110.943 Y108.555 E.05804
G1 X110.883 Y109.07 E.01686
G1 X112.207 Y110.394 E.06084
G1 X112.207 Y110.97 E.01872
G1 X110.822 Y109.585 E.06364
G1 X110.762 Y110.1 E.01686
G1 X112.354 Y111.692 E.07316
G1 X112.517 Y112.035 E.01233
G1 X112.881 Y112.499 E.01916
G1 X113.045 Y112.658 E.00743
G1 X113.597 Y113.07 E.02241
G1 X113.882 Y113.221 E.01048
G1 X143.036 Y142.375 E1.33982
G1 X143.113 Y143.027 E.02135
G1 X110.701 Y110.615 E1.48956
G1 X110.64 Y111.131 E.01686
G1 X143.19 Y143.68 E1.49587
G1 X143.266 Y144.332 E.02135
G1 X110.58 Y111.646 E1.50219
G1 X110.519 Y112.161 E.01686
G1 X143.343 Y144.985 E1.5085
G1 X143.42 Y145.637 E.02135
G1 X110.459 Y112.676 E1.51482
G1 X110.398 Y113.191 E.01686
G1 X143.497 Y146.29 E1.52113
G1 X143.574 Y146.942 E.02135
G1 X110.337 Y113.706 E1.52744
G1 X110.277 Y114.221 E.01686
G1 X143.65 Y147.595 E1.53376
G1 X143.727 Y148.247 E.02135
G1 X110.216 Y114.736 E1.54007
G1 X110.155 Y115.251 E.01686
G1 X143.804 Y148.9 E1.54639
G1 X143.881 Y149.552 E.02135
G1 X110.095 Y115.767 E1.5527
G1 X110.034 Y116.282 E.01685
G1 X143.957 Y150.205 E1.55901
G1 X144.034 Y150.857 E.02135
G1 X109.974 Y116.797 E1.56533
G1 X109.913 Y117.312 E.01686
G1 X144.111 Y151.51 E1.57164
G1 X144.188 Y152.162 E.02135
G1 X109.852 Y117.827 E1.57796
G1 X109.792 Y118.342 E.01686
G1 X144.265 Y152.815 E1.58427
G1 X144.341 Y153.467 E.02135
G1 X109.731 Y118.857 E1.59058
G1 X109.671 Y119.372 E.01686
M73 P2 R41
G1 X144.418 Y154.12 E1.5969
G1 X144.495 Y154.772 E.02135
G1 X109.61 Y119.888 E1.60321
G1 X109.549 Y120.403 E.01686
G1 X144.572 Y155.425 E1.60953
G1 X144.648 Y156.077 E.02135
G1 X109.489 Y120.918 E1.61584
G1 X109.428 Y121.433 E.01686
G1 X144.725 Y156.73 E1.62216
G1 X144.802 Y157.382 E.02135
G1 X109.368 Y121.948 E1.62847
G1 X109.307 Y122.463 E.01686
M73 P3 R41
G1 X144.879 Y158.035 E1.63478
G1 X144.956 Y158.688 E.02135
G1 X109.246 Y122.978 E1.6411
G1 X109.186 Y123.493 E.01686
G1 X145.032 Y159.34 E1.64741
G1 X145.109 Y159.993 E.02135
G1 X109.125 Y124.008 E1.65373
G1 X109.064 Y124.524 E.01686
G1 X145.186 Y160.645 E1.66004
G1 X145.263 Y161.298 E.02135
G1 X109.004 Y125.039 E1.66635
G1 X108.943 Y125.554 E.01686
G1 X145.339 Y161.95 E1.67267
G1 X145.416 Y162.603 E.02135
G1 X108.883 Y126.069 E1.67898
G1 X108.822 Y126.584 E.01686
G1 X145.493 Y163.255 E1.6853
G1 X145.57 Y163.908 E.02135
G1 X108.761 Y127.099 E1.69161
G1 X108.701 Y127.614 E.01686
G1 X145.647 Y164.56 E1.69793
G1 X145.723 Y165.213 E.02135
G1 X108.64 Y128.129 E1.70424
G1 X108.58 Y128.645 E.01686
G1 X145.8 Y165.865 E1.71055
G1 X145.877 Y166.518 E.02135
G1 X108.519 Y129.16 E1.71687
G1 X108.458 Y129.675 E.01686
G1 X145.954 Y167.17 E1.72318
G1 X146.03 Y167.823 E.02135
G1 X108.398 Y130.19 E1.7295
G1 X108.337 Y130.705 E.01686
G1 X146.107 Y168.475 E1.73581
G1 X146.133 Y168.694 E.00717
G1 X145.751 Y168.694 E.01242
G1 X108.276 Y131.22 E1.72221
G1 X108.216 Y131.735 E.01686
G1 X145.175 Y168.695 E1.69855
G1 X144.6 Y168.695 E.01871
G1 X108.155 Y132.25 E1.67488
G1 X108.095 Y132.765 E.01686
G1 X144.024 Y168.695 E1.65121
G1 X143.448 Y168.695 E.01871
G1 X108.034 Y133.281 E1.62754
G1 X107.973 Y133.796 E.01686
G1 X142.873 Y168.695 E1.60388
G1 X142.297 Y168.695 E.01871
G1 X107.913 Y134.311 E1.58021
G1 X107.852 Y134.826 E.01686
G1 X141.722 Y168.695 E1.55654
G1 X141.146 Y168.695 E.01871
M73 P4 R41
G1 X107.792 Y135.341 E1.53287
G1 X107.731 Y135.856 E.01686
G1 X140.57 Y168.696 E1.50921
G1 X139.995 Y168.696 E.01871
G1 X107.67 Y136.371 E1.48554
G1 X107.61 Y136.886 E.01686
G1 X139.419 Y168.696 E1.46187
G1 X138.844 Y168.696 E.01871
G1 X107.549 Y137.401 E1.4382
G1 X107.489 Y137.917 E.01686
G1 X133.606 Y164.034 E1.20029
G1 X133.783 Y164.034 E.00575
G1 X133.995 Y164.06 E.00693
G1 X134.158 Y164.117 E.00564
G1 X134.323 Y164.214 E.00623
G1 X134.472 Y164.354 E.00663
G1 X137.474 Y167.902 E.15102
G1 X138.451 Y168.879 E.04491
G1 E-.3 F1800
;WIPE_START
G1 F3600
G1 X137.744 Y168.172 E-.5
;WIPE_END
G1 X133.214 Y164.218 Z.6 F7200
G1 Z.2
G1 E.8 F1800
G1 F3600
G1 X107.428 Y138.432 E1.18505
G1 X107.367 Y138.947 E.01686
G1 X132.455 Y164.035 E1.15298
G1 X131.88 Y164.035 E.0187
G1 X107.307 Y139.462 E1.12932
G1 X107.246 Y139.977 E.01686
G1 X131.305 Y164.036 E1.10566
G1 X130.729 Y164.036 E.0187
G1 X107.185 Y140.492 E1.082
G1 X107.125 Y141.007 E.01686
G1 X130.154 Y164.036 E1.05834
G1 X129.578 Y164.036 E.0187
G1 X107.064 Y141.522 E1.03468
G1 X107.004 Y142.038 E.01686
G1 X129.003 Y164.037 E1.01102
G1 X128.427 Y164.037 E.0187
G1 X106.943 Y142.553 E.98737
G1 X106.882 Y143.068 E.01686
G1 X127.852 Y164.037 E.96371
G1 X127.277 Y164.038 E.0187
G1 X106.822 Y143.583 E.94005
G1 X106.761 Y144.098 E.01686
G1 X126.701 Y164.038 E.91639
G1 X126.126 Y164.038 E.0187
G1 X106.701 Y144.613 E.89273
G1 X106.64 Y145.128 E.01686
G1 X125.55 Y164.039 E.86907
G1 X124.975 Y164.039 E.0187
G1 X106.579 Y145.643 E.84541
G1 X106.519 Y146.158 E.01686
G1 X124.4 Y164.039 E.82176
G1 X123.824 Y164.04 E.0187
G1 X106.458 Y146.674 E.7981
G1 X106.397 Y147.189 E.01686
G1 X123.249 Y164.04 E.77444
G1 X122.673 Y164.04 E.0187
G1 X106.337 Y147.704 E.75078
G1 X106.276 Y148.219 E.01686
G1 X122.098 Y164.041 E.72712
G1 X121.523 Y164.041 E.0187
G1 X106.216 Y148.734 E.70346
G1 X106.155 Y149.249 E.01686
G1 X120.947 Y164.041 E.6798
G1 X120.372 Y164.042 E.0187
G1 X106.094 Y149.764 E.65615
G1 X106.034 Y150.279 E.01686
G1 X119.796 Y164.042 E.63249
G1 X119.221 Y164.042 E.0187
G1 X105.973 Y150.795 E.60883
G1 X105.913 Y151.31 E.01686
G1 X118.646 Y164.043 E.58517
G1 X118.07 Y164.043 E.0187
G1 X105.852 Y151.825 E.56151
G1 X105.791 Y152.34 E.01686
G1 X117.495 Y164.043 E.53785
G1 X116.919 Y164.044 E.0187
G1 X105.731 Y152.855 E.51419
G1 X105.67 Y153.37 E.01685
G1 X116.344 Y164.044 E.49054
G1 X116.085 Y164.044 E.00842
G1 X115.924 Y164.084 E.00538
G1 X115.845 Y164.121 E.00283
G1 X105.61 Y153.885 E.47038
G1 X105.549 Y154.4 E.01686
G1 X115.516 Y164.368 E.45808
G1 X115.252 Y164.68 E.01328
G1 X105.488 Y154.915 E.44874
G1 X105.428 Y155.431 E.01686
G1 X114.989 Y164.992 E.43939
G1 X114.725 Y165.303 E.01328
G1 X105.367 Y155.946 E.43005
G1 X105.306 Y156.461 E.01686
M73 P5 R41
G1 X114.461 Y165.615 E.42071
G1 X114.197 Y165.927 E.01328
G1 X105.246 Y156.976 E.41137
G1 X105.185 Y157.491 E.01686
G1 X113.933 Y166.239 E.40203
G1 X113.669 Y166.551 E.01328
G1 X105.125 Y158.006 E.39269
G1 X105.064 Y158.521 E.01686
M73 P5 R40
G1 X113.405 Y166.863 E.38335
G1 X113.142 Y167.175 E.01328
G1 X105.003 Y159.036 E.37401
G1 X104.943 Y159.552 E.01686
G1 X112.878 Y167.486 E.36467
G1 X112.614 Y167.798 E.01328
G1 X104.882 Y160.067 E.35533
G1 X104.822 Y160.582 E.01686
G1 X112.35 Y168.11 E.34599
G1 X112.086 Y168.422 E.01328
G1 X104.761 Y161.097 E.33665
G1 X104.7 Y161.612 E.01686
G1 X111.784 Y168.696 E.32556
