M118 E1 OCTOAPP_DISABLE_LAYER_MAXIC
; HEADER_BLOCK_START
; generated by OrcaSlicer 2.3.1 on 2025-10-26 at 11:03:36
; total layer number: 1
; filament_density: 1.31
; filament_diameter: 1.75
; max_z_height: 0.20
; HEADER_BLOCK_END
; THUMBNAIL_BLOCK_START
;
; THUMBNAIL_BLOCK_END
; THUMBNAIL_BLOCK_START
;
; THUMBNAIL_BLOCK_END
; external perimeters extrusion width = 0.45mm
; perimeters extrusion width = 0.45mm
; infill extrusion width = 0.45mm
; solid infill extrusion width = 0.45mm
; top infill extrusion width = 0.40mm
; EXECUTABLE_BLOCK_START
M73 P0 R8
M201 X1000 Y1000 Z200 E800
M203 X200 Y200 Z12 E120
M204 P1250 R1000 T1250
M205 X10.00 Y10.00 Z0.40 E5.00 ; sets the jerk limits, mm/sec
;TYPE:Custom
M862.3 P "" ; printer model check
M862.1 P0.4 ; nozzle diameter check
M115 U3.2.3 ; tell printer latest fw version
G90 ; use absolute coordinates
M83 ; extruder relative mode
M204 S1250 T1000 ; MK2 firmware only supports the old M204 format
M104 S220 ; set extruder temp
M140 S55 ; set bed temp
M190 S55 ; wait for bed temp
M109 S220 ; wait for extruder temp
G28 W ; home all without mesh bed level
G80 ; mesh bed leveling
G1 Z2.0 F3000 ;Move Z Axis up
G1 X42.3119 Y32.3119 Z0.8 F5000 ; Move to start
M109 S220 ; wait for nozzle temp to stabilize
G92 E0 ;Reset Extruder
G1 X42.3119 Y62.3119 E30 F360.0 ; Extrude 30mm in Y
G92 E0 ;Reset Extruder
G1 E-0.5 F2100 ; Retract
M73 P1 R8
G1 Y72.3119 F5000 ; Move 10mm in Y
G92 E0  ;Reset Extrude
G90
G21
M83 ; use relative distances for extrusion
; Filament gcode
M106 S0
;LAYER_CHANGE
M117 DASHBOARD_LAYER_INDICATOR 1
M118 E1 OCTOAPP_LAYER LAYER=0
M117 DASHBOARD_LAYER_INDICATOR 1
;Z:0.2
;HEIGHT:0.2
;BEFORE_LAYER_CHANGE
G92 E0.0
;0.2
G1 E-.8 F1800
;_SET_FAN_SPEED_CHANGING_LAYER
M204 S300
; printing object Cube id:15 copy 0
G1 X125 Y174.504 F7200
G1 Z.6
G1 Z.2
G1 E.8 F1800
;TYPE:Inner wall
;WIDTH:0.449999
G1 F1200
G1 X55.496 Y105 E3.19401
G1 X125 Y35.496 E3.19401
M73 P2 R8
G1 X194.504 Y105 E3.19401
M73 P3 R8
G1 X125.028 Y174.475 E3.19271
M73 P4 R7
G1 X125 Y175.11 F7200
M73 P5 R7
;TYPE:Outer wall
G1 F1200
G1 X54.89 Y105 E3.22186
G1 X125 Y34.89 E3.22186
M73 P6 R7
G1 X195.11 Y105 E3.22186
M73 P7 R7
G1 X125.028 Y175.081 E3.22056
M73 P8 R7
G1 E-.08 F1800
M73 P9 R7
;WIPE_START
G1 F1200
G1 X124.321 Y174.375 E-.72
;WIPE_END
G1 X124.326 Y166.742 Z.6 F7200
G1 X124.417 Y36.252 Z.6
G1 Z.2
G1 E.8 F1800
;TYPE:Bottom surface
;WIDTH:0.450918
G1 F3600
G1 X125.324 Y36.252 E.02955
G1 X125.732 Y36.66 E.01879
G1 X124.268 Y36.66 E.04769
G1 X123.86 Y37.068 E.01879
G1 X126.14 Y37.068 E.07427
G1 X126.548 Y37.476 E.01879
G1 X123.452 Y37.476 E.10084
G1 X123.044 Y37.884 E.01879
G1 X126.956 Y37.884 E.12742
G1 X127.364 Y38.292 E.01879
G1 X122.636 Y38.292 E.15399
M73 P10 R7
G1 X122.228 Y38.7 E.01879
G1 X127.772 Y38.7 E.18057
G1 X128.18 Y39.108 E.01879
G1 X121.82 Y39.108 E.20715
G1 X121.412 Y39.516 E.01879
G1 X128.588 Y39.516 E.23372
G1 X128.996 Y39.924 E.01879
G1 X121.004 Y39.924 E.2603
G1 X120.596 Y40.332 E.01879
G1 X129.404 Y40.332 E.28687
G1 X129.812 Y40.74 E.01879
G1 X120.188 Y40.74 E.31345
G1 X119.78 Y41.148 E.01879
G1 X130.22 Y41.148 E.34002
G1 X130.628 Y41.556 E.01879
G1 X119.372 Y41.556 E.3666
G1 X118.964 Y41.964 E.01879
G1 X131.036 Y41.964 E.39317
G1 X131.444 Y42.372 E.01879
G1 X118.556 Y42.372 E.41975
G1 X118.148 Y42.78 E.01879
G1 X131.852 Y42.78 E.44632
G1 X132.26 Y43.188 E.01879
G1 X117.74 Y43.188 E.4729
G1 X117.332 Y43.596 E.01879
G1 X132.668 Y43.596 E.49948
G1 X133.076 Y44.004 E.01879
G1 X116.924 Y44.004 E.52605
G1 X116.516 Y44.412 E.01879
M73 P11 R7
G1 X133.484 Y44.412 E.55263
G1 X133.892 Y44.82 E.01879
G1 X116.108 Y44.82 E.5792
G1 X115.7 Y45.228 E.01879
G1 X134.3 Y45.228 E.60578
G1 X134.708 Y45.636 E.01879
G1 X115.292 Y45.636 E.63235
G1 X114.884 Y46.044 E.01879
G1 X135.116 Y46.044 E.65893
G1 X135.524 Y46.452 E.01879
G1 X114.476 Y46.452 E.6855
G1 X114.068 Y46.86 E.01879
G1 X135.932 Y46.86 E.71208
G1 X136.34 Y47.268 E.01879
G1 X113.66 Y47.268 E.73866
G1 X113.252 Y47.676 E.01879
G1 X136.748 Y47.676 E.76523
G1 X137.156 Y48.084 E.01879
G1 X112.844 Y48.084 E.79181
G1 X112.436 Y48.492 E.01879
M73 P12 R7
G1 X137.564 Y48.492 E.81838
G1 X137.972 Y48.9 E.01879
G1 X112.028 Y48.9 E.84496
G1 X111.62 Y49.308 E.01879
G1 X138.38 Y49.308 E.87153
G1 X138.788 Y49.716 E.01879
G1 X111.212 Y49.716 E.89811
G1 X110.804 Y50.124 E.01879
G1 X139.196 Y50.124 E.92468
G1 X139.604 Y50.532 E.01879
G1 X110.396 Y50.532 E.95126
G1 X109.988 Y50.94 E.01879
G1 X140.012 Y50.94 E.97783
G1 X140.42 Y51.348 E.01879
G1 X109.58 Y51.348 E1.00441
G1 X109.172 Y51.756 E.01879
M73 P13 R7
G1 X140.828 Y51.756 E1.03099
G1 X141.236 Y52.164 E.01879
G1 X108.764 Y52.164 E1.05756
G1 X108.356 Y52.572 E.01879
G1 X141.644 Y52.572 E1.08414
G1 X142.052 Y52.98 E.01879
G1 X107.948 Y52.98 E1.11071
G1 X107.54 Y53.388 E.01879
G1 X142.46 Y53.388 E1.13729
G1 X142.868 Y53.796 E.01879
G1 X107.132 Y53.796 E1.16386
G1 X106.724 Y54.204 E.01879
G1 X143.276 Y54.204 E1.19044
G1 X143.684 Y54.612 E.01879
M73 P14 R7
G1 X106.316 Y54.612 E1.21701
G1 X105.908 Y55.02 E.01879
G1 X144.092 Y55.02 E1.24359
G1 X144.5 Y55.428 E.01879
G1 X105.5 Y55.428 E1.27017
G1 X105.092 Y55.836 E.01879
G1 X144.908 Y55.836 E1.29674
G1 X145.316 Y56.244 E.01879
G1 X104.684 Y56.244 E1.32332
G1 X104.276 Y56.652 E.01879
G1 X145.724 Y56.652 E1.34989
G1 X146.132 Y57.06 E.01879
M73 P15 R7
G1 X103.868 Y57.06 E1.37647
G1 X103.46 Y57.468 E.01879
G1 X146.54 Y57.468 E1.40304
G1 X146.948 Y57.876 E.01879
G1 X103.052 Y57.876 E1.42962
G1 X102.644 Y58.284 E.01879
G1 X147.356 Y58.284 E1.45619
G1 X147.764 Y58.692 E.01879
G1 X102.236 Y58.692 E1.48277
G1 X101.828 Y59.1 E.01879
G1 X148.172 Y59.1 E1.50934
G1 X148.58 Y59.508 E.01879
M73 P16 R7
G1 X101.42 Y59.508 E1.53592
G1 X101.012 Y59.916 E.01879
G1 X148.988 Y59.916 E1.5625
G1 X149.396 Y60.324 E.01879
M73 P16 R6
G1 X100.604 Y60.324 E1.58907
G1 X100.196 Y60.732 E.01879
G1 X149.804 Y60.732 E1.61565
G1 X150.212 Y61.14 E.01879
G1 X99.788 Y61.14 E1.64222
G1 X99.38 Y61.548 E.01879
M73 P17 R6
G1 X150.62 Y61.548 E1.6688
G1 X151.028 Y61.956 E.01879
G1 X98.972 Y61.956 E1.69537
G1 X98.564 Y62.364 E.01879
G1 X151.436 Y62.364 E1.72195
G1 X151.844 Y62.772 E.01879
G1 X98.156 Y62.772 E1.74852
G1 X97.748 Y63.18 E.01879
G1 X152.252 Y63.18 E1.7751
G1 X152.66 Y63.588 E.01879
M73 P18 R6
G1 X97.34 Y63.588 E1.80167
G1 X96.932 Y63.996 E.01879
G1 X153.068 Y63.996 E1.82825
G1 X153.476 Y64.404 E.01879
G1 X96.524 Y64.404 E1.85483
G1 X96.116 Y64.812 E.01879
G1 X153.884 Y64.812 E1.8814
G1 X154.292 Y65.22 E.01879
M73 P19 R6
G1 X95.708 Y65.22 E1.90798
G1 X95.3 Y65.628 E.01879
G1 X154.7 Y65.628 E1.93455
G1 X155.108 Y66.036 E.01879
G1 X94.892 Y66.036 E1.96113
G1 X94.484 Y66.444 E.01879
G1 X155.516 Y66.444 E1.9877
G1 X155.924 Y66.852 E.01879
G1 X94.076 Y66.852 E2.01428
G1 X93.668 Y67.26 E.01879
M73 P20 R6
G1 X156.332 Y67.26 E2.04085
G1 X156.74 Y67.668 E.01879
G1 X93.26 Y67.668 E2.06743
G1 X92.852 Y68.076 E.01879
G1 X157.148 Y68.076 E2.09401
G1 X157.556 Y68.484 E.01879
G1 X92.444 Y68.484 E2.12058
G1 X92.036 Y68.892 E.01879
M73 P21 R6
G1 X157.964 Y68.892 E2.14716
G1 X158.372 Y69.3 E.01879
G1 X91.628 Y69.3 E2.17373
G1 X91.22 Y69.708 E.01879
G1 X158.78 Y69.708 E2.20031
G1 X159.188 Y70.116 E.01879
G1 X90.812 Y70.116 E2.22688
G1 X90.404 Y70.524 E.01879
M73 P22 R6
G1 X159.596 Y70.524 E2.25346
G1 X160.004 Y70.932 E.01879
G1 X89.996 Y70.932 E2.28003
G1 X89.588 Y71.34 E.01879
G1 X160.412 Y71.34 E2.30661
G1 X160.82 Y71.748 E.01879
M73 P23 R6
G1 X89.18 Y71.748 E2.33318
G1 X88.772 Y72.156 E.01879
G1 X161.228 Y72.156 E2.35976
G1 X161.636 Y72.564 E.01879
G1 X88.364 Y72.564 E2.38634
G1 X87.956 Y72.972 E.01879
G1 X162.044 Y72.972 E2.41291
G1 X162.452 Y73.38 E.01879
M73 P24 R6
G1 X87.548 Y73.38 E2.43949
G1 X87.14 Y73.788 E.01879
G1 X162.86 Y73.788 E2.46606
G1 X163.268 Y74.196 E.01879
G1 X86.732 Y74.196 E2.49264
G1 X86.324 Y74.604 E.01879
G1 X163.676 Y74.604 E2.51921
G1 X164.084 Y75.012 E.01879
M73 P25 R6
G1 X85.916 Y75.012 E2.54579
G1 X85.508 Y75.42 E.01879
G1 X164.492 Y75.42 E2.57236
G1 X164.9 Y75.828 E.01879
G1 X85.1 Y75.828 E2.59894
G1 X84.692 Y76.236 E.01879
M73 P26 R6
G1 X165.308 Y76.236 E2.62552
G1 X165.716 Y76.644 E.01879
G1 X84.284 Y76.644 E2.65209
G1 X83.876 Y77.052 E.01879
G1 X166.124 Y77.052 E2.67867
G1 X166.532 Y77.46 E.01879
M73 P27 R6
G1 X83.468 Y77.46 E2.70524
G1 X83.06 Y77.868 E.01879
G1 X166.94 Y77.868 E2.73182
G1 X167.348 Y78.276 E.01879
G1 X82.652 Y78.276 E2.75839
G1 X82.244 Y78.684 E.01879
G1 X167.756 Y78.684 E2.78497
G1 X168.164 Y79.092 E.01879
M73 P28 R6
G1 X81.836 Y79.092 E2.81154
G1 X81.428 Y79.5 E.01879
M73 P28 R5
G1 X168.572 Y79.5 E2.83812
G1 X168.98 Y79.908 E.01879
G1 X81.02 Y79.908 E2.86469
G1 X80.612 Y80.316 E.01879
M73 P29 R5
G1 X169.388 Y80.316 E2.89127
G1 X169.796 Y80.724 E.01879
G1 X80.204 Y80.724 E2.91785
G1 X79.796 Y81.132 E.01879
G1 X170.204 Y81.132 E2.94442
G1 X170.612 Y81.54 E.01879
M73 P30 R5
G1 X79.388 Y81.54 E2.971
G1 X78.98 Y81.948 E.01879
G1 X171.02 Y81.948 E2.99757
G1 X171.428 Y82.356 E.01879
G1 X78.572 Y82.356 E3.02415
G1 X78.164 Y82.764 E.01879
M73 P31 R5
G1 X171.836 Y82.764 E3.05072
G1 X172.244 Y83.172 E.01879
G1 X77.756 Y83.172 E3.0773
G1 X77.348 Y83.58 E.01879
G1 X172.652 Y83.58 E3.10387
G1 X173.06 Y83.988 E.01879
M73 P32 R5
G1 X76.94 Y83.988 E3.13045
G1 X76.532 Y84.396 E.01879
G1 X173.468 Y84.396 E3.15702
G1 X173.876 Y84.804 E.01879
M73 P33 R5
G1 X76.124 Y84.804 E3.1836
G1 X75.716 Y85.212 E.01879
G1 X174.284 Y85.212 E3.21018
G1 X174.692 Y85.62 E.01879
G1 X75.308 Y85.62 E3.23675
G1 X74.9 Y86.028 E.01879
M73 P34 R5
G1 X175.1 Y86.028 E3.26333
G1 X175.508 Y86.436 E.01879
G1 X74.492 Y86.436 E3.2899
G1 X74.084 Y86.844 E.01879
G1 X175.916 Y86.844 E3.31648
G1 X176.324 Y87.252 E.01879
M73 P35 R5
G1 X73.676 Y87.252 E3.34305
G1 X73.268 Y87.66 E.01879
G1 X176.732 Y87.66 E3.36963
G1 X177.14 Y88.068 E.01879
G1 X72.86 Y88.068 E3.3962
G1 X72.452 Y88.476 E.01879
M73 P36 R5
G1 X177.548 Y88.476 E3.42278
G1 X177.956 Y88.884 E.01879
G1 X72.044 Y88.884 E3.44936
G1 X71.636 Y89.292 E.01879
M73 P37 R5
G1 X178.364 Y89.292 E3.47593
G1 X178.772 Y89.7 E.01879
G1 X71.228 Y89.7 E3.50251
G1 X70.82 Y90.108 E.01879
G1 X179.18 Y90.108 E3.52908
G1 X179.588 Y90.516 E.01879
M73 P38 R5
G1 X70.412 Y90.516 E3.55566
G1 X70.004 Y90.924 E.01879
G1 X179.996 Y90.924 E3.58223
G1 X180.404 Y91.332 E.01879
M73 P39 R5
G1 X69.596 Y91.332 E3.60881
G1 X69.188 Y91.74 E.01879
G1 X180.812 Y91.74 E3.63538
G1 X181.22 Y92.148 E.01879
G1 X68.78 Y92.148 E3.66196
G1 X68.372 Y92.556 E.01879
M73 P40 R4
G1 X181.628 Y92.556 E3.68853
G1 X182.036 Y92.964 E.01879
G1 X67.964 Y92.964 E3.71511
G1 X67.556 Y93.372 E.01879
M73 P41 R4
G1 X182.444 Y93.372 E3.74169
G1 X182.852 Y93.78 E.01879
G1 X67.148 Y93.78 E3.76826
G1 X66.74 Y94.188 E.01879
G1 X183.26 Y94.188 E3.79484
G1 X183.668 Y94.596 E.01879
M73 P42 R4
G1 X66.332 Y94.596 E3.82141
G1 X65.924 Y95.004 E.01879
G1 X184.076 Y95.004 E3.84799
G1 X184.484 Y95.412 E.01879
M73 P43 R4
G1 X65.516 Y95.412 E3.87456
G1 X65.108 Y95.82 E.01879
G1 X184.892 Y95.82 E3.90114
G1 X185.3 Y96.228 E.01879
M73 P44 R4
G1 X64.7 Y96.228 E3.92771
G1 X64.292 Y96.636 E.01879
G1 X185.708 Y96.636 E3.95429
G1 X186.116 Y97.044 E.01879
G1 X63.884 Y97.044 E3.98087
G1 X63.476 Y97.452 E.01879
M73 P45 R4
G1 X186.524 Y97.452 E4.00744
G1 X186.932 Y97.86 E.01879
G1 X63.068 Y97.86 E4.03402
G1 X62.66 Y98.268 E.01879
M73 P46 R4
G1 X187.34 Y98.268 E4.06059
G1 X187.748 Y98.676 E.01879
G1 X62.252 Y98.676 E4.08717
G1 X61.844 Y99.084 E.01879
M73 P47 R4
G1 X188.156 Y99.084 E4.11374
G1 X188.564 Y99.492 E.01879
G1 X61.436 Y99.492 E4.14032
G1 X61.028 Y99.9 E.01879
M73 P48 R4
G1 X188.972 Y99.9 E4.16689
G1 X189.38 Y100.308 E.01879
G1 X60.62 Y100.308 E4.19347
G1 X60.212 Y100.716 E.01879
M73 P49 R4
G1 X189.788 Y100.716 E4.22004
G1 X190.196 Y101.124 E.01879
G1 X59.804 Y101.124 E4.24662
G1 X59.396 Y101.532 E.01879
G1 X190.604 Y101.532 E4.2732
G1 X191.012 Y101.94 E.01879
M73 P50 R4
G1 X58.988 Y101.94 E4.29977
G1 X58.58 Y102.348 E.01879
G1 X191.42 Y102.348 E4.32635
G1 X191.828 Y102.756 E.01879
M73 P51 R4
G1 X58.172 Y102.756 E4.35292
G1 X57.764 Y103.164 E.01879
G1 X192.236 Y103.164 E4.3795
G1 X192.644 Y103.572 E.01879
M73 P52 R3
G1 X57.356 Y103.572 E4.40607
G1 X56.948 Y103.98 E.01879
G1 X193.052 Y103.98 E4.43265
G1 X193.46 Y104.388 E.01879
M73 P53 R3
G1 X56.54 Y104.388 E4.45922
G1 X56.132 Y104.796 E.01879
G1 X193.868 Y104.796 E4.4858
G1 X194.072 Y105 E.00939
M73 P54 R3
G1 X193.868 Y105.204 E.0094
G1 X56.132 Y105.204 E4.48579
G1 X56.54 Y105.612 E.01879
G1 X193.46 Y105.612 E4.45922
G1 X193.052 Y106.02 E.01879
M73 P55 R3
G1 X56.948 Y106.02 E4.43264
G1 X57.356 Y106.428 E.01879
G1 X192.644 Y106.428 E4.40607
G1 X192.236 Y106.836 E.01879
M73 P56 R3
G1 X57.764 Y106.836 E4.37949
G1 X58.172 Y107.244 E.01879
G1 X191.828 Y107.244 E4.35292
G1 X191.42 Y107.652 E.01879
M73 P57 R3
G1 X58.58 Y107.652 E4.32634
G1 X58.988 Y108.06 E.01879
G1 X191.012 Y108.06 E4.29977
G1 X190.604 Y108.468 E.01879
M73 P58 R3
G1 X59.396 Y108.468 E4.27319
G1 X59.804 Y108.876 E.01879
G1 X190.196 Y108.876 E4.24661
G1 X189.788 Y109.284 E.01879
M73 P59 R3
G1 X60.212 Y109.284 E4.22004
G1 X60.62 Y109.692 E.01879
G1 X189.38 Y109.692 E4.19346
G1 X188.972 Y110.1 E.01879
G1 X61.028 Y110.1 E4.16689
G1 X61.436 Y110.508 E.01879
M73 P60 R3
G1 X188.564 Y110.508 E4.14031
G1 X188.156 Y110.916 E.01879
G1 X61.844 Y110.916 E4.11374
G1 X62.252 Y111.324 E.01879
M73 P61 R3
G1 X187.748 Y111.324 E4.08716
G1 X187.34 Y111.732 E.01879
G1 X62.66 Y111.732 E4.06059
G1 X63.068 Y112.14 E.01879
M73 P62 R3
G1 X186.932 Y112.14 E4.03401
G1 X186.524 Y112.548 E.01879
G1 X63.476 Y112.548 E4.00743
G1 X63.884 Y112.956 E.01879
M73 P63 R3
G1 X186.116 Y112.956 E3.98086
G1 X185.708 Y113.364 E.01879
G1 X64.292 Y113.364 E3.95428
G1 X64.7 Y113.772 E.01879
M73 P64 R3
G1 X185.3 Y113.772 E3.92771
G1 X184.892 Y114.18 E.01879
M73 P64 R2
G1 X65.108 Y114.18 E3.90113
G1 X65.516 Y114.588 E.01879
G1 X184.484 Y114.588 E3.87456
G1 X184.076 Y114.996 E.01879
M73 P65 R2
G1 X65.924 Y114.996 E3.84798
G1 X66.332 Y115.404 E.01879
G1 X183.668 Y115.404 E3.82141
G1 X183.26 Y115.812 E.01879
M73 P66 R2
G1 X66.74 Y115.812 E3.79483
G1 X67.148 Y116.22 E.01879
G1 X182.852 Y116.22 E3.76826
G1 X182.444 Y116.628 E.01879
G1 X67.556 Y116.628 E3.74168
G1 X67.964 Y117.036 E.01879
M73 P67 R2
G1 X182.036 Y117.036 E3.7151
G1 X181.628 Y117.444 E.01879
G1 X68.372 Y117.444 E3.68853
G1 X68.78 Y117.852 E.01879
M73 P68 R2
G1 X181.22 Y117.852 E3.66195
G1 X180.812 Y118.26 E.01879
G1 X69.188 Y118.26 E3.63538
G1 X69.596 Y118.668 E.01879
M73 P69 R2
G1 X180.404 Y118.668 E3.6088
G1 X179.996 Y119.076 E.01879
G1 X70.004 Y119.076 E3.58223
G1 X70.412 Y119.484 E.01879
G1 X179.588 Y119.484 E3.55565
G1 X179.18 Y119.892 E.01879
M73 P70 R2
G1 X70.82 Y119.892 E3.52908
G1 X71.228 Y120.3 E.01879
G1 X178.772 Y120.3 E3.5025
G1 X178.364 Y120.708 E.01879
M73 P71 R2
G1 X71.636 Y120.708 E3.47593
G1 X72.044 Y121.116 E.01879
G1 X177.956 Y121.116 E3.44935
G1 X177.548 Y121.524 E.01879
G1 X72.452 Y121.524 E3.42277
G1 X72.86 Y121.932 E.01879
M73 P72 R2
G1 X177.14 Y121.932 E3.3962
G1 X176.732 Y122.34 E.01879
G1 X73.268 Y122.34 E3.36962
G1 X73.676 Y122.748 E.01879
G1 X176.324 Y122.748 E3.34305
G1 X175.916 Y123.156 E.01879
M73 P73 R2
G1 X74.084 Y123.156 E3.31647
G1 X74.492 Y123.564 E.01879
G1 X175.508 Y123.564 E3.2899
G1 X175.1 Y123.972 E.01879
M73 P74 R2
G1 X74.9 Y123.972 E3.26332
G1 X75.308 Y124.38 E.01879
G1 X174.692 Y124.38 E3.23675
G1 X174.284 Y124.788 E.01879
G1 X75.716 Y124.788 E3.21017
G1 X76.124 Y125.196 E.01879
M73 P75 R2
G1 X173.876 Y125.196 E3.18359
G1 X173.468 Y125.604 E.01879
G1 X76.532 Y125.604 E3.15702
G1 X76.94 Y126.012 E.01879
G1 X173.06 Y126.012 E3.13044
G1 X172.652 Y126.42 E.01879
M73 P76 R1
G1 X77.348 Y126.42 E3.10387
G1 X77.756 Y126.828 E.01879
G1 X172.244 Y126.828 E3.07729
G1 X171.836 Y127.236 E.01879
G1 X78.164 Y127.236 E3.05072
G1 X78.572 Y127.644 E.01879
M73 P77 R1
G1 X171.428 Y127.644 E3.02414
G1 X171.02 Y128.052 E.01879
G1 X78.98 Y128.052 E2.99757
G1 X79.388 Y128.46 E.01879
G1 X170.612 Y128.46 E2.97099
G1 X170.204 Y128.868 E.01879
M73 P78 R1
G1 X79.796 Y128.868 E2.94442
G1 X80.204 Y129.276 E.01879
G1 X169.796 Y129.276 E2.91784
G1 X169.388 Y129.684 E.01879
G1 X80.612 Y129.684 E2.89126
