M118 E1 OCTOAPP_DISABLE_LAYER_MAXIC
; HEADER_BLOCK_START
; generated by OrcaSlicer 2.3.0 on 2025-09-13 at 10:37:23
; total layer number: 3
;_GP_TOTAL_LAYER_NUMBER_PLACEHOLDER
; filament_density: 1.31
; filament_diameter: 1.75
; max_z_height: 0.60
; HEADER_BLOCK_END
; THUMBNAIL_BLOCK_START
;
; THUMBNAIL_BLOCK_END
; THUMBNAIL_BLOCK_START
;
; THUMBNAIL_BLOCK_END
; external perimeters extrusion width = 0.45mm
; perimeters extrusion width = 0.45mm
; infill extrusion width = 0.45mm
; solid infill extrusion width = 0.45mm
; top infill extrusion width = 0.40mm
; EXECUTABLE_BLOCK_START
M73 P0 R2
M201 X1000 Y1000 Z200 E800
M203 X200 Y200 Z12 E120
M204 P1250 R1000 T1250
M205 X10.00 Y10.00 Z0.40 E5.00 ; sets the jerk limits, mm/sec
;TYPE:Custom
M862.3 P "" ; printer model check
M862.1 P0.4 ; nozzle diameter check
M115 U3.2.3 ; tell printer latest fw version
G90 ; use absolute coordinates
M83 ; extruder relative mode
M204 S1250 T1000 ; MK2 firmware only supports the old M204 format
M104 S220 ; set extruder temp
M140 S55 ; set bed temp
M190 S55 ; wait for bed temp
M109 S220 ; wait for extruder temp
G28 W ; home all without mesh bed level
G80 ; mesh bed leveling
G1 Z2.0 F3000 ;Move Z Axis up
G1 X100.5 Y90.5 Z0.8 F5000 ; Move to start
M109 S220 ; wait for nozzle temp to stabilize
G92 E0 ;Reset Extruder
G1 X100.5 Y120.5 E30 F360.0 ; Extrude 30mm in Y
M73 P1 R2
G92 E0 ;Reset Extruder
G1 E-0.5 F2100 ; Retract
M73 P4 R2
G1 Y130.5 F5000 ; Move 10mm in Y
G92 E0  ;Reset Extrude
G90
G21
M83 ; use relative distances for extrusion
; Filament gcode
M106 S0
;LAYER_CHANGE
M117 DASHBOARD_LAYER_INDICATOR 1
M118 E1 OCTOAPP_LAYER LAYER=0
M117 DASHBOARD_LAYER_INDICATOR 1
;Z:0.2
;HEIGHT:0.2
;BEFORE_LAYER_CHANGE
G92 E0.0
;0.2
G1 E-.8 F1800
;_SET_FAN_SPEED_CHANGING_LAYER
M204 S300
; printing object Cube id:13844432977387129179 copy 0
G1 X136.646 Y116.646 F7200
G1 Z.6
M73 P5 R2
G1 Z.2
G1 E.8 F1800
;TYPE:Inner wall
;WIDTH:0.449999
G1 F1200
G1 X113.354 Y116.646 E.7569
G1 X113.354 Y93.354 E.7569
M73 P6 R2
G1 X136.646 Y93.354 E.7569
M73 P7 R2
G1 X136.646 Y116.606 E.7556
G1 X137.075 Y117.075 F7200
M73 P8 R2
;TYPE:Outer wall
G1 F1200
G1 X112.925 Y117.075 E.78475
G1 X112.925 Y92.925 E.78475
M73 P9 R2
G1 X137.075 Y92.925 E.78475
M73 P10 R2
G1 X137.075 Y117.035 E.78345
M73 P11 R2
G1 E-.08 F1800
M73 P12 R2
;WIPE_START
G1 F1200
G1 X136.075 Y117.037 E-.72
;WIPE_END
G1 X136.226 Y109.406 Z.6 F7200
G1 X136.524 Y94.301 Z.6
G1 Z.2
G1 E.8 F1800
;TYPE:Bottom surface
;WIDTH:0.451086
G1 F3600
G1 X135.882 Y93.659 E.02958
G1 X135.305 Y93.659 E.01881
G1 X136.341 Y94.695 E.04774
G1 X136.341 Y95.272 E.01881
G1 X134.728 Y93.659 E.07434
G1 X134.151 Y93.659 E.01881
M73 P13 R2
G1 X136.341 Y95.849 E.10093
G1 X136.341 Y96.427 E.01881
G1 X133.573 Y93.659 E.12753
G1 X132.996 Y93.659 E.01881
G1 X136.341 Y97.004 E.15413
G1 X136.341 Y97.581 E.01881
G1 X132.419 Y93.659 E.18073
G1 X131.842 Y93.659 E.01881
G1 X136.341 Y98.158 E.20732
G1 X136.341 Y98.736 E.01881
G1 X131.264 Y93.659 E.23392
G1 X130.687 Y93.659 E.01881
G1 X136.341 Y99.313 E.26052
G1 X136.341 Y99.89 E.01881
M73 P14 R2
G1 X130.11 Y93.659 E.28712
G1 X129.533 Y93.659 E.01881
G1 X136.341 Y100.467 E.31371
G1 X136.341 Y101.044 E.01881
G1 X128.956 Y93.659 E.34031
G1 X128.378 Y93.659 E.01881
G1 X136.341 Y101.622 E.36691
G1 X136.341 Y102.199 E.01881
M73 P15 R2
G1 X127.801 Y93.659 E.39351
G1 X127.224 Y93.659 E.01881
G1 X136.341 Y102.776 E.4201
G1 X136.341 Y103.353 E.01881
G1 X126.647 Y93.659 E.4467
G1 X126.069 Y93.659 E.01881
G1 X136.341 Y103.931 E.4733
G1 X136.341 Y104.508 E.01881
M73 P16 R2
G1 X125.492 Y93.659 E.4999
G1 X124.915 Y93.659 E.01881
G1 X136.341 Y105.085 E.52649
G1 X136.341 Y105.662 E.01881
G1 X124.338 Y93.659 E.55309
G1 X123.76 Y93.659 E.01881
M73 P17 R2
G1 X136.341 Y106.24 E.57969
G1 X136.341 Y106.817 E.01881
G1 X123.183 Y93.659 E.60628
G1 X122.606 Y93.659 E.01881
G1 X136.341 Y107.394 E.63288
G1 X136.341 Y107.971 E.01881
M73 P18 R1
G1 X122.029 Y93.659 E.65948
G1 X121.451 Y93.659 E.01881
G1 X136.341 Y108.549 E.68608
G1 X136.341 Y109.126 E.01881
G1 X120.874 Y93.659 E.71267
G1 X120.297 Y93.659 E.01881
M73 P19 R1
G1 X136.341 Y109.703 E.73927
G1 X136.341 Y110.28 E.01881
G1 X119.72 Y93.659 E.76587
G1 X119.143 Y93.659 E.01881
G1 X136.341 Y110.857 E.79247
G1 X136.341 Y111.435 E.01881
M73 P20 R1
G1 X118.565 Y93.659 E.81906
G1 X117.988 Y93.659 E.01881
G1 X136.341 Y112.012 E.84566
G1 X136.341 Y112.589 E.01881
M73 P21 R1
G1 X117.411 Y93.659 E.87226
G1 X116.834 Y93.659 E.01881
G1 X136.341 Y113.166 E.89886
G1 X136.341 Y113.744 E.01881
G1 X116.256 Y93.659 E.92545
G1 X115.679 Y93.659 E.01881
M73 P22 R1
G1 X136.341 Y114.321 E.95205
G1 X136.341 Y114.898 E.01881
G1 X115.102 Y93.659 E.97865
G1 X114.525 Y93.659 E.01881
M73 P23 R1
G1 X136.341 Y115.475 E1.00525
G1 X136.341 Y116.053 E.01881
G1 X113.947 Y93.659 E1.03184
G1 X113.659 Y93.659 E.0094
M73 P24 R1
G1 X113.659 Y93.948 E.0094
G1 X136.052 Y116.341 E1.03184
G1 X135.475 Y116.341 E.01881
G1 X113.659 Y94.525 E1.00524
G1 X113.659 Y95.102 E.01881
M73 P25 R1
G1 X134.898 Y116.341 E.97864
G1 X134.321 Y116.341 E.01881
G1 X113.659 Y95.679 E.95205
G1 X113.659 Y96.256 E.01881
M73 P26 R1
G1 X133.744 Y116.341 E.92545
G1 X133.166 Y116.341 E.01881
G1 X113.659 Y96.834 E.89885
G1 X113.659 Y97.411 E.01881
G1 X132.589 Y116.341 E.87225
G1 X132.012 Y116.341 E.01881
M73 P27 R1
G1 X113.659 Y97.988 E.84566
G1 X113.659 Y98.565 E.01881
G1 X131.435 Y116.341 E.81906
G1 X130.857 Y116.341 E.01881
M73 P28 R1
G1 X113.659 Y99.143 E.79246
G1 X113.659 Y99.72 E.01881
G1 X130.28 Y116.341 E.76587
G1 X129.703 Y116.341 E.01881
G1 X113.659 Y100.297 E.73927
G1 X113.659 Y100.874 E.01881
M73 P29 R1
G1 X129.126 Y116.341 E.71267
G1 X128.548 Y116.341 E.01881
G1 X113.659 Y101.452 E.68607
G1 X113.659 Y102.029 E.01881
M73 P30 R1
G1 X127.971 Y116.341 E.65948
G1 X127.394 Y116.341 E.01881
G1 X113.659 Y102.606 E.63288
G1 X113.659 Y103.183 E.01881
G1 X126.817 Y116.341 E.60628
G1 X126.24 Y116.341 E.01881
M73 P31 R1
G1 X113.659 Y103.76 E.57968
G1 X113.659 Y104.338 E.01881
G1 X125.662 Y116.341 E.55309
G1 X125.085 Y116.341 E.01881
G1 X113.659 Y104.915 E.52649
G1 X113.659 Y105.492 E.01881
G1 X124.508 Y116.341 E.49989
M73 P32 R1
G1 X123.931 Y116.341 E.01881
G1 X113.659 Y106.069 E.47329
G1 X113.659 Y106.647 E.01881
G1 X123.353 Y116.341 E.4467
G1 X122.776 Y116.341 E.01881
G1 X113.659 Y107.224 E.4201
G1 X113.659 Y107.801 E.01881
M73 P33 R1
G1 X122.199 Y116.341 E.3935
G1 X121.622 Y116.341 E.01881
G1 X113.659 Y108.378 E.3669
G1 X113.659 Y108.956 E.01881
G1 X121.044 Y116.341 E.34031
G1 X120.467 Y116.341 E.01881
G1 X113.659 Y109.533 E.31371
G1 X113.659 Y110.11 E.01881
M73 P34 R1
G1 X119.89 Y116.341 E.28711
G1 X119.313 Y116.341 E.01881
G1 X113.659 Y110.687 E.26051
G1 X113.659 Y111.265 E.01881
G1 X118.735 Y116.341 E.23392
G1 X118.158 Y116.341 E.01881
G1 X113.659 Y111.842 E.20732
G1 X113.659 Y112.419 E.01881
G1 X117.581 Y116.341 E.18072
G1 X117.004 Y116.341 E.01881
G1 X113.659 Y112.996 E.15413
M73 P35 R1
G1 X113.659 Y113.573 E.01881
G1 X116.427 Y116.341 E.12753
G1 X115.849 Y116.341 E.01881
G1 X113.659 Y114.151 E.10093
G1 X113.659 Y114.728 E.01881
G1 X115.272 Y116.341 E.07433
G1 X114.695 Y116.341 E.01881
G1 X113.659 Y115.305 E.04774
G1 X113.659 Y115.882 E.01881
G1 X114.301 Y116.524 E.02958
; stop printing object Cube id:13844432977387129179 copy 0
M106 S255
;LAYER_CHANGE
M117 DASHBOARD_LAYER_INDICATOR 2
M118 E1 OCTOAPP_LAYER LAYER=1
M117 DASHBOARD_LAYER_INDICATOR 2
;Z:0.4
;HEIGHT:0.2
;BEFORE_LAYER_CHANGE
G92 E0.0
;0.4
G1 E-.3 F1800
;WIPE_START
G1 F3600
G1 X113.659 Y115.882 E-.45392
G1 X113.659 Y115.79 E-.04608
;WIPE_END
;_SET_FAN_SPEED_CHANGING_LAYER
M204 S500
;CUSTOM_GCODE
M600
; printing object Cube id:13844432977387129179 copy 0
M204 S180
G1 X121.283 Y116.138 Z.8 F7200
G1 X136.846 Y116.846 Z.8
G1 Z.4
M73 P36 R1
G1 E.8 F1800
M204 S300
;TYPE:Inner wall
;WIDTH:0.449999
G1 F3600
G1 X113.154 Y116.846 E.7699
G1 X113.154 Y93.154 E.7699
G1 X136.846 Y93.154 E.7699
M73 P37 R1
G1 X136.846 Y116.806 E.7686
M204 S180
G1 X137.275 Y117.275 F7200
M204 S500
;TYPE:Outer wall
G1 F3600
G1 X112.725 Y117.275 E.79775
G1 X112.725 Y92.725 E.79775
M73 P38 R1
G1 X137.275 Y92.725 E.79775
G1 X137.275 Y117.235 E.79645
M204 S180
G1 E-.3 F1800
M73 P39 R1
;WIPE_START
G1 F3600
G1 X136.275 Y117.237 E-.5
;WIPE_END
G1 X135.057 Y116.439 Z.8 F7200
G1 Z.4
G1 E.8 F1800
M204 S500
;TYPE:Internal solid infill
G1 F4200
G1 X136.439 Y116.439 E.04492
G1 X136.439 Y115.057 E.04492
G1 X135.085 Y116.411 E.06223
M204 S180
G1 X136.06 Y115.991 F7200
M204 S500
;WIDTH:0.445632
G1 F4200
G1 X136.009 Y115.991 E.00162
G1 X135.984 Y116.034 E.00162
G1 X136.009 Y116.078 E.00162
G1 X136.065 Y116.069 E.00181
M204 S180
G1 X136.684 Y114.294 F7200
M204 S500
;WIDTH:0.45107
G1 F4200
G1 X134.477 Y116.5 E.10167
G1 X133.9 Y116.5 E.01881
M73 P40 R1
G1 X136.5 Y113.9 E.11983
G1 X136.5 Y113.323 E.01881
G1 X133.323 Y116.5 E.14642
G1 X132.745 Y116.5 E.01881
G1 X136.5 Y112.745 E.17302
G1 X136.5 Y112.168 E.01881
G1 X132.168 Y116.5 E.19961
G1 X131.591 Y116.5 E.01881
G1 X136.5 Y111.591 E.22621
G1 X136.5 Y111.014 E.01881
G1 X131.014 Y116.5 E.2528
G1 X130.437 Y116.5 E.01881
G1 X136.5 Y110.437 E.2794
G1 X136.5 Y109.859 E.01881
M73 P41 R1
G1 X129.859 Y116.5 E.30599
G1 X129.282 Y116.5 E.01881
G1 X136.5 Y109.282 E.33259
G1 X136.5 Y108.705 E.01881
G1 X128.705 Y116.5 E.35918
G1 X128.128 Y116.5 E.01881
G1 X136.5 Y108.128 E.38578
G1 X136.5 Y107.55 E.01881
G1 X127.55 Y116.5 E.41238
G1 X126.973 Y116.5 E.01881
M73 P42 R1
G1 X136.5 Y106.973 E.43897
G1 X136.5 Y106.396 E.01881
G1 X126.396 Y116.5 E.46557
G1 X125.819 Y116.5 E.01881
G1 X136.5 Y105.819 E.49216
G1 X136.5 Y105.242 E.01881
G1 X125.242 Y116.5 E.51876
G1 X124.664 Y116.5 E.01881
G1 X136.5 Y104.664 E.54535
G1 X136.5 Y104.087 E.01881
M73 P43 R1
G1 X124.087 Y116.5 E.57195
G1 X123.51 Y116.5 E.01881
G1 X136.5 Y103.51 E.59854
G1 X136.5 Y102.933 E.01881
G1 X122.933 Y116.5 E.62514
G1 X122.356 Y116.5 E.01881
M73 P44 R1
G1 X136.5 Y102.356 E.65173
G1 X136.5 Y101.778 E.01881
G1 X121.778 Y116.5 E.67833
G1 X121.201 Y116.5 E.01881
G1 X136.5 Y101.201 E.70492
G1 X136.5 Y100.624 E.01881
G1 X120.624 Y116.5 E.73152
G1 X120.047 Y116.5 E.01881
M73 P45 R1
G1 X136.5 Y100.047 E.75811
G1 X136.5 Y99.469 E.01881
G1 X119.469 Y116.5 E.78471
G1 X118.892 Y116.5 E.01881
G1 X136.5 Y98.892 E.8113
G1 X136.5 Y98.315 E.01881
M73 P46 R1
G1 X118.315 Y116.5 E.8379
G1 X117.738 Y116.5 E.01881
G1 X136.5 Y97.738 E.8645
G1 X136.5 Y97.161 E.01881
G1 X117.161 Y116.5 E.89109
G1 X116.583 Y116.5 E.01881
M73 P47 R1
G1 X136.5 Y96.583 E.91769
G1 X136.5 Y96.006 E.01881
G1 X116.006 Y116.5 E.94428
G1 X115.429 Y116.5 E.01881
G1 X136.5 Y95.429 E.97088
M73 P48 R1
G1 X136.5 Y94.852 E.01881
G1 X114.852 Y116.5 E.99747
G1 X114.275 Y116.5 E.01881
G1 X136.5 Y94.275 E1.02407
G1 X136.5 Y93.697 E.01881
M73 P49 R1
G1 X113.697 Y116.5 E1.05066
G1 X113.5 Y116.5 E.00645
G1 X113.5 Y116.121 E.01236
G1 X136.121 Y93.5 E1.0423
G1 X135.544 Y93.5 E.01881
G1 X113.5 Y115.544 E1.0157
M73 P50 R1
G1 X113.5 Y114.967 E.01881
G1 X134.967 Y93.5 E.98911
G1 X134.389 Y93.5 E.01881
G1 X113.5 Y114.389 E.96251
G1 X113.5 Y113.812 E.01881
M73 P51 R1
G1 X133.812 Y93.5 E.93592
G1 X133.235 Y93.5 E.01881
G1 X113.5 Y113.235 E.90932
G1 X113.5 Y112.658 E.01881
G1 X132.658 Y93.5 E.88273
G1 X132.081 Y93.5 E.01881
M73 P52 R1
G1 X113.5 Y112.081 E.85613
G1 X113.5 Y111.503 E.01881
G1 X131.503 Y93.5 E.82953
G1 X130.926 Y93.5 E.01881
G1 X113.5 Y110.926 E.80294
G1 X113.5 Y110.349 E.01881
M73 P53 R1
G1 X130.349 Y93.5 E.77634
G1 X129.772 Y93.5 E.01881
G1 X113.5 Y109.772 E.74975
G1 X113.5 Y109.195 E.01881
G1 X129.195 Y93.5 E.72315
G1 X128.617 Y93.5 E.01881
M73 P54 R1
G1 X113.5 Y108.617 E.69656
G1 X113.5 Y108.04 E.01881
G1 X128.04 Y93.5 E.66996
G1 X127.463 Y93.5 E.01881
G1 X113.5 Y107.463 E.64337
G1 X113.5 Y106.886 E.01881
M73 P55 R1
G1 X126.886 Y93.5 E.61677
G1 X126.308 Y93.5 E.01881
G1 X113.5 Y106.308 E.59018
G1 X113.5 Y105.731 E.01881
G1 X125.731 Y93.5 E.56358
G1 X125.154 Y93.5 E.01881
G1 X113.5 Y105.154 E.53699
G1 X113.5 Y104.577 E.01881
M73 P56 R1
G1 X124.577 Y93.5 E.51039
G1 X124 Y93.5 E.01881
G1 X113.5 Y104 E.4838
G1 X113.5 Y103.422 E.01881
G1 X123.422 Y93.5 E.4572
G1 X122.845 Y93.5 E.01881
G1 X113.5 Y102.845 E.43061
G1 X113.5 Y102.268 E.01881
M73 P57 R1
G1 X122.268 Y93.5 E.40401
G1 X121.691 Y93.5 E.01881
G1 X113.5 Y101.691 E.37741
G1 X113.5 Y101.114 E.01881
G1 X121.114 Y93.5 E.35082
G1 X120.536 Y93.5 E.01881
G1 X113.5 Y100.536 E.32422
G1 X113.5 Y99.959 E.01881
G1 X119.959 Y93.5 E.29763
G1 X119.382 Y93.5 E.01881
M73 P58 R1
G1 X113.5 Y99.382 E.27103
G1 X113.5 Y98.805 E.01881
G1 X118.805 Y93.5 E.24444
G1 X118.228 Y93.5 E.01881
G1 X113.5 Y98.228 E.21784
G1 X113.5 Y97.65 E.01881
G1 X117.65 Y93.5 E.19125
G1 X117.073 Y93.5 E.01881
G1 X113.5 Y97.073 E.16465
G1 X113.5 Y96.496 E.01881
G1 X116.496 Y93.5 E.13806
G1 X115.919 Y93.5 E.01881
G1 X113.5 Y95.919 E.11146
G1 X113.5 Y95.341 E.01881
M73 P59 R1
G1 X115.341 Y93.5 E.08487
G1 X114.764 Y93.5 E.01881
G1 X113.5 Y94.764 E.05827
G1 X113.5 Y94.187 E.01881
M73 P59 R0
G1 X114.37 Y93.316 E.04012
M204 S180
G1 X113.601 Y93.527 F7200
M204 S500
;WIDTH:0.477236
G1 F4200
G1 X113.547 Y93.527 E.00188
G1 X113.52 Y93.574 E.00188
G1 X113.547 Y93.621 E.00188
G1 X113.601 Y93.621 E.00188
G1 X113.609 Y93.609 E.0005
; stop printing object Cube id:13844432977387129179 copy 0
;LAYER_CHANGE
M117 DASHBOARD_LAYER_INDICATOR 3
M118 E1 OCTOAPP_LAYER LAYER=2
M117 DASHBOARD_LAYER_INDICATOR 3
;Z:0.6
;HEIGHT:0.2
;BEFORE_LAYER_CHANGE
G92 E0.0
;0.6
G1 E-.70081 F1800
;WIPE_START
G1 F4200
G1 X113.601 Y93.621 E-.00612
G1 X113.547 Y93.621 E-.02327
G1 X113.52 Y93.574 E-.02327
G1 X113.547 Y93.527 E-.02327
G1 X113.601 Y93.527 E-.02327
;WIPE_END
;_SET_FAN_SPEED_CHANGING_LAYER
; printing object Cube id:13844432977387129179 copy 0
M204 S180
G1 X118.99 Y98.933 Z1 F7200
G1 X136.846 Y116.846 Z1
G1 Z.6
M73 P60 R0
G1 E.8 F1800
M204 S300
;TYPE:Inner wall
;WIDTH:0.449999
G1 F3600
G1 X113.154 Y116.846 E.7699
G1 X113.154 Y93.154 E.7699
G1 X136.846 Y93.154 E.7699
G1 X136.846 Y116.806 E.7686
M73 P61 R0
M204 S180
G1 X137.275 Y117.275 F7200
M204 S500
;TYPE:Outer wall
G1 F3600
G1 X112.725 Y117.275 E.79775
G1 X112.725 Y92.725 E.79775
M73 P62 R0
G1 X137.275 Y92.725 E.79775
G1 X137.275 Y117.235 E.79645
M204 S180
G1 E-.3 F1800
M73 P63 R0
;WIPE_START
G1 F3600
G1 X136.275 Y117.237 E-.5
;WIPE_END
G1 X136.423 Y109.606 Z1 F7200
G1 X136.727 Y93.995 Z1
G1 Z.6
G1 E.8 F1800
M204 S500
;TYPE:Top surface
;WIDTH:0.400113
G1 F2400
G1 X136.005 Y93.273 E.02912
M204 S180
G1 X135.5 Y93.273 F7200
M204 S500
G1 F2400
G1 X136.727 Y94.5 E.04949
M204 S180
G1 X136.727 Y95.006 F7200
M204 S500
G1 F2400
M73 P64 R0
G1 X134.994 Y93.273 E.06985
M204 S180
G1 X134.489 Y93.273 F7200
M204 S500
G1 F2400
G1 X136.727 Y95.511 E.09022
M204 S180
G1 X136.727 Y96.016 F7200
M204 S500
G1 F2400
G1 X133.984 Y93.273 E.11059
M204 S180
G1 X133.479 Y93.273 F7200
M204 S500
G1 F2400
G1 X136.727 Y96.521 E.13096
M204 S180
G1 X136.727 Y97.026 F7200
M204 S500
G1 F2400
G1 X132.974 Y93.273 E.15133
M204 S180
G1 X132.469 Y93.273 F7200
M204 S500
G1 F2400
G1 X136.727 Y97.531 E.1717
M204 S180
G1 X136.727 Y98.036 F7200
M204 S500
G1 F2400
G1 X131.964 Y93.273 E.19207
M204 S180
G1 X131.458 Y93.273 F7200
M204 S500
G1 F2400
G1 X136.727 Y98.542 E.21244
M204 S180
G1 X136.727 Y99.047 F7200
M73 P65 R0
M204 S500
G1 F2400
G1 X130.953 Y93.273 E.23281
M204 S180
G1 X130.448 Y93.273 F7200
M204 S500
G1 F2400
G1 X136.727 Y99.552 E.25318
M204 S180
G1 X136.727 Y100.057 F7200
M204 S500
G1 F2400
G1 X129.943 Y93.273 E.27355
M204 S180
G1 X129.438 Y93.273 F7200
M204 S500
G1 F2400
G1 X136.727 Y100.562 E.29391
M204 S180
G1 X136.727 Y101.067 F7200
M73 P66 R0
M204 S500
G1 F2400
G1 X128.933 Y93.273 E.31428
M204 S180
G1 X128.428 Y93.273 F7200
M204 S500
G1 F2400
G1 X136.727 Y101.572 E.33465
M204 S180
G1 X136.727 Y102.078 F7200
M204 S500
G1 F2400
G1 X127.922 Y93.273 E.35502
M204 S180
G1 X127.417 Y93.273 F7200
M204 S500
G1 F2400
G1 X136.727 Y102.583 E.37539
M204 S180
G1 X136.727 Y103.088 F7200
M73 P67 R0
M204 S500
G1 F2400
G1 X126.912 Y93.273 E.39576
M204 S180
G1 X126.407 Y93.273 F7200
M204 S500
G1 F2400
G1 X136.727 Y103.593 E.41613
M204 S180
G1 X136.727 Y104.098 F7200
M204 S500
G1 F2400
