M118 E1 OCTOAPP_DISABLE_LAYER_MAXIC
; HEADER_BLOCK_START
; generated by OrcaSlicer 2.3.1 on 2025-11-29 at 19:07:06
; total layer number: 75
; filament_density: 1.31
; filament_diameter: 1.75
; max_z_height: 15.00
; HEADER_BLOCK_END
; THUMBNAIL_BLOCK_START
;
; THUMBNAIL_BLOCK_END
; THUMBNAIL_BLOCK_START
;
; THUMBNAIL_BLOCK_END
; external perimeters extrusion width = 0.45mm
; perimeters extrusion width = 0.45mm
; infill extrusion width = 0.45mm
; solid infill extrusion width = 0.45mm
; top infill extrusion width = 0.40mm
; EXECUTABLE_BLOCK_START
M73 P0 R128
M201 X1000 Y1000 Z200 E800
M203 X200 Y200 Z12 E120
M204 P1250 R1000 T1250
M205 X10.00 Y10.00 Z0.40 E5.00 ; sets the jerk limits, mm/sec
;TYPE:Custom
M862.3 P "" ; printer model check
M862.1 P0.4 ; nozzle diameter check
M115 U3.2.3 ; tell printer latest fw version
G90 ; use absolute coordinates
M83 ; extruder relative mode
M204 S1250 T1000 ; MK2 firmware only supports the old M204 format
M104 S220 ; set extruder temp
M140 S55 ; set bed temp
M190 S55 ; wait for bed temp
M109 S220 ; wait for extruder temp
G28 W ; home all without mesh bed level
G80 ; mesh bed leveling
G1 Z2.0 F3000 ;Move Z Axis up
G1 X82.8442 Y88.5942 Z0.8 F5000 ; Move to start
M109 S220 ; wait for nozzle temp to stabilize
G92 E0 ;Reset Extruder
G1 X82.8442 Y118.594 E30 F360.0 ; Extrude 30mm in Y
G92 E0 ;Reset Extruder
G1 E-0.5 F2100 ; Retract
G1 Y128.594 F5000 ; Move 10mm in Y
G92 E0  ;Reset Extrude
G90
G21
M83 ; use relative distances for extrusion
; Filament gcode
M106 S0
;LAYER_CHANGE
M117 DASHBOARD_LAYER_INDICATOR 1
M118 E1 OCTOAPP_LAYER LAYER=0
M117 DASHBOARD_LAYER_INDICATOR 1
;Z:0.2
;HEIGHT:0.2
;BEFORE_LAYER_CHANGE
G92 E0.0
;0.2
G1 E-.8 F1800
;_SET_FAN_SPEED_CHANGING_LAYER
M204 S300
; printing object fidget_cube.stl id:15 copy 0
G1 X146.477 Y92.558 F7200
G1 Z.6
G1 Z.2
G1 E.8 F1800
;TYPE:Inner wall
;WIDTH:0.449999
G1 F1200
G1 X146.368 Y92.521 E.00373
G1 X142.951 Y92.521 E.11102
G1 X142.951 Y91.451 E.03478
G1 X154.299 Y91.451 E.36873
G1 X154.299 Y102.799 E.36873
G1 X142.951 Y102.799 E.36873
G1 X142.951 Y101.729 E.03478
G1 X146.368 Y101.729 E.11102
G1 X146.734 Y101.606 E.01255
G1 X146.932 Y101.353 E.01044
G1 X146.979 Y101.118 E.00778
G1 X146.979 Y93.132 E.2595
G1 X146.932 Y92.897 E.00778
G1 X146.734 Y92.644 E.01044
G1 X146.515 Y92.57 E.00752
G1 X146.368 Y92.95 F7200
;TYPE:Outer wall
G1 F1200
G1 X142.523 Y92.95 E.12495
G1 X142.523 Y91.986 E.03131
G1 X142.548 Y91.1 E.02882
G1 X142.67 Y91.023 E.00468
G1 X154.538 Y91.023 E.38566
G1 X154.681 Y91.069 E.00487
G1 X154.727 Y91.212 E.00487
G1 X154.727 Y103.038 E.38431
G1 X154.681 Y103.181 E.00487
G1 X154.579 Y103.227 E.00363
G1 X143.486 Y103.227 E.36047
G1 X142.6 Y103.202 E.02882
G1 X142.523 Y103.08 E.00468
G1 X142.523 Y101.3 E.05784
G1 X146.368 Y101.3 E.12495
G1 X146.477 Y101.264 E.00374
G1 X146.55 Y101.118 E.00529
G1 X146.55 Y93.132 E.2595
G1 X146.477 Y92.986 E.00529
G1 X146.406 Y92.963 E.00244
G1 E-.08 F1800
;WIPE_START
G1 F1200
G1 X145.406 Y92.959 E-.72
;WIPE_END
G1 X143.073 Y91.759 Z.6 F7200
G1 Z.2
G1 E.8 F1800
;TYPE:Bottom surface
;WIDTH:0.455659
G1 F3600
G1 X153.993 Y91.759 E.35978
G1 X153.993 Y92.172 E.0136
G1 X143.257 Y92.172 E.35374
G1 X143.257 Y92.216 E.00145
G1 X146.384 Y92.216 E.10305
G1 X146.918 Y92.394 E.01852
G1 X147.066 Y92.585 E.00797
G1 X153.993 Y92.585 E.22822
G1 X153.993 Y92.998 E.0136
G1 X147.259 Y92.998 E.22188
G1 X147.284 Y93.122 E.00418
G1 X147.284 Y93.41 E.0095
G1 X153.993 Y93.41 E.22106
G1 X153.993 Y93.823 E.0136
G1 X147.284 Y93.823 E.22106
G1 X147.284 Y94.236 E.0136
G1 X153.993 Y94.236 E.22106
G1 X153.993 Y94.649 E.0136
G1 X147.284 Y94.649 E.22106
G1 X147.284 Y95.061 E.0136
G1 X153.993 Y95.061 E.22106
G1 X153.993 Y95.474 E.0136
G1 X147.284 Y95.474 E.22106
G1 X147.284 Y95.887 E.0136
G1 X153.993 Y95.887 E.22106
G1 X153.993 Y96.3 E.0136
G1 X147.284 Y96.3 E.22106
G1 X147.284 Y96.712 E.0136
G1 X153.993 Y96.712 E.22106
G1 X153.993 Y97.125 E.0136
G1 X147.284 Y97.125 E.22106
G1 X147.284 Y97.538 E.0136
M73 P0 R127
G1 X153.993 Y97.538 E.22106
G1 X153.993 Y97.951 E.0136
G1 X147.284 Y97.951 E.22106
G1 X147.284 Y98.363 E.0136
G1 X153.993 Y98.363 E.22106
G1 X153.993 Y98.776 E.0136
G1 X147.284 Y98.776 E.22106
G1 X147.284 Y99.189 E.0136
G1 X153.993 Y99.189 E.22106
G1 X153.993 Y99.601 E.0136
G1 X147.284 Y99.601 E.22106
G1 X147.284 Y100.014 E.0136
G1 X153.993 Y100.014 E.22106
G1 X153.993 Y100.427 E.0136
G1 X147.284 Y100.427 E.22106
G1 X147.284 Y100.84 E.0136
G1 X153.993 Y100.84 E.22106
G1 X153.993 Y101.252 E.0136
G1 X147.259 Y101.252 E.22188
G1 X147.215 Y101.475 E.00746
G1 X147.066 Y101.665 E.00796
G1 X153.993 Y101.665 E.22823
G1 X153.993 Y102.078 E.0136
G1 X143.257 Y102.078 E.35374
G1 X143.257 Y102.491 E.0136
G1 X154.177 Y102.491 E.35978
G1 E-.3 F1800
;WIPE_START
G1 F3600
G1 X153.177 Y102.491 E-.5
;WIPE_END
G1 X147.817 Y107.925 Z.6 F7200
G1 X146.961 Y108.793 Z.6
G1 Z.2
G1 E.8 F1800
;TYPE:Inner wall
;WIDTH:0.449999
G1 F1200
G1 X146.932 Y108.647 E.00484
G1 X146.734 Y108.394 E.01044
G1 X146.368 Y108.271 E.01255
G1 X142.951 Y108.271 E.11102
G1 X142.951 Y107.201 E.03478
G1 X154.299 Y107.201 E.36873
G1 X154.299 Y118.549 E.36873
G1 X142.951 Y118.549 E.36873
G1 X142.951 Y117.479 E.03478
G1 X146.368 Y117.479 E.11102
G1 X146.734 Y117.356 E.01255
G1 X146.932 Y117.103 E.01044
G1 X146.979 Y116.868 E.00778
G1 X146.979 Y108.882 E.2595
G1 X146.969 Y108.833 E.00164
G1 X146.55 Y108.882 F7200
;TYPE:Outer wall
G1 F1200
G1 X146.477 Y108.736 E.00529
G1 X146.368 Y108.7 E.00374
G1 X142.523 Y108.7 E.12495
G1 X142.532 Y106.876 E.05926
G1 X142.67 Y106.773 E.00559
G1 X154.538 Y106.773 E.38567
G1 X154.681 Y106.819 E.00487
G1 X154.727 Y106.962 E.00487
G1 X154.727 Y118.788 E.38431
G1 X154.681 Y118.931 E.00487
G1 X154.579 Y118.977 E.00363
G1 X142.626 Y118.968 E.38841
G1 X142.523 Y118.83 E.00559
G1 X142.523 Y117.05 E.05785
G1 X146.368 Y117.05 E.12495
G1 X146.477 Y117.014 E.00374
G1 X146.55 Y116.868 E.00529
G1 X146.55 Y108.922 E.2582
G1 E-.08 F1800
;WIPE_START
G1 F1200
G1 X146.477 Y108.736 E-.14359
G1 X146.368 Y108.7 E-.08291
G1 X145.683 Y108.7 E-.49349
;WIPE_END
G1 X143.073 Y107.509 Z.6 F7200
G1 Z.2
G1 E.8 F1800
;TYPE:Bottom surface
;WIDTH:0.455659
G1 F3600
G1 X153.993 Y107.509 E.35978
G1 X153.993 Y107.922 E.0136
G1 X143.257 Y107.922 E.35374
G1 X143.257 Y107.966 E.00145
G1 X146.384 Y107.966 E.10305
G1 X146.918 Y108.144 E.01852
G1 X147.066 Y108.335 E.00797
G1 X153.993 Y108.335 E.22822
G1 X153.993 Y108.748 E.0136
G1 X147.259 Y108.748 E.22188
G1 X147.284 Y108.872 E.00418
G1 X147.284 Y109.16 E.0095
G1 X153.993 Y109.16 E.22106
G1 X153.993 Y109.573 E.0136
G1 X147.284 Y109.573 E.22106
G1 X147.284 Y109.986 E.0136
G1 X153.993 Y109.986 E.22106
G1 X153.993 Y110.399 E.0136
G1 X147.284 Y110.399 E.22106
G1 X147.284 Y110.811 E.0136
G1 X153.993 Y110.811 E.22106
G1 X153.993 Y111.224 E.0136
G1 X147.284 Y111.224 E.22106
G1 X147.284 Y111.637 E.0136
G1 X153.993 Y111.637 E.22106
G1 X153.993 Y112.05 E.0136
G1 X147.284 Y112.05 E.22106
G1 X147.284 Y112.462 E.0136
G1 X153.993 Y112.462 E.22106
G1 X153.993 Y112.875 E.0136
G1 X147.284 Y112.875 E.22106
G1 X147.284 Y113.288 E.0136
G1 X153.993 Y113.288 E.22106
G1 X153.993 Y113.701 E.0136
G1 X147.284 Y113.701 E.22106
G1 X147.284 Y114.113 E.0136
G1 X153.993 Y114.113 E.22106
G1 X153.993 Y114.526 E.0136
G1 X147.284 Y114.526 E.22106
G1 X147.284 Y114.939 E.0136
G1 X153.993 Y114.939 E.22106
G1 X153.993 Y115.351 E.0136
G1 X147.284 Y115.351 E.22106
G1 X147.284 Y115.764 E.0136
G1 X153.993 Y115.764 E.22106
G1 X153.993 Y116.177 E.0136
G1 X147.284 Y116.177 E.22106
G1 X147.284 Y116.59 E.0136
G1 X153.993 Y116.59 E.22106
G1 X153.993 Y117.002 E.0136
G1 X147.259 Y117.002 E.22188
G1 X147.215 Y117.225 E.00746
G1 X147.066 Y117.415 E.00796
G1 X153.993 Y117.415 E.22823
G1 X153.993 Y117.828 E.0136
G1 X143.257 Y117.828 E.35374
G1 X143.257 Y118.241 E.0136
G1 X154.177 Y118.241 E.35978
G1 E-.3 F1800
;WIPE_START
G1 F3600
G1 X153.177 Y118.241 E-.5
;WIPE_END
G1 X147.04 Y113.703 Z.6 F7200
G1 X143.018 Y110.729 Z.6
G1 Z.2
G1 E.8 F1800
;TYPE:Inner wall
;WIDTH:0.449999
G1 F1200
G1 X143.018 Y115.021 E.1395
G1 X138.482 Y115.021 E.14741
G1 X138.482 Y110.729 E.1395
G1 X142.978 Y110.729 E.14611
G1 X143.447 Y110.3 F7200
;TYPE:Outer wall
G1 F1200
G1 X143.447 Y115.45 E.16735
G1 X138.053 Y115.45 E.17526
G1 X138.053 Y110.3 E.16735
G1 X143.407 Y110.3 E.17396
G1 X142.896 Y111.035 F7200
;TYPE:Bottom surface
;WIDTH:0.45186
G1 F3600
G1 X138.787 Y111.035 E.13413
G1 X138.787 Y111.444 E.01335
G1 X142.713 Y111.444 E.12815
G1 X142.713 Y111.853 E.01335
G1 X138.787 Y111.853 E.12815
G1 X138.787 Y112.262 E.01335
G1 X142.713 Y112.262 E.12815
G1 X142.713 Y112.671 E.01335
G1 X138.787 Y112.671 E.12815
G1 X138.787 Y113.08 E.01335
G1 X142.713 Y113.08 E.12815
G1 X142.713 Y113.488 E.01335
G1 X138.787 Y113.488 E.12815
G1 X138.787 Y113.897 E.01335
G1 X142.713 Y113.897 E.12815
G1 X142.713 Y114.306 E.01335
G1 X138.787 Y114.306 E.12815
G1 X138.787 Y114.715 E.01335
G1 X142.896 Y114.715 E.13413
G1 E-.3 F1800
;WIPE_START
G1 F3600
G1 X141.896 Y114.715 E-.5
;WIPE_END
G1 X135.951 Y109.929 Z.6 F7200
G1 X134.539 Y108.793 Z.6
G1 Z.2
G1 E.8 F1800
;TYPE:Inner wall
;WIDTH:0.449999
G1 F1200
G1 X134.521 Y108.882 E.00294
G1 X134.521 Y116.868 E.2595
G1 X134.568 Y117.103 E.00778
G1 X134.766 Y117.356 E.01044
G1 X135.132 Y117.479 E.01255
G1 X138.549 Y117.479 E.11102
G1 X138.549 Y118.549 E.03478
G1 X127.201 Y118.549 E.36873
G1 X127.201 Y107.201 E.36873
G1 X138.549 Y107.201 E.36873
G1 X138.549 Y108.271 E.03478
G1 X135.132 Y108.271 E.11102
G1 X134.766 Y108.394 E.01255
G1 X134.568 Y108.647 E.01044
G1 X134.547 Y108.754 E.00354
G1 X134.95 Y108.882 F7200
;TYPE:Outer wall
G1 F1200
G1 X134.95 Y116.868 E.2595
G1 X135.023 Y117.014 E.00529
G1 X135.132 Y117.05 E.00374
G1 X138.977 Y117.05 E.12495
G1 X138.977 Y118.788 E.05649
G1 X138.931 Y118.931 E.00487
G1 X138.829 Y118.977 E.00363
G1 X126.955 Y118.977 E.38584
G1 X126.85 Y118.952 E.00353
G1 X126.773 Y118.83 E.00468
G1 X126.773 Y106.962 E.38566
G1 X126.819 Y106.819 E.00487
G1 X126.921 Y106.773 E.00363
G1 X138.788 Y106.773 E.38564
G1 X138.931 Y106.819 E.00487
G1 X138.977 Y106.921 E.00363
G1 X138.977 Y108.7 E.05782
G1 X135.132 Y108.7 E.12495
G1 X135.023 Y108.736 E.00374
G1 X134.968 Y108.846 E.00399
G1 E-.08 F1800
;WIPE_START
G1 F1200
G1 X134.966 Y109.846 E-.72
;WIPE_END
G1 X127.667 Y107.614 Z.6 F7200
G1 X127.323 Y107.509 Z.6
G1 Z.2
G1 E.8 F1800
;TYPE:Bottom surface
;WIDTH:0.455659
G1 F3600
G1 X138.243 Y107.509 E.35978
G1 X138.243 Y107.922 E.0136
G1 X127.507 Y107.922 E.35374
G1 X127.507 Y108.335 E.0136
G1 X134.434 Y108.335 E.22822
G1 X134.285 Y108.525 E.00795
G1 X134.241 Y108.748 E.00747
G1 X127.507 Y108.748 E.22188
G1 X127.507 Y109.16 E.0136
G1 X134.216 Y109.16 E.22106
G1 X134.216 Y109.573 E.0136
G1 X127.507 Y109.573 E.22106
G1 X127.507 Y109.986 E.0136
G1 X134.216 Y109.986 E.22106
G1 X134.216 Y110.399 E.0136
G1 X127.507 Y110.399 E.22106
G1 X127.507 Y110.811 E.0136
G1 X134.216 Y110.811 E.22106
G1 X134.216 Y111.224 E.0136
G1 X127.507 Y111.224 E.22106
G1 X127.507 Y111.637 E.0136
G1 X134.216 Y111.637 E.22106
G1 X134.216 Y112.05 E.0136
G1 X127.507 Y112.05 E.22106
G1 X127.507 Y112.462 E.0136
G1 X134.216 Y112.462 E.22106
G1 X134.216 Y112.875 E.0136
G1 X127.507 Y112.875 E.22106
G1 X127.507 Y113.288 E.0136
G1 X134.216 Y113.288 E.22106
G1 X134.216 Y113.701 E.0136
G1 X127.507 Y113.701 E.22106
G1 X127.507 Y114.113 E.0136
G1 X134.216 Y114.113 E.22106
G1 X134.216 Y114.526 E.0136
G1 X127.507 Y114.526 E.22106
G1 X127.507 Y114.939 E.0136
G1 X134.216 Y114.939 E.22106
G1 X134.216 Y115.351 E.0136
G1 X127.507 Y115.351 E.22106
G1 X127.507 Y115.764 E.0136
G1 X134.216 Y115.764 E.22106
G1 X134.216 Y116.177 E.0136
G1 X127.507 Y116.177 E.22106
G1 X127.507 Y116.59 E.0136
G1 X134.216 Y116.59 E.22106
G1 X134.216 Y116.878 E.0095
G1 X134.241 Y117.002 E.00418
G1 X127.507 Y117.002 E.22188
G1 X127.507 Y117.415 E.0136
G1 X134.434 Y117.415 E.22823
G1 X134.582 Y117.606 E.00797
G1 X135.116 Y117.784 E.01852
G1 X138.243 Y117.784 E.10305
G1 X138.243 Y117.828 E.00145
G1 X127.507 Y117.828 E.35374
G1 X127.507 Y118.241 E.0136
G1 X138.427 Y118.241 E.35978
G1 E-.3 F1800
;WIPE_START
G1 F3600
G1 X137.427 Y118.241 E-.5
;WIPE_END
G1 X139.21 Y110.82 Z.6 F7200
G1 X143.018 Y94.979 Z.6
G1 Z.2
G1 E.8 F1800
;TYPE:Inner wall
;WIDTH:0.449999
G1 F1200
G1 X143.018 Y99.271 E.1395
G1 X138.482 Y99.271 E.14741
G1 X138.482 Y94.979 E.1395
G1 X142.978 Y94.979 E.14611
G1 X143.447 Y94.55 F7200
;TYPE:Outer wall
G1 F1200
G1 X143.447 Y99.7 E.16735
G1 X138.053 Y99.7 E.17526
G1 X138.053 Y94.55 E.16735
G1 X143.407 Y94.55 E.17396
G1 X142.896 Y95.285 F7200
;TYPE:Bottom surface
;WIDTH:0.45186
G1 F3600
G1 X138.787 Y95.285 E.13413
G1 X138.787 Y95.694 E.01335
G1 X142.713 Y95.694 E.12815
G1 X142.713 Y96.103 E.01335
G1 X138.787 Y96.103 E.12815
G1 X138.787 Y96.512 E.01335
G1 X142.713 Y96.512 E.12815
G1 X142.713 Y96.921 E.01335
G1 X138.787 Y96.921 E.12815
G1 X138.787 Y97.33 E.01335
G1 X142.713 Y97.33 E.12815
G1 X142.713 Y97.738 E.01335
G1 X138.787 Y97.738 E.12815
G1 X138.787 Y98.147 E.01335
G1 X142.713 Y98.147 E.12815
G1 X142.713 Y98.556 E.01335
G1 X138.787 Y98.556 E.12815
G1 X138.787 Y98.965 E.01335
G1 X142.896 Y98.965 E.13413
G1 E-.3 F1800
;WIPE_START
G1 F3600
G1 X141.896 Y98.965 E-.5
;WIPE_END
G1 X136.313 Y93.761 Z.6 F7200
G1 X135.023 Y92.558 Z.6
G1 Z.2
G1 E.8 F1800
;TYPE:Inner wall
;WIDTH:0.449999
G1 F1200
G1 X134.766 Y92.644 E.00882
G1 X134.568 Y92.897 E.01044
G1 X134.521 Y93.132 E.00778
G1 X134.521 Y101.118 E.2595
G1 X134.568 Y101.353 E.00778
G1 X134.766 Y101.606 E.01044
G1 X135.132 Y101.729 E.01255
G1 X138.549 Y101.729 E.11102
G1 X138.549 Y102.799 E.03478
G1 X127.201 Y102.799 E.36873
G1 X127.201 Y91.451 E.36873
G1 X138.549 Y91.451 E.36873
G1 X138.549 Y92.521 E.03478
G1 X135.132 Y92.521 E.11102
G1 X135.061 Y92.545 E.00243
G1 X135.132 Y92.95 F7200
;TYPE:Outer wall
G1 F1200
G1 X135.023 Y92.986 E.00374
G1 X134.95 Y93.132 E.00529
G1 X134.95 Y101.118 E.2595
G1 X135.023 Y101.264 E.00529
G1 X135.132 Y101.3 E.00374
G1 X138.977 Y101.3 E.12495
G1 X138.977 Y103.038 E.05649
G1 X138.931 Y103.181 E.00487
G1 X138.829 Y103.227 E.00363
G1 X126.962 Y103.227 E.38564
G1 X126.819 Y103.181 E.00487
G1 X126.773 Y103.079 E.00363
G1 X126.773 Y91.133 E.38819
G1 X126.92 Y91.023 E.00597
G1 X138.788 Y91.023 E.38567
G1 X138.931 Y91.069 E.00487
G1 X138.977 Y91.171 E.00363
G1 X138.977 Y92.95 E.05782
G1 X135.172 Y92.95 E.12365
G1 E-.08 F1800
;WIPE_START
G1 F1200
G1 X135.023 Y92.986 E-.11061
G1 X134.95 Y93.132 E-.11726
G1 X134.95 Y93.816 E-.49213
;WIPE_END
G1 X127.581 Y91.829 Z.6 F7200
G1 X127.323 Y91.759 Z.6
G1 Z.2
G1 E.8 F1800
;TYPE:Bottom surface
;WIDTH:0.455659
G1 F3600
G1 X138.243 Y91.759 E.35978
G1 X138.243 Y92.172 E.0136
G1 X127.507 Y92.172 E.35374
G1 X127.507 Y92.585 E.0136
G1 X134.434 Y92.585 E.22822
G1 X134.285 Y92.775 E.00795
G1 X134.241 Y92.998 E.00747
G1 X127.507 Y92.998 E.22188
G1 X127.507 Y93.41 E.0136
G1 X134.216 Y93.41 E.22106
G1 X134.216 Y93.823 E.0136
G1 X127.507 Y93.823 E.22106
G1 X127.507 Y94.236 E.0136
G1 X134.216 Y94.236 E.22106
G1 X134.216 Y94.649 E.0136
G1 X127.507 Y94.649 E.22106
G1 X127.507 Y95.061 E.0136
G1 X134.216 Y95.061 E.22106
G1 X134.216 Y95.474 E.0136
G1 X127.507 Y95.474 E.22106
G1 X127.507 Y95.887 E.0136
G1 X134.216 Y95.887 E.22106
G1 X134.216 Y96.3 E.0136
G1 X127.507 Y96.3 E.22106
G1 X127.507 Y96.712 E.0136
G1 X134.216 Y96.712 E.22106
G1 X134.216 Y97.125 E.0136
G1 X127.507 Y97.125 E.22106
G1 X127.507 Y97.538 E.0136
G1 X134.216 Y97.538 E.22106
G1 X134.216 Y97.951 E.0136
G1 X127.507 Y97.951 E.22106
G1 X127.507 Y98.363 E.0136
G1 X134.216 Y98.363 E.22106
G1 X134.216 Y98.776 E.0136
G1 X127.507 Y98.776 E.22106
G1 X127.507 Y99.189 E.0136
G1 X134.216 Y99.189 E.22106
G1 X134.216 Y99.601 E.0136
G1 X127.507 Y99.601 E.22106
G1 X127.507 Y100.014 E.0136
G1 X134.216 Y100.014 E.22106
G1 X134.216 Y100.427 E.0136
G1 X127.507 Y100.427 E.22106
G1 X127.507 Y100.84 E.0136
G1 X134.216 Y100.84 E.22106
G1 X134.216 Y101.128 E.0095
G1 X134.241 Y101.252 E.00418
G1 X127.507 Y101.252 E.22188
G1 X127.507 Y101.665 E.0136
G1 X134.434 Y101.665 E.22823
G1 X134.582 Y101.856 E.00797
G1 X135.116 Y102.034 E.01852
G1 X138.243 Y102.034 E.10305
G1 X138.243 Y102.078 E.00145
G1 X127.507 Y102.078 E.35374
