; HEADER_BLOCK_START
; generated by OrcaSlicer 2.3.1 on 2025-12-25 at 12:42:04
; total layer number: 30
; filament_density: 1.31
; filament_diameter: 1.75
; max_z_height: 6.00
; HEADER_BLOCK_END

; THUMBNAIL_BLOCK_START

;
; THUMBNAIL_BLOCK_END

; THUMBNAIL_BLOCK_START

;
; THUMBNAIL_BLOCK_END

; external perimeters extrusion width = 0.40mm
; perimeters extrusion width = 0.44mm
; infill extrusion width = 0.44mm
; solid infill extrusion width = 0.48mm
; top infill extrusion width = 0.38mm
; first layer extrusion width = 0.48mm

; external perimeters extrusion width = 0.40mm
; perimeters extrusion width = 0.44mm
; infill extrusion width = 0.44mm
; solid infill extrusion width = 0.48mm
; top infill extrusion width = 0.38mm
; first layer extrusion width = 0.48mm

; external perimeters extrusion width = 0.40mm
; perimeters extrusion width = 0.44mm
; infill extrusion width = 0.44mm
; solid infill extrusion width = 0.48mm
; top infill extrusion width = 0.38mm
; first layer extrusion width = 0.48mm

; EXECUTABLE_BLOCK_START
M73 P0 R14
;TYPE:Custom
M115 U3.2.3 ; tell printer latest fw version
G90 ; use absolute coordinates
M83 ; extruder relative mode
M204 S10000 T1500 ; MK2 firmware only supports the old M204 format
M104 S220 ; set extruder temp
M140 S55 ; set bed temp
M190 S55 ; wait for bed temp
M109 S220 ; wait for extruder temp
G28 W ; home all without mesh bed level
G80 ; mesh bed leveling
G1 Z0.2 F720
G1 Y-2 F1000 ; go outside print area
G92 E0
G1 X60 E9 F1000 ; intro line
G1 X100 E12.5 F1000 ; intro line
G92 E0
G90
G21
M83 ; use relative distances for extrusion
; Filament gcode
M106 S0
;LAYER_CHANGE
;Z:0.2
;HEIGHT:0.2
;BEFORE_LAYER_CHANGE
G92 E0.0
;0.2

G1 E-.4 F2100
;AFTER_LAYER_CHANGE
;0.2
;_SET_FAN_SPEED_CHANGING_LAYER
SET_VELOCITY_LIMIT ACCEL=800 ACCEL_TO_DECEL=400
; printing object Button - No Magnets id:0 copy 0
G1 Z.6 F10800
G1 X131.214 Y93.391
G1 Z.6
G1 Z.2
G1 E.4 F2100
;TYPE:Inner wall
;WIDTH:0.479999
G1 F1200
G1 X130.903 Y93.902 E.02129
G1 X130.388 Y94.572 E.0301
G1 X130.04 Y94.95 E.01828
G1 X129.596 Y95.35 E.02131
G1 X129.017 Y95.788 E.02583
G1 X128.393 Y96.168 E.02605
G1 X127.731 Y96.482 E.02609
G1 X127.046 Y96.726 E.02591
G1 X126.457 Y96.881 E.02166
G1 X125.813 Y96.978 E.02322
G1 X125.109 Y97.025 E.02513
G1 X124.39 Y96.999 E.02563
G1 X123.666 Y96.899 E.02602
G1 X122.956 Y96.726 E.02603
G1 X122.267 Y96.481 E.02604
G1 X121.606 Y96.167 E.02605
G1 X120.981 Y95.787 E.02606
G1 X120.309 Y95.27 E.03021
G1 X119.937 Y94.927 E.01802
G1 X119.513 Y94.453 E.02264
G1 X119.09 Y93.893 E.02499
G1 X118.716 Y93.276 E.02569
G1 X118.402 Y92.616 E.02604
G1 X118.157 Y91.927 E.02605
G1 X117.983 Y91.212 E.02621
G1 X117.891 Y90.615 E.02153
G1 X117.86 Y90.011 E.02152
G1 X117.889 Y89.236 E.02762
G1 X117.986 Y88.538 E.02512
G1 X118.19 Y87.731 E.02965
G1 X118.359 Y87.246 E.01829
G1 X118.607 Y86.701 E.02131
G1 X118.963 Y86.07 E.02582
G1 X119.385 Y85.472 E.02604
G1 X119.865 Y84.921 E.02604
G1 X120.4 Y84.422 E.02604
G1 X120.982 Y83.98 E.02604
G1 X121.607 Y83.6 E.02604
G1 X122.267 Y83.286 E.02604
G1 X122.956 Y83.041 E.02604
G1 X123.667 Y82.868 E.02605
G1 X124.269 Y82.774 E.02171
G1 X124.878 Y82.744 E.02172
G1 X125.609 Y82.769 E.02604
G1 X126.334 Y82.868 E.02605
G1 X127.044 Y83.041 E.02605
G1 X127.733 Y83.286 E.02605
G1 X128.394 Y83.601 E.02606
G1 X129.02 Y83.981 E.02608
G1 X129.599 Y84.421 E.0259
G1 X130.051 Y84.828 E.02166
G1 X130.486 Y85.313 E.02322
G1 X130.911 Y85.876 E.02513
G1 X131.338 Y86.591 E.02965
G1 X131.562 Y87.053 E.01828
M73 P1 R14
G1 X131.771 Y87.614 E.02132
G1 X131.966 Y88.312 E.02582
G1 X132.09 Y89.033 E.02604
G1 X132.14 Y89.762 E.02604
G1 X132.115 Y90.493 E.02604
G1 X132.016 Y91.217 E.02605
G1 X131.842 Y91.928 E.02604
G1 X131.597 Y92.617 E.02605
G1 X131.283 Y93.277 E.02604
G1 X131.235 Y93.357 E.00333
G1 X131.611 Y93.636 F10800
;TYPE:Outer wall
G1 F1200
G1 X131.502 Y93.838 E.00817
G1 X131.063 Y94.482 E.02775
G1 X130.56 Y95.079 E.02781
G1 X130.176 Y95.462 E.01932
G1 X129.598 Y95.947 E.02687
G1 X128.954 Y96.386 E.02776
G1 X128.268 Y96.756 E.02775
G1 X127.548 Y97.054 E.02776
G1 X126.8 Y97.278 E.02783
G1 X126.295 Y97.383 E.01835
G1 X125.493 Y97.477 E.02878
G1 X124.74 Y97.489 E.0268
G1 X123.964 Y97.423 E.02776
G1 X123.198 Y97.277 E.02775
G1 X122.452 Y97.054 E.02774
G1 X121.732 Y96.756 E.02776
G1 X121.046 Y96.386 E.02775
G1 X120.402 Y95.947 E.02775
G1 X119.805 Y95.444 E.02781
G1 X119.422 Y95.06 E.01931
G1 X118.921 Y94.46 E.02783
G1 X118.498 Y93.838 E.0268
G1 X118.128 Y93.152 E.02776
G1 X117.83 Y92.432 E.02775
G1 X117.607 Y91.686 E.02775
G1 X117.461 Y90.918 E.02783
G1 X117.408 Y90.405 E.01836
G1 X117.395 Y89.624 E.02782
G1 X117.465 Y88.821 E.02871
G1 X117.607 Y88.083 E.02679
G1 X117.83 Y87.334 E.02783
G1 X118.03 Y86.83 E.01932
G1 X118.367 Y86.154 E.02687
G1 X118.783 Y85.496 E.02776
G1 X119.264 Y84.883 E.02775
G1 X119.806 Y84.322 E.02775
G1 X120.402 Y83.82 E.02775
G1 X121.046 Y83.382 E.02775
G1 X121.732 Y83.012 E.02775
G1 X122.452 Y82.714 E.02775
G1 X123.198 Y82.491 E.02775
G1 X123.966 Y82.345 E.02783
G1 X124.479 Y82.292 E.01836
G1 X125.26 Y82.279 E.02783
G1 X126.036 Y82.345 E.02775
G1 X126.802 Y82.491 E.02775
G1 X127.548 Y82.714 E.02775
G1 X128.268 Y83.012 E.02775
G1 X128.954 Y83.382 E.02775
G1 X129.598 Y83.82 E.02775
G1 X130.196 Y84.324 E.02783
G1 X130.56 Y84.688 E.01835
G1 X131.079 Y85.307 E.02878
G1 X131.502 Y85.93 E.0268
G1 X131.983 Y86.872 E.03766
G1 X132.206 Y87.468 E.02269
G1 X132.413 Y88.211 E.02747
G1 X132.545 Y88.978 E.02771
G1 X132.605 Y90.144 E.04157
G1 X132.539 Y90.92 E.02775
G1 X132.393 Y91.685 E.02775
G1 X132.17 Y92.432 E.02775
G1 X131.872 Y93.152 E.02776
G1 X131.63 Y93.601 E.01816
G1 E-.28 F2100
;WIPE_START
G1 F1200
G1 X131.502 Y93.838 E-.03233
G1 X131.091 Y94.442 E-.08767
;WIPE_END
G1 Z.6 F10800
G1 X131.001 Y86.243 Z.6
G1 Z.2
G1 E.4 F2100
;TYPE:Bottom surface
;WIDTH:0.482766
G1 F3600
G1 X129.65 Y84.893 E.06844
G1 X129.122 Y84.448 E.02475
G1 X128.545 Y84.055 E.02504
G1 X127.808 Y83.672 E.02976
G1 X131.217 Y87.081 E.17278
G1 X131.353 Y87.396 E.01231
G1 X131.573 Y88.059 E.02504
G1 X126.835 Y83.321 E.24017
G1 X126.615 Y83.256 E.00821
G1 X126.037 Y83.146 E.02109
G1 X131.738 Y88.846 E.28894
G1 X131.808 Y89.539 E.02496
G1 X125.345 Y83.075 E.32764
G1 X124.722 Y83.074 E.02232
G1 X131.814 Y90.166 E.35949
G1 X131.765 Y90.74 E.02061
G1 X124.143 Y83.117 E.38637
G1 X123.615 Y83.212 E.0192
G1 X131.672 Y91.269 E.40839
G1 X131.628 Y91.499 E.00841
G1 X131.548 Y91.767 E.01002
G1 X123.117 Y83.336 E.42737
G1 X122.644 Y83.485 E.01777
G1 X131.399 Y92.24 E.44375
G1 X131.217 Y92.679 E.01706
G1 X122.204 Y83.667 E.45682
G1 X121.79 Y83.874 E.01662
G1 X131.01 Y93.094 E.46735
G1 X130.786 Y93.492 E.01637
G1 X121.391 Y84.098 E.47617
G1 X121.021 Y84.35 E.01605
G1 X130.534 Y93.863 E.48217
G1 X130.262 Y94.213 E.01589
G1 X120.671 Y84.622 E.48614
G1 X120.343 Y84.898 E.01535
G1 X120.334 Y84.907 E.00047
G1 X129.977 Y94.55 E.48878
G1 X129.665 Y94.86 E.01576
G1 X120.029 Y85.224 E.48847
G1 X119.737 Y85.554 E.0158
G1 X129.329 Y95.146 E.4862
G1 X128.979 Y95.418 E.01589
G1 X119.463 Y85.902 E.48231
G1 X119.218 Y86.279 E.01611
G1 X128.609 Y95.67 E.47598
G1 X128.21 Y95.893 E.01637
G1 X118.988 Y86.671 E.46747
G1 X118.781 Y87.086 E.01663
G1 X127.796 Y96.101 E.45692
G1 X127.356 Y96.283 E.01706
M73 P2 R14
G1 X118.6 Y87.527 E.44383
G1 X118.452 Y88.001 E.0178
G1 X126.883 Y96.432 E.42737
G1 X126.389 Y96.56 E.0183
G1 X118.328 Y88.499 E.40861
G1 X118.236 Y89.03 E.0193
G1 X125.85 Y96.643 E.38592
G1 X125.279 Y96.694 E.02055
G1 X118.186 Y89.601 E.35952
G1 X118.192 Y90.229 E.02249
G1 X124.655 Y96.693 E.32764
G1 X123.963 Y96.622 E.02495
G1 X118.262 Y90.921 E.28897
G1 X118.372 Y91.499 E.02109
G1 X118.437 Y91.719 E.0082
G1 X123.165 Y96.447 E.23966
G1 X122.716 Y96.312 E.01682
G1 X122.192 Y96.095 E.02031
G1 X118.788 Y92.692 E.17253
G1 X119.171 Y93.429 E.02978
G1 X119.549 Y93.986 E.02413
G1 X120.002 Y94.528 E.02531
G1 X121.359 Y95.885 E.06878
; stop printing object Button - No Magnets id:0 copy 0
; printing object Bottom - No Magnets V2 id:0 copy 0
G1 E-.28 F2100
;WIPE_START
G1 F3600
G1 X120.652 Y95.177 E-.12
;WIPE_END
G1 Z.6 F10800
G1 X108.388 Y100.284 Z.6
G1 Z.2
G1 E.4 F2100
;TYPE:Inner wall
;WIDTH:0.479999
G1 F1200
G1 X108.498 Y100.203 E.00487
G1 X109.363 Y99.711 E.03546
G1 X110.003 Y99.429 E.02489
G1 X110.671 Y99.201 E.02514
G1 X111.295 Y99.044 E.02294
G1 X112.343 Y98.892 E.0377
G1 X112.986 Y98.865 E.02294
G1 X113.691 Y98.894 E.02512
G1 X114.364 Y98.979 E.02416
G1 X115.028 Y99.119 E.02417
G1 X115.646 Y99.302 E.02295
G1 X116.625 Y99.705 E.0377
G1 X117.209 Y100.02 E.02365
G1 X118.083 Y100.617 E.03768
G1 X118.569 Y101.029 E.0227
G1 X119.303 Y101.792 E.03769
G1 X119.711 Y102.316 E.02367
G1 X120.257 Y103.19 E.03671
G1 X120.552 Y103.794 E.02393
G1 X120.799 Y104.425 E.02414
G1 X120.999 Y105.096 E.02492
G1 X121.114 Y105.702 E.02198
G1 X121.217 Y106.464 E.02739
G1 X121.244 Y107.093 E.0224
G1 X121.251 Y117.1 E.35642
G1 X121.22 Y117.821 E.02572
G1 X121.14 Y118.461 E.02296
G1 X120.909 Y119.465 E.03669
G1 X120.684 Y120.12 E.02468
G1 X120.263 Y121.03 E.0357
G1 X119.906 Y121.631 E.02489
G1 X119.495 Y122.204 E.02513
G1 X119.074 Y122.7 E.02318
G1 X118.574 Y123.199 E.02514
G1 X118.078 Y123.619 E.02317
G1 X117.503 Y124.03 E.02515
G1 X116.925 Y124.373 E.02394
G1 X116.016 Y124.795 E.03572
G1 X115.355 Y125.024 E.02489
G1 X114.671 Y125.196 E.02513
G1 X114.036 Y125.301 E.02294
G1 X112.98 Y125.367 E.03768
G1 X112.309 Y125.338 E.02392
G1 X111.669 Y125.258 E.02295
G1 X110.638 Y125.021 E.03769
G1 X110.009 Y124.806 E.02367
G1 X109.074 Y124.373 E.03671
G1 X108.502 Y124.033 E.02368
G1 X107.655 Y123.401 E.03766
G1 X107.161 Y122.946 E.02392
G1 X106.724 Y122.472 E.02296
G1 X106.09 Y121.624 E.03769
G1 X105.75 Y121.054 E.02367
G1 X105.318 Y120.125 E.03648
G1 X105.004 Y119.151 E.03644
G1 X104.861 Y118.467 E.02489
G1 X104.777 Y117.794 E.02415
G1 X104.749 Y117.1 E.02473
G1 X104.749 Y107.133 E.35501
G1 X104.78 Y106.411 E.02573
G1 X104.86 Y105.772 E.02294
G1 X105.097 Y104.747 E.03747
G1 X105.44 Y103.813 E.03545
G1 X105.744 Y103.189 E.0247
G1 X106.274 Y102.339 E.0357
G1 X106.702 Y101.786 E.0249
G1 X107.181 Y101.268 E.02513
G1 X107.655 Y100.831 E.02294
G1 X108.356 Y100.308 E.03117
G1 X108.114 Y99.917 F10800
;TYPE:Outer wall
G1 F1200
G1 X108.247 Y99.818 E.00588
G1 X109.157 Y99.3 E.0373
G1 X109.836 Y99.001 E.02643
G1 X110.541 Y98.761 E.0265
G1 X111.206 Y98.593 E.02445
G1 X112.301 Y98.435 E.03938
G1 X112.986 Y98.407 E.02445
G1 X113.729 Y98.437 E.02648
G1 X114.44 Y98.526 E.02552
G1 X115.141 Y98.674 E.02551
G1 X115.799 Y98.869 E.02445
G1 X116.822 Y99.29 E.03939
G1 X117.448 Y99.628 E.02536
G1 X118.361 Y100.252 E.03938
G1 X118.883 Y100.694 E.02437
G1 X119.65 Y101.491 E.03938
G1 X120.087 Y102.053 E.02537
G1 X120.658 Y102.968 E.03839
G1 X120.972 Y103.609 E.02544
G1 X121.233 Y104.276 E.0255
G1 X121.445 Y104.987 E.02645
G1 X121.564 Y105.617 E.02283
G1 X121.674 Y106.426 E.02906
G1 X121.703 Y107.092 E.02377
G1 X121.71 Y117.11 E.35678
G1 X121.678 Y117.86 E.02674
G1 X121.592 Y118.541 E.02446
G1 X121.351 Y119.591 E.03837
G1 X121.11 Y120.291 E.02638
G1 X120.669 Y121.244 E.03738
G1 X120.29 Y121.882 E.02643
G1 X119.857 Y122.486 E.0265
G1 X119.411 Y123.012 E.02452
G1 X118.885 Y123.537 E.02649
G1 X118.36 Y123.981 E.02451
G1 X117.754 Y124.414 E.02651
G1 X117.14 Y124.779 E.02545
G1 X116.188 Y125.221 E.03738
G1 X115.486 Y125.464 E.02643
G1 X114.765 Y125.645 E.0265
G1 X114.087 Y125.758 E.02445
G1 X112.984 Y125.826 E.03937
G1 X112.271 Y125.795 E.02544
G1 X111.589 Y125.711 E.02445
G1 X110.512 Y125.463 E.03938
G1 X109.838 Y125.232 E.02537
G1 X108.86 Y124.779 E.03839
G1 X108.248 Y124.415 E.02537
G1 X107.361 Y123.754 E.03937
G1 X106.836 Y123.27 E.02544
M73 P3 R14
G1 X106.371 Y122.765 E.02445
G1 X105.709 Y121.88 E.03938
G1 X105.344 Y121.268 E.02537
G1 X104.89 Y120.292 E.03833
G1 X104.561 Y119.269 E.0383
G1 X104.408 Y118.542 E.02643
G1 X104.32 Y117.832 E.0255
G1 X104.29 Y117.11 E.02574
G1 X104.29 Y107.123 E.3557
G1 X104.322 Y106.373 E.02674
G1 X104.408 Y105.692 E.02445
G1 X104.657 Y104.616 E.03932
G1 X105.017 Y103.633 E.0373
G1 X105.342 Y102.967 E.02639
G1 X105.897 Y102.076 E.03737
G1 X106.352 Y101.49 E.02644
G1 X106.856 Y100.943 E.0265
G1 X107.362 Y100.478 E.02445
G1 X108.082 Y99.941 E.03201
G1 E-.28 F2100
;WIPE_START
G1 F1200
G1 X108.247 Y99.818 E-.02462
G1 X108.938 Y99.425 E-.09538
;WIPE_END
G1 Z.6 F10800
G1 X119.832 Y102.758 Z.6
G1 Z.2
G1 E.4 F2100
;TYPE:Bottom surface
;WIDTH:0.483399
G1 F3600
G1 X118.33 Y101.256 E.07625
G1 X117.884 Y100.878 E.02098
G1 X117.038 Y100.301 E.03676
G1 X116.43 Y99.979 E.02471
G1 X120.132 Y103.681 E.18793
G1 X120.252 Y103.926 E.00978
G1 X120.489 Y104.532 E.02335
G1 X120.544 Y104.716 E.00691
G1 X115.398 Y99.57 E.2612
G1 X114.948 Y99.437 E.01687
G1 X114.56 Y99.355 E.01422
G1 X120.75 Y105.545 E.31422
G1 X120.86 Y106.125 E.02117
G1 X120.874 Y106.292 E.00601
G1 X113.824 Y99.241 E.35788
G1 X113.16 Y99.201 E.02387
G1 X120.916 Y106.957 E.39372
G1 X120.917 Y107.58 E.02238
G1 X112.548 Y99.212 E.4248
G1 X112.373 Y99.219 E.00627
G1 X111.988 Y99.275 E.01397
G1 X120.917 Y108.204 E.45325
G1 X120.918 Y108.827 E.02238
G1 X111.444 Y99.353 E.4809
G1 X110.939 Y99.472 E.0186
G1 X120.918 Y109.45 E.50653
G1 X120.918 Y110.074 E.02238
G1 X110.463 Y99.618 E.53073
G1 X110.007 Y99.785 E.01743
G1 X120.919 Y110.697 E.5539
G1 X120.919 Y111.321 E.02238
G1 X109.575 Y99.976 E.57588
G1 X109.172 Y100.196 E.01647
G1 X120.92 Y111.944 E.59632
G1 X120.92 Y112.567 E.02238
G1 X108.775 Y100.422 E.6165
G1 X108.408 Y100.678 E.01606
G1 X120.921 Y113.191 E.63514
G1 X120.921 Y113.814 E.02238
G1 X108.051 Y100.944 E.65328
G1 X107.71 Y101.226 E.01588
G1 X120.922 Y114.438 E.67064
G1 X120.922 Y115.061 E.02238
G1 X107.388 Y101.527 E.68702
G1 X107.089 Y101.85 E.01582
G1 X120.923 Y115.684 E.70223
G1 X120.923 Y116.308 E.02238
G1 X106.804 Y102.189 E.71668
G1 X106.534 Y102.541 E.01595
G1 X120.924 Y116.931 E.73043
G1 X120.905 Y117.535 E.02169
G1 X106.295 Y102.925 E.74161
G1 X106.056 Y103.309 E.01623
M73 P4 R14
G1 X120.854 Y118.108 E.75119
G1 X120.817 Y118.404 E.01071
G1 X120.763 Y118.639 E.00868
G1 X105.848 Y103.724 E.7571
G1 X105.742 Y103.941 E.00867
G1 X105.661 Y104.161 E.0084
G1 X120.646 Y119.146 E.76064
G1 X120.593 Y119.374 E.00843
G1 X120.506 Y119.629 E.00964
G1 X105.494 Y104.617 E.76202
G1 X105.412 Y104.841 E.00858
G1 X105.353 Y105.098 E.00946
G1 X120.339 Y120.085 E.76074
G1 X120.142 Y120.51 E.01684
G1 X105.235 Y105.603 E.75669
G1 X105.183 Y105.83 E.00833
G1 X105.145 Y106.136 E.01107
G1 X119.94 Y120.931 E.75104
G1 X119.708 Y121.322 E.01632
G1 X105.095 Y106.709 E.74178
G1 X105.076 Y107.14 E.01548
G1 X105.076 Y107.313 E.00623
G1 X119.457 Y121.694 E.72999
G1 X119.236 Y122.002 E.0136
G1 X119.193 Y122.053 E.00239
G1 X105.076 Y107.936 E.71658
G1 X105.076 Y108.559 E.02236
G1 X118.907 Y122.39 E.70207
G1 X118.602 Y122.708 E.01581
G1 X105.076 Y109.182 E.68659
G1 X105.076 Y109.805 E.02236
G1 X118.285 Y123.014 E.6705
G1 X117.948 Y123.3 E.01586
G1 X105.076 Y110.428 E.65338
G1 X105.076 Y111.051 E.02236
G1 X117.59 Y123.565 E.63521
G1 X117.219 Y123.817 E.01609
G1 X105.076 Y111.674 E.6164
G1 X105.076 Y112.297 E.02236
G1 X116.829 Y124.049 E.59656
G1 X116.408 Y124.252 E.01675
G1 X105.076 Y112.92 E.57522
G1 X105.076 Y113.543 E.02236
G1 X115.983 Y124.449 E.55363
G1 X115.528 Y124.617 E.01741
G1 X105.076 Y114.166 E.53053
G1 X105.076 Y114.788 E.02236
G1 X115.05 Y124.762 E.50628
G1 X114.549 Y124.884 E.01852
G1 X105.076 Y115.411 E.48082
G1 X105.076 Y116.034 E.02236
G1 X114.015 Y124.973 E.45372
G1 X113.429 Y125.01 E.02105
M73 P5 R14
G1 X105.076 Y116.657 E.42401
G1 X105.084 Y117.288 E.02265
G1 X112.828 Y125.032 E.39308
G1 X112.163 Y124.989 E.02393
G1 X105.127 Y117.954 E.35713
G1 X105.184 Y118.413 E.01659
G1 X105.243 Y118.693 E.01027
G1 X111.414 Y124.863 E.31322
G1 X110.728 Y124.706 E.02525
G1 X110.583 Y124.656 E.00549
G1 X105.477 Y119.55 E.25919
G1 X105.624 Y120.005 E.01715
G1 X105.897 Y120.592 E.02325
G1 X109.524 Y124.22 E.18414
G1 X109.227 Y124.082 E.01176
G1 X108.685 Y123.76 E.02264
G1 X107.864 Y123.148 E.03673
G1 X107.42 Y122.738 E.0217
G1 X106.149 Y121.468 E.06449
; stop printing object Bottom - No Magnets V2 id:0 copy 0
