; HEADER_BLOCK_START
; generated by OrcaSlicer 2.3.1 on 2025-12-26 at 18:26:36
; total layer number: 109
; filament_density: 1.31
; filament_diameter: 1.75
; max_z_height: 21.80
; HEADER_BLOCK_END

; THUMBNAIL_BLOCK_START

;
; THUMBNAIL_BLOCK_END

; THUMBNAIL_BLOCK_START

;
; THUMBNAIL_BLOCK_END

; external perimeters extrusion width = 0.40mm
; perimeters extrusion width = 0.44mm
; infill extrusion width = 0.44mm
; solid infill extrusion width = 0.48mm
; top infill extrusion width = 0.38mm
; first layer extrusion width = 0.48mm

; EXECUTABLE_BLOCK_START
M73 P0 R29
;TYPE:Custom
M115 U3.2.3 ; tell printer latest fw version
G90 ; use absolute coordinates
M83 ; extruder relative mode
M204 S10000 T1500 ; MK2 firmware only supports the old M204 format
M104 S220 ; set extruder temp
M140 S55 ; set bed temp
M190 S55 ; wait for bed temp
M109 S220 ; wait for extruder temp
G28 W ; home all without mesh bed level
G80 ; mesh bed leveling
G1 Z0.2 F720
G1 Y-2 F1000 ; go outside print area
G92 E0
G1 X60 E9 F1000 ; intro line
G1 X100 E12.5 F1000 ; intro line
G92 E0
G90
G21
M83 ; use relative distances for extrusion
; Filament gcode
SET_PRESSURE_ADVANCE ADVANCE=0.0775; Override pressure advance value
M106 S0
;LAYER_CHANGE
;Z:0.2
;HEIGHT:0.2
;BEFORE_LAYER_CHANGE
G92 E0.0
;0.2

G1 E-.4 F2100
;AFTER_LAYER_CHANGE
;0.2
;_SET_FAN_SPEED_CHANGING_LAYER
SET_VELOCITY_LIMIT ACCEL=800 ACCEL_TO_DECEL=400
; printing object flexi-baby-axolotl-head.stl id:3152 copy 0
G1 Z.6 F10800
G1 X111.952 Y114.805
G1 Z.6
G1 Z.2
G1 E.4 F2100
;TYPE:Inner wall
;WIDTH:0.599786
G1 F1200
G1 X111.977 Y114.726 E.00375
;WIDTH:0.550832
G1 X112.003 Y114.647 E.00342
;WIDTH:0.501878
G1 X112.028 Y114.568 E.00309
;WIDTH:0.452924
G1 X112.053 Y114.49 E.00276
;WIDTH:0.40397
G1 X112.078 Y114.411 E.00243
;WIDTH:0.38007
G1 X112.266 Y114.147 E.00889
;WIDTH:0.405124
G1 X112.454 Y113.884 E.00955
;WIDTH:0.444144
G1 X112.819 Y113.502 E.01727
;WIDTH:0.494008
G1 X113.148 Y113.114 E.01869
;WIDTH:0.533821
G1 X113.235 Y112.995 E.00593
;WIDTH:0.573634
G1 X113.323 Y112.875 E.00641
;WIDTH:0.613447
G1 X113.411 Y112.756 E.00689
;WIDTH:0.65326
G1 X113.499 Y112.637 E.00737
G1 X113.541 Y112.443 E.00984
;WIDTH:0.639693
G1 X113.627 Y112.366 E.00563
G1 X113.655 Y112.309 E.00307
;WIDTH:0.59977
G1 X113.682 Y112.252 E.00287
;WIDTH:0.559846
G1 X113.709 Y112.195 E.00266
;WIDTH:0.519923
G1 X113.737 Y112.138 E.00246
;WIDTH:0.479999
G1 X113.9 Y111.938 E.0092
G1 X114.617 Y111.161 E.03763
G1 X115.658 Y109.636 E.06577
G1 X116.223 Y108.713 E.03854
G1 X116.62 Y108.739 E.01418
G1 X116.893 Y108.791 E.00991
G1 X117.003 Y108.913 E.00585
G1 X117.429 Y109.264 E.01968
G1 X117.273 Y109.463 E.00901
G1 X116.469 Y110.741 E.05379
G1 X115.823 Y111.473 E.03475
G1 X115.415 Y111.888 E.02072
G1 X115.042 Y112.243 E.01837
G1 X114.708 Y112.472 E.0144
G1 X114.412 Y112.72 E.01376
;WIDTH:0.523315
G1 X114.304 Y112.783 E.00488
;WIDTH:0.56663
G1 X114.196 Y112.845 E.00533
;WIDTH:0.609945
G1 X114.088 Y112.907 E.00577
;WIDTH:0.65326
G1 X113.98 Y112.969 E.00621
G1 X113.853 Y113.083 E.00846
;WIDTH:0.610788
G1 X113.727 Y113.197 E.00787
;WIDTH:0.568315
G1 X113.601 Y113.311 E.00728
;WIDTH:0.525842
G1 X113.356 Y113.543 E.01326
;WIDTH:0.484993
G1 X113.111 Y113.774 E.01214
;WIDTH:0.444144
G1 X112.725 Y114.118 E.01689
;WIDTH:0.405124
G1 X112.528 Y114.356 E.00914
;WIDTH:0.38007
G1 X112.33 Y114.595 E.00851
;WIDTH:0.40397
G1 X112.255 Y114.637 E.00254
;WIDTH:0.452924
G1 X112.179 Y114.679 E.00289
;WIDTH:0.501878
G1 X112.103 Y114.721 E.00323
;WIDTH:0.550832
G1 X112.028 Y114.763 E.00358
;WIDTH:0.599786
G1 X112.005 Y114.776 E.0012
G1 X111.472 Y114.646 F10800
;WIDTH:0.479999
G1 F1200
G1 X111.494 Y114.609 E.00152
G1 X111.568 Y114.42 E.00724
G1 X111.646 Y114.351 E.00372
G1 X112.142 Y113.628 E.03123
G1 X112.393 Y113.361 E.01305
G1 X112.608 Y113.016 E.01448
G1 X112.805 Y112.832 E.00958
G1 X113 Y112.475 E.0145
G1 X113.041 Y112.235 E.00866
G1 X113.323 Y111.943 E.01446
G1 X114.341 Y110.799 E.05455
G1 X114.721 Y110.269 E.02323
G1 X115.435 Y109.188 E.04611
G1 X116.023 Y108.193 E.04118
G1 X116.152 Y108.248 E.00496
G1 X116.454 Y108.305 E.01096
G1 X116.703 Y108.288 E.00891
G1 X117.144 Y108.409 E.01628
G1 X117.265 Y108.558 E.00684
G1 X118.01 Y109.242 E.03602
G1 X117.548 Y109.83 E.02663
G1 X117.487 Y110.007 E.00667
G1 X117.241 Y110.309 E.01387
G1 X117.091 Y110.619 E.01226
G1 X116.585 Y111.302 E.03027
G1 X115.548 Y112.369 E.053
G1 X115.118 Y112.77 E.02094
G1 X115.06 Y112.773 E.00209
G1 X114.802 Y112.953 E.01119
G1 X114.359 Y113.338 E.02091
G1 X113.515 Y113.968 E.03752
G1 X113.091 Y114.329 E.01983
G1 X111.89 Y115.597 E.06219
G1 X111.566 Y116.006 E.01861
;WIDTH:0.51916
G1 X111.414 Y116.152 E.00815
;WIDTH:0.558321
G1 X111.262 Y116.297 E.00883
G1 X111.123 Y116.531 E.01145
;WIDTH:0.540969
G1 X110.984 Y116.747 E.0104
;WIDTH:0.492136
G1 X110.846 Y116.963 E.00938
;WIDTH:0.443302
G1 X110.733 Y117.216 E.00905
;WIDTH:0.408127
G1 X110.62 Y117.47 E.00826
;WIDTH:0.372952
G1 X110.256 Y118.037 E.01814
G1 X110.352 Y117.247 E.02142
;WIDTH:0.412221
G1 X110.453 Y116.95 E.00942
;WIDTH:0.451489
G1 X110.554 Y116.654 E.01043
;WIDTH:0.4871
G1 X110.636 Y116.461 E.0076
;WIDTH:0.522711
G1 X110.718 Y116.267 E.00821
;WIDTH:0.558321
G1 X110.801 Y116.074 E.00882
G1 X110.831 Y115.811 E.01111
;WIDTH:0.509835
G1 X111.065 Y115.326 E.0205
;WIDTH:0.479999
G1 X111.441 Y114.698 E.02609
G1 X111.079 Y114.428 F10800
G1 F1200
G1 X111.13 Y114.356 E.00312
G1 X111.154 Y114.149 E.00741
G1 X111.269 Y114.103 E.00441
G1 X111.456 Y113.87 E.01064
G1 X111.493 Y113.635 E.00848
G1 X111.607 Y113.59 E.00437
G1 X111.749 Y113.432 E.00755
G1 X111.814 Y113.206 E.0084
G1 X112.006 Y113.125 E.00743
G1 X112.174 Y112.92 E.00946
G1 X112.209 Y112.709 E.00763
G1 X112.336 Y112.675 E.00469
G1 X112.467 Y112.554 E.00636
G1 X112.585 Y112.34 E.0087
G1 X112.616 Y112.1 E.00861
G1 X112.851 Y111.771 E.01442
G1 X112.966 Y111.675 E.00533
G1 X113.293 Y111.291 E.01796
G1 X113.405 Y111.2 E.00514
G1 X113.854 Y110.697 E.02401
G1 X114.11 Y110.353 E.01527
G1 X114.173 Y110.201 E.00588
G1 X114.231 Y110.181 E.00219
G1 X114.349 Y110.04 E.00656
G1 X115.052 Y108.978 E.04533
G1 X115.868 Y107.564 E.05818
G1 X116.292 Y107.834 E.01791
G1 X116.553 Y107.867 E.00937
G1 X116.768 Y107.775 E.00832
G1 X117.236 Y107.983 E.01822
G1 X117.486 Y107.887 E.00955
G1 X117.499 Y108.155 E.00955
G1 X117.63 Y108.301 E.00699
G1 X118.137 Y108.689 E.02276
G1 X118.164 Y108.763 E.00279
G1 X118.32 Y108.933 E.00821
G1 X118.716 Y109.082 E.01509
G1 X118.298 Y109.574 E.02298
G1 X117.919 Y110.062 E.02203
G1 X117.887 Y110.209 E.00535
G1 X117.539 Y110.666 E.02046
G1 X117.528 Y110.831 E.00591
G1 X117.351 Y111.018 E.00914
G1 X117.235 Y111.227 E.00851
G1 X117.09 Y111.357 E.00696
G1 X116.929 Y111.578 E.00972
G1 X116.685 Y111.792 E.01159
G1 X116.501 Y112.043 E.01108
G1 X115.719 Y112.814 E.03911
G1 X115.342 Y113.159 E.01819
G1 X115.257 Y113.163 E.00305
G1 X115.102 Y113.271 E.00671
G1 X114.715 Y113.636 E.01893
G1 X114.295 Y113.951 E.01872
G1 X114.154 Y114.027 E.0057
G1 X113.742 Y114.353 E.01872
G1 X113.688 Y114.46 E.00428
G1 X113.573 Y114.495 E.00428
G1 X113.189 Y114.84 E.01837
G1 X113.131 Y114.97 E.00508
G1 X113.079 Y114.985 E.00194
G1 X112.773 Y115.363 E.0173
G1 X112.612 Y115.466 E.0068
G1 X112.057 Y116.06 E.02896
G1 X111.663 Y116.553 E.02246
G1 X111.282 Y117.051 E.02235
G1 X110.758 Y118.001 E.03866
;WIDTH:0.516495
G1 X110.645 Y118.132 E.00665
;WIDTH:0.552991
G1 X110.533 Y118.263 E.00716
;WIDTH:0.589487
G1 X110.421 Y118.393 E.00768
;WIDTH:0.60769
G1 X110.353 Y118.647 E.01207
;WIDTH:0.611835
G1 X110.215 Y118.846 E.01123
G1 X110.139 Y119.12 E.01317
;WIDTH:0.566058
G1 X109.936 Y119.513 E.01884
G1 X109.906 Y119.848 E.01436
G1 X109.569 Y119.612 E.01752
G1 X109.602 Y119.167 E.01902
;WIDTH:0.593336
G1 X109.623 Y118.885 E.01267
;WIDTH:0.620614
G1 X109.643 Y118.603 E.0133
G1 X109.761 Y118.508 E.00713
;WIDTH:0.611835
G1 X109.908 Y118.209 E.01544
;WIDTH:0.589487
G1 X109.888 Y118.084 E.00564
;WIDTH:0.552991
G1 X109.868 Y117.959 E.00526
;WIDTH:0.516495
G1 X109.848 Y117.834 E.00488
;WIDTH:0.479999
G1 X109.903 Y117.688 E.00558
G1 X109.959 Y117.408 E.01015
G1 X109.916 Y117.217 E.00697
G1 X110.001 Y117.093 E.00537
G1 X110.056 Y116.845 E.00904
G1 X110.027 Y116.69 E.00562
G1 X110.128 Y116.569 E.00562
G1 X110.201 Y116.327 E.00902
G1 X110.179 Y116.16 E.006
G1 X110.296 Y116.038 E.006
G1 X110.378 Y115.81 E.00863
G1 X110.363 Y115.631 E.00638
G1 X110.439 Y115.581 E.00325
G1 X110.57 Y115.346 E.0096
G1 X110.579 Y115.156 E.00676
G1 X110.667 Y115.112 E.00351
G1 X110.844 Y114.841 E.01151
G1 X110.856 Y114.649 E.00687
G1 X110.955 Y114.603 E.00386
G1 X111.044 Y114.476 E.00554
G1 X110.697 Y114.201 F10800
;TYPE:Outer wall
G1 F1200
G1 X110.71 Y114.052 E.00532
G1 X110.582 Y113.815 E.00958
G1 X110.886 Y113.782 E.0109
G1 X111.024 Y113.702 E.00567
G1 X111.051 Y113.52 E.00656
G1 X110.926 Y113.295 E.00914
G1 X111.148 Y113.28 E.00791
G1 X111.339 Y113.215 E.0072
G1 X111.39 Y113.037 E.00657
G1 X111.275 Y112.795 E.00955
G1 X111.582 Y112.813 E.01098
G1 X111.753 Y112.731 E.00674
G1 X111.778 Y112.546 E.00666
G1 X111.667 Y112.306 E.00942
G1 X111.917 Y112.331 E.00893
G1 X112.074 Y112.299 E.00571
G1 X112.155 Y112.175 E.00528
G1 X112.055 Y111.819 E.01315
G1 X112.236 Y111.794 E.00648
G1 X112.457 Y111.534 E.01216
G1 X112.489 Y111.344 E.00687
G1 X112.668 Y111.324 E.00644
G1 X112.897 Y111.058 E.01252
G1 X112.927 Y110.861 E.00707
G1 X113.113 Y110.844 E.00665
G1 X113.348 Y110.55 E.01343
G1 X113.385 Y110.412 E.00507
G1 X113.52 Y110.373 E.00503
G1 X113.727 Y110.102 E.01213
G1 X113.778 Y109.889 E.00779
G1 X113.923 Y109.842 E.00541
G1 X114.118 Y109.54 E.01279
G1 X114.13 Y109.375 E.00588
G1 X114.256 Y109.336 E.00471
G1 X114.444 Y109.053 E.0121
G1 X114.467 Y108.859 E.00696
G1 X114.603 Y108.815 E.00509
G1 X114.798 Y108.486 E.0136
G1 X114.801 Y108.33 E.00558
G1 X114.919 Y108.286 E.00447
G1 X115.102 Y107.99 E.01239
G1 X115.106 Y107.826 E.00584
G1 X115.225 Y107.778 E.00457
G1 X115.398 Y107.479 E.01232
G1 X115.404 Y107.326 E.00543
G1 X115.493 Y107.296 E.00332
G1 X115.671 Y106.999 E.01234
G1 X115.681 Y106.912 E.00311
G1 X115.808 Y106.955 E.00477
G1 X116.388 Y107.373 E.02547
G1 X116.54 Y107.407 E.00552
G1 X116.738 Y107.245 E.00914
G1 X117.316 Y107.531 E.02296
G1 X117.513 Y107.428 E.00792
;WIDTH:0.458535
G1 X118.742 Y105.223 E.08547
G1 X119.02 Y104.779 E.01774
;WIDTH:0.435084
G1 X119.373 Y104.977 E.01295
;WIDTH:0.458535
G1 X119.128 Y105.473 E.01875
G1 X117.912 Y107.651 E.08446
;WIDTH:0.479999
G1 X117.881 Y107.902 E.00903
G1 X118.47 Y108.359 E.02656
G1 X118.58 Y108.553 E.00794
G1 X118.833 Y108.638 E.00952
G1 X119.531 Y108.808 E.02556
;WIDTH:0.43631
G1 X119.628 Y108.931 E.00501
G1 X119.552 Y108.929 E.00242
;WIDTH:0.479999
G1 X119.291 Y109.093 E.01099
G1 X119.16 Y109.229 E.00672
G1 X119.157 Y109.348 E.00423
G1 X119.071 Y109.379 E.00325
G1 X118.984 Y109.472 E.00455
G1 X118.319 Y110.288 E.03748
G1 X118.307 Y110.421 E.00475
G1 X117.966 Y110.837 E.01917
G1 X117.979 Y111.022 E.00659
G1 X117.685 Y111.333 E.01527
G1 X117.631 Y111.474 E.00536
G1 X117.369 Y111.728 E.013
G1 X117.337 Y111.894 E.00602
G1 X117.239 Y111.923 E.00364
G1 X116.949 Y112.179 E.01376
G1 X116.921 Y112.342 E.00591
G1 X116.823 Y112.374 E.00365
G1 X116.567 Y112.592 E.01198
G1 X116.512 Y112.742 E.0057
G1 X116.347 Y112.841 E.00685
G1 X115.577 Y113.568 E.0377
G1 X115.463 Y113.572 E.00406
G1 X115.145 Y113.861 E.0153
G1 X114.994 Y114.048 E.00854
G1 X114.931 Y114.043 E.00228
G1 X114.649 Y114.251 E.01245
G1 X114.554 Y114.418 E.00687
G1 X114.38 Y114.428 E.0062
G1 X114.087 Y114.657 E.01324
G1 X114.019 Y114.854 E.00744
G1 X113.845 Y114.865 E.0062
G1 X113.552 Y115.121 E.01385
G1 X113.516 Y115.289 E.00615
G1 X113.363 Y115.345 E.0058
G1 X113.079 Y115.721 E.0168
G1 X112.951 Y115.775 E.00494
G1 X112.609 Y116.143 E.0179
G1 X112.578 Y116.252 E.00405
G1 X112.472 Y116.278 E.00389
G1 X112.187 Y116.723 E.0188
G1 X112.129 Y116.728 E.00208
G1 X111.82 Y117.161 E.01892
G1 X111.708 Y117.245 E.00497
G1 X111.431 Y117.711 E.01933
G1 X111.193 Y118.17 E.0184
G1 X111.171 Y118.277 E.00392
G1 X111.111 Y118.295 E.00222
G1 X110.875 Y118.641 E.01493
G1 X110.906 Y118.815 E.00631
G1 X110.875 Y118.824 E.00114
G1 X110.655 Y119.134 E.01355
G1 X110.651 Y119.309 E.00624
G1 X110.434 Y119.631 E.01382
G1 X110.4 Y119.777 E.00533
G1 X110.491 Y119.976 E.0078
G1 X110.342 Y120.119 E.00737
G1 X110.299 Y120.346 E.00819
G1 X110.227 Y120.521 E.00675
G1 X110.011 Y120.727 E.01066
G1 X109.873 Y120.613 E.00635
G1 X109.527 Y120.175 E.01992
G1 X109.371 Y120.073 E.00661
G1 X109.056 Y119.968 E.01185
G1 X109.057 Y119.409 E.01992
G1 X109.125 Y118.898 E.01834
G1 X109.063 Y118.81 E.00385
G1 X109.105 Y118.744 E.00276
G1 X109.128 Y118.311 E.01548
G1 X109.369 Y118.159 E.01013
G1 X109.417 Y117.999 E.00595
G1 X109.182 Y117.685 E.01396
G1 X109.379 Y117.604 E.00758
G1 X109.47 Y117.528 E.00423
G1 X109.495 Y117.375 E.00551
G1 X109.285 Y117.094 E.01251
G1 X109.567 Y116.934 E.01154
G1 X109.596 Y116.804 E.00473
G1 X109.408 Y116.529 E.01188
G1 X109.619 Y116.446 E.00808
G1 X109.733 Y116.333 E.00569
G1 X109.71 Y116.148 E.00665
G1 X109.565 Y115.969 E.0082
G1 X109.793 Y115.892 E.00858
G1 X109.917 Y115.77 E.0062
G1 X109.901 Y115.606 E.00587
G1 X109.76 Y115.417 E.00838
G1 X109.964 Y115.353 E.0076
G1 X110.109 Y115.26 E.00615
G1 X110.125 Y115.075 E.00659
G1 X110.012 Y114.87 E.00834
G1 X110.26 Y114.824 E.00899
G1 X110.402 Y114.712 E.00644
G1 X110.406 Y114.556 E.00556
G1 X110.281 Y114.345 E.00874
G1 X110.55 Y114.306 E.00967
G1 X110.648 Y114.236 E.0043
G1 E-.28 F2100
;WIPE_START
G1 F1200
G1 X110.71 Y114.052 E-.02326
G1 X110.582 Y113.815 E-.03229
G1 X110.886 Y113.782 E-.03674
G1 X111.024 Y113.702 E-.01909
G1 X111.035 Y113.631 E-.00863
;WIPE_END
G1 Z.6 F10800
G1 X111.695 Y115.132 Z.6
G1 Z.2
G1 E.4 F2100
;TYPE:Inner wall
;WIDTH:0.565236
G1 F1200
G1 X111.824 Y114.968 E.00885
;WIDTH:0.599786
G1 X111.952 Y114.805 E.00943
G1 E-.28 F2100
;WIPE_START
G1 F1200
G1 X111.824 Y114.968 E-.06
G1 X111.695 Y115.132 E-.06
;WIPE_END
G1 Z.6 F10800
G1 X116.532 Y108.869 Z.6
G1 Z.2
G1 E.4 F2100
;TYPE:Bottom surface
;WIDTH:0.502406
G1 F3600
G1 X116.978 Y109.315 E.02361
G1 X116.898 Y109.426 E.00511
G1 X116.792 Y109.647 E.00918
G1 X116.736 Y109.724 E.00354
G1 X116.277 Y109.264 E.02433
G1 X116.035 Y109.672 E.01775
G1 X116.477 Y110.114 E.02341
G1 X116.399 Y110.284 E.007
G1 X116.236 Y110.512 E.01047
G1 X115.771 Y110.058 E.02432
G1 X115.509 Y110.446 E.01752
G1 X115.926 Y110.863 E.02207
G1 X115.782 Y110.992 E.00725
G1 X115.616 Y111.202 E.01004
G1 X115.247 Y110.833 E.01954
G1 X114.977 Y111.213 E.01745
G1 X115.292 Y111.528 E.01668
G1 X115.203 Y111.637 E.00527
G1 X114.971 Y111.857 E.01197
G1 X114.677 Y111.563 E.01556
G1 X114.384 Y111.919 E.01728
G1 X114.616 Y112.151 E.01229
G1 X114.526 Y112.199 E.00379
G1 X114.248 Y112.433 E.01363
G1 X113.926 Y112.112 E.01702
G1 E-.28 F2100
;WIPE_START
G1 F3600
G1 X114.248 Y112.433 E-.05454
G1 X114.526 Y112.199 E-.04369
G1 X114.616 Y112.151 E-.01214
G1 X114.559 Y112.095 E-.00963
;WIPE_END
G1 Z.6 F10800
G1 X100.944 Y110.228 Z.6
G1 Z.2
G1 E.4 F2100
;TYPE:Outer wall
;WIDTH:0.38292
G1 F1200
G1 X101.113 Y110.315 E.00527
G1 X100.541 Y110.99 F10800
G1 F1200
G1 X100.731 Y111.068 E.00569
G1 E-.28 F2100
;WIPE_START
G1 F1200
G1 X100.541 Y110.99 E-.12
;WIPE_END
G1 Z.6 F10800
G1 X112.45 Y105.567 Z.6
G1 Z.2
G1 E.4 F2100
;TYPE:Inner wall
;WIDTH:0.479999
G1 F1200
G1 X112.238 Y105.766 E.01035
G1 X112.007 Y105.82 E.00848
G1 X111.585 Y106.035 E.01686
G1 X111.268 Y106.331 E.01546
G1 X110.806 Y106.594 E.01892
G1 X110.325 Y106.77 E.01823
G1 X110.101 Y106.913 E.00946
;WIDTH:0.52438
G1 X109.863 Y106.983 E.00975
;WIDTH:0.568761
G1 X109.624 Y107.054 E.01065
;WIDTH:0.604995
G1 X109.482 Y107.083 E.00667
;WIDTH:0.641229
G1 X109.339 Y107.113 E.0071
;WIDTH:0.677463
G1 X108.903 Y107.222 E.02325
;WIDTH:0.642871
G1 X108.609 Y107.301 E.01487
;WIDTH:0.608279
G1 X108.069 Y107.497 E.02649
;WIDTH:0.560544
G1 X107.643 Y107.59 E.01839
;WIDTH:0.599309
G1 X107.337 Y107.601 E.01386
;WIDTH:0.647332
G1 X107.032 Y107.613 E.01506
G1 X107.168 Y107.516 E.00823
;WIDTH:0.605649
G1 X107.304 Y107.419 E.00766
;WIDTH:0.563965
G1 X107.64 Y107.095 E.01983
;WIDTH:0.560544
G1 X107.904 Y107.006 E.01172
;WIDTH:0.608279
G1 X108.462 Y106.756 E.02817
