; HEADER_BLOCK_START
; generated by OrcaSlicer 2.3.1 on 2025-12-18 at 21:36:34
; total layer number: 10
; filament_density: 1.31
; filament_diameter: 1.75
; max_z_height: 2.00
; HEADER_BLOCK_END

; THUMBNAIL_BLOCK_START

;
; THUMBNAIL_BLOCK_END

; THUMBNAIL_BLOCK_START

;
; THUMBNAIL_BLOCK_END

; external perimeters extrusion width = 0.45mm
; perimeters extrusion width = 0.45mm
; infill extrusion width = 0.45mm
; solid infill extrusion width = 0.48mm
; top infill extrusion width = 0.48mm

; external perimeters extrusion width = 0.45mm
; perimeters extrusion width = 0.45mm
; infill extrusion width = 0.45mm
; solid infill extrusion width = 0.48mm
; top infill extrusion width = 0.48mm

; external perimeters extrusion width = 0.45mm
; perimeters extrusion width = 0.45mm
; infill extrusion width = 0.45mm
; solid infill extrusion width = 0.48mm
; top infill extrusion width = 0.48mm

; external perimeters extrusion width = 0.45mm
; perimeters extrusion width = 0.45mm
; infill extrusion width = 0.45mm
; solid infill extrusion width = 0.48mm
; top infill extrusion width = 0.48mm

; external perimeters extrusion width = 0.45mm
; perimeters extrusion width = 0.45mm
; infill extrusion width = 0.45mm
; solid infill extrusion width = 0.48mm
; top infill extrusion width = 0.48mm

; external perimeters extrusion width = 0.45mm
; perimeters extrusion width = 0.45mm
; infill extrusion width = 0.45mm
; solid infill extrusion width = 0.48mm
; top infill extrusion width = 0.48mm

; external perimeters extrusion width = 0.45mm
; perimeters extrusion width = 0.45mm
; infill extrusion width = 0.45mm
; solid infill extrusion width = 0.48mm
; top infill extrusion width = 0.48mm

; external perimeters extrusion width = 0.45mm
; perimeters extrusion width = 0.45mm
; infill extrusion width = 0.45mm
; solid infill extrusion width = 0.48mm
; top infill extrusion width = 0.48mm

; external perimeters extrusion width = 0.45mm
; perimeters extrusion width = 0.45mm
; infill extrusion width = 0.45mm
; solid infill extrusion width = 0.48mm
; top infill extrusion width = 0.48mm

; external perimeters extrusion width = 0.45mm
; perimeters extrusion width = 0.45mm
; infill extrusion width = 0.45mm
; solid infill extrusion width = 0.48mm
; top infill extrusion width = 0.48mm

; external perimeters extrusion width = 0.45mm
; perimeters extrusion width = 0.45mm
; infill extrusion width = 0.45mm
; solid infill extrusion width = 0.48mm
; top infill extrusion width = 0.48mm

; EXECUTABLE_BLOCK_START
M73 P0 R61
;TYPE:Custom
M115 U3.2.3 ; tell printer latest fw version
G90 ; use absolute coordinates
M83 ; extruder relative mode
M204 S1250 T1000 ; MK2 firmware only supports the old M204 format
M104 S220 ; set extruder temp
M140 S55 ; set bed temp
M190 S55 ; wait for bed temp
M109 S220 ; wait for extruder temp
G28 W ; home all without mesh bed level
G80 ; mesh bed leveling
G1 Z2.0 F3000 ;Move Z Axis up
G1 X51.5 Y56 Z0.8 F5000 ; Move to start
M109 S220 ; wait for nozzle temp to stabilize
G92 E0 ;Reset Extruder
G1 X51.5 Y86 E30 F360.0 ; Extrude 30mm in Y
M73 P0 R60
G92 E0 ;Reset Extruder
G1 E-0.5 F2100 ; Retract
G1 Y96 F5000 ; Move 10mm in Y
G92 E0  ;Reset Extrude
G90
G21
M83 ; use relative distances for extrusion
; Filament gcode
M106 S0
;LAYER_CHANGE
;Z:0.2
;HEIGHT:0.2
;BEFORE_LAYER_CHANGE
G92 E0.0
;0.2


G1 E-.8 F1800
;_SET_FAN_SPEED_CHANGING_LAYER
SET_VELOCITY_LIMIT ACCEL=300 ACCEL_TO_DECEL=150
; printing object flowrate_0.05 id:15 copy 0
G1 X185.178 Y141.558 F7200
G1 Z.6
G1 Z.2
G1 E.8 F1800
;TYPE:Outer wall
;WIDTH:0.449999
G1 F1200
G1 X184.869 Y141.575 E.01058
G1 X182.783 Y141.575 E.07134
G1 X182.356 Y141.685 E.01505
G1 X182.051 Y141.825 E.01147
G1 X181.775 Y142.015 E.01147
G1 X181.535 Y142.25 E.01147
G1 X181.341 Y142.524 E.01147
G1 X181.196 Y142.826 E.01146
G1 X181.107 Y143.15 E.01148
G1 X181.075 Y143.489 E.01165
G1 X181.075 Y150.369 E.23521
G1 X181.007 Y150.867 E.01716
G1 X180.821 Y151.189 E.01271
G1 X180.536 Y151.428 E.01272
G1 X180.319 Y151.507 E.0079
G1 X179.981 Y151.575 E.01176
G1 X163.131 Y151.575 E.57609
G1 X162.633 Y151.507 E.01716
G1 X162.311 Y151.321 E.01271
G1 X162.072 Y151.036 E.01272
G1 X161.993 Y150.819 E.0079
G1 X161.925 Y150.481 E.01176
G1 X161.925 Y143.489 E.23904
G1 X161.899 Y143.181 E.01057
G1 X161.815 Y142.856 E.01147
G1 X161.675 Y142.551 E.01146
G1 X161.485 Y142.275 E.01148
G1 X161.25 Y142.035 E.01147
G1 X160.976 Y141.841 E.01147
G1 X160.673 Y141.696 E.01147
G1 X160.35 Y141.607 E.01147
G1 X160.011 Y141.575 E.01165
G1 X158.131 Y141.575 E.06427
G1 X157.633 Y141.507 E.01716
G1 X157.311 Y141.321 E.01271
G1 X157.072 Y141.036 E.01272
G1 X156.993 Y140.819 E.0079
G1 X156.925 Y140.481 E.01176
G1 X156.925 Y123.631 E.57609
G1 X156.993 Y123.133 E.01716
G1 X157.179 Y122.811 E.01271
G1 X157.464 Y122.572 E.01272
G1 X157.681 Y122.493 E.0079
G1 X158.019 Y122.425 E.01176
G1 X184.882 Y122.426 E.91838
G1 X185.366 Y122.493 E.01672
G1 X185.689 Y122.679 E.01272
G1 X185.928 Y122.964 E.01272
G1 X186.058 Y123.322 E.013
G1 X186.075 Y123.568 E.00844
G1 X186.075 Y140.369 E.5744
G1 X186.007 Y140.867 E.01716
G1 X185.821 Y141.189 E.01271
G1 X185.536 Y141.428 E.01272
G1 X185.216 Y141.544 E.01163
G1 E-.08 F1800
;WIPE_START
G1 F1200
G1 X184.869 Y141.575 E-.25049
G1 X184.217 Y141.575 E-.46951
;WIPE_END
G1 X184.759 Y133.962 Z.6 F7200
G1 X185.557 Y122.746 Z.6
G1 Z.2
G1 E.8 F1800
;TYPE:Bottom surface
;WIDTH:0.481502
G1 F3600
G1 X158.06 Y122.746 E1.01278
G1 X157.891 Y122.758 E.00627
G1 X157.627 Y122.854 E.01033
G1 X157.429 Y123.02 E.00954
G1 X157.334 Y123.185 E.00698
G1 X185.667 Y123.185 E1.0436
G1 X185.742 Y123.392 E.00811
G1 X185.755 Y123.623 E.00855
G1 X157.245 Y123.623 E1.05008
G1 X157.245 Y124.062 E.01615
G1 X185.755 Y124.062 E1.05008
G1 X185.755 Y124.5 E.01615
G1 X157.245 Y124.5 E1.05008
G1 X157.245 Y124.939 E.01615
G1 X185.755 Y124.939 E1.05008
G1 X185.755 Y125.378 E.01615
G1 X157.245 Y125.378 E1.05008
G1 X157.245 Y125.816 E.01615
G1 X185.755 Y125.816 E1.05008
G1 X185.755 Y126.255 E.01615
G1 X157.245 Y126.255 E1.05008
G1 X157.245 Y126.693 E.01615
G1 X185.755 Y126.693 E1.05008
G1 X185.755 Y127.132 E.01615
G1 X157.245 Y127.132 E1.05008
G1 X157.245 Y127.571 E.01615
G1 X185.755 Y127.571 E1.05008
G1 X185.755 Y128.009 E.01615
G1 X157.245 Y128.009 E1.05008
G1 X157.245 Y128.448 E.01615
G1 X185.755 Y128.448 E1.05008
G1 X185.755 Y128.886 E.01615
G1 X157.245 Y128.886 E1.05008
G1 X157.245 Y129.325 E.01615
G1 X185.755 Y129.325 E1.05008
G1 X185.755 Y129.763 E.01615
G1 X157.245 Y129.763 E1.05008
G1 X157.245 Y130.202 E.01615
G1 X185.755 Y130.202 E1.05008
G1 X185.755 Y130.641 E.01615
G1 X157.245 Y130.641 E1.05008
G1 X157.245 Y131.079 E.01615
G1 X185.755 Y131.079 E1.05008
G1 X185.755 Y131.518 E.01615
G1 X157.245 Y131.518 E1.05008
G1 X157.245 Y131.956 E.01615
G1 X185.755 Y131.956 E1.05008
G1 X185.755 Y132.395 E.01615
G1 X157.245 Y132.395 E1.05008
G1 X157.245 Y132.833 E.01615
G1 X185.755 Y132.834 E1.05008
G1 X185.755 Y133.272 E.01615
G1 X157.245 Y133.272 E1.05008
G1 X157.245 Y133.711 E.01615
G1 X185.755 Y133.711 E1.05008
G1 X185.755 Y134.149 E.01615
G1 X157.245 Y134.149 E1.05008
G1 X157.245 Y134.588 E.01615
G1 X185.755 Y134.588 E1.05008
G1 X185.755 Y135.026 E.01615
G1 X157.245 Y135.026 E1.05008
G1 X157.245 Y135.465 E.01615
G1 X185.755 Y135.465 E1.05008
G1 X185.755 Y135.904 E.01615
G1 X157.245 Y135.904 E1.05008
G1 X157.245 Y136.342 E.01615
G1 X185.755 Y136.342 E1.05008
G1 X185.755 Y136.781 E.01615
G1 X157.245 Y136.781 E1.05008
G1 X157.245 Y137.219 E.01615
G1 X185.755 Y137.219 E1.05008
G1 X185.755 Y137.658 E.01615
M73 P1 R60
G1 X157.245 Y137.658 E1.05008
G1 X157.245 Y138.096 E.01615
G1 X185.755 Y138.096 E1.05008
G1 X185.755 Y138.535 E.01615
G1 X157.245 Y138.535 E1.05008
G1 X157.245 Y138.974 E.01615
G1 X185.755 Y138.974 E1.05008
G1 X185.755 Y139.412 E.01615
G1 X157.245 Y139.412 E1.05008
G1 X157.245 Y139.851 E.01615
G1 X185.755 Y139.851 E1.05008
G1 X185.755 Y140.289 E.01615
G1 X157.245 Y140.289 E1.05008
G1 X157.258 Y140.608 E.01176
G1 X157.301 Y140.728 E.00468
G1 X185.706 Y140.728 E1.04622
G1 X185.571 Y140.98 E.0105
G1 X185.373 Y141.146 E.00954
G1 X185.317 Y141.167 E.00221
G1 X157.685 Y141.167 E1.01775
G1 X157.744 Y141.201 E.00252
G1 X158.054 Y141.255 E.01158
G1 X160.05 Y141.256 E.07353
G1 X160.425 Y141.295 E.01387
G1 X160.801 Y141.402 E.01439
G1 X161.126 Y141.556 E.01325
G1 X161.196 Y141.605 E.00315
G1 X181.804 Y141.605 E.75906
G1 X181.55 Y141.784 E.01146
G1 X181.291 Y142.044 E.01351
G1 X161.709 Y142.044 E.72123
G1 X161.954 Y142.391 E.01564
G1 X161.995 Y142.482 E.00368
G1 X181.004 Y142.482 E.70017
G1 X180.889 Y142.73 E.01007
G1 X180.837 Y142.921 E.00727
G1 X162.163 Y142.921 E.68783
G1 X162.211 Y143.101 E.00685
G1 X162.235 Y143.359 E.00958
G1 X180.767 Y143.359 E.68258
G1 X180.755 Y143.798 E.01616
G1 X162.244 Y143.798 E.68181
G1 X162.244 Y144.237 E.01615
G1 X180.755 Y144.237 E.6818
G1 X180.755 Y144.675 E.01615
G1 X162.244 Y144.675 E.6818
G1 X162.244 Y145.114 E.01615
G1 X180.755 Y145.114 E.6818
G1 X180.755 Y145.552 E.01615
G1 X162.244 Y145.552 E.68179
G1 X162.244 Y145.991 E.01615
G1 X180.755 Y145.991 E.68179
G1 X180.755 Y146.43 E.01615
G1 X162.244 Y146.43 E.68179
G1 X162.245 Y146.868 E.01615
G1 X180.755 Y146.868 E.68178
G1 X180.755 Y147.307 E.01615
G1 X162.245 Y147.307 E.68178
G1 X162.245 Y147.745 E.01615
G1 X180.755 Y147.745 E.68178
G1 X180.755 Y148.184 E.01615
G1 X162.245 Y148.184 E.68177
G1 X162.245 Y148.622 E.01615
G1 X180.755 Y148.622 E.68177
G1 X180.755 Y149.061 E.01615
G1 X162.245 Y149.061 E.68177
G1 X162.245 Y149.5 E.01615
G1 X180.755 Y149.5 E.68176
G1 X180.755 Y149.938 E.01615
G1 X162.245 Y149.938 E.68176
G1 X162.245 Y150.377 E.01615
G1 X180.755 Y150.377 E.68176
G1 X180.701 Y150.756 E.01409
G1 X180.666 Y150.815 E.00254
G1 X162.333 Y150.815 E.67527
G1 X162.354 Y150.873 E.00226
G1 X162.52 Y151.071 E.00954
G1 X162.744 Y151.201 E.00952
G1 X163.05 Y151.254 E.01142
G1 X180.55 Y151.254 E.6446
; stop printing object flowrate_0.05 id:15 copy 0
; printing object flowrate_0.04 id:15 copy 0
G1 E-.3 F1800
;WIPE_START
G1 F3600
G1 X179.55 Y151.254 E-.5
;WIPE_END
G1 X172.421 Y148.529 Z.6 F7200
G1 X154.178 Y141.558 Z.6
G1 Z.2
G1 E.8 F1800
;TYPE:Outer wall
;WIDTH:0.449999
G1 F1200
G1 X153.864 Y141.575 E.01065
G1 X151.783 Y141.575 E.07046
G1 X151.356 Y141.685 E.0149
G1 X151.051 Y141.825 E.01136
G1 X150.677 Y142.11 E.01594
G1 X150.349 Y142.513 E.01758
G1 X150.196 Y142.827 E.0118
G1 X150.107 Y143.15 E.01136
G1 X150.075 Y143.489 E.01154
G1 X150.075 Y150.369 E.23288
G1 X150.007 Y150.867 E.01699
G1 X149.821 Y151.189 E.01259
G1 X149.536 Y151.428 E.01259
G1 X149.319 Y151.507 E.00782
G1 X148.981 Y151.575 E.01164
G1 X132.131 Y151.575 E.57038
G1 X131.633 Y151.507 E.01699
G1 X131.311 Y151.321 E.01259
G1 X131.072 Y151.036 E.01259
G1 X130.993 Y150.819 E.00782
G1 X130.925 Y150.481 E.01164
G1 X130.925 Y143.489 E.23667
G1 X130.899 Y143.181 E.01047
G1 X130.815 Y142.856 E.01136
G1 X130.675 Y142.551 E.01136
G1 X130.485 Y142.275 E.01136
G1 X130.25 Y142.035 E.01136
G1 X129.976 Y141.841 E.01136
G1 X129.673 Y141.696 E.01136
G1 X129.35 Y141.607 E.01136
G1 X129.011 Y141.575 E.01154
G1 X127.13 Y141.575 E.06364
G1 X126.634 Y141.507 E.01695
G1 X126.312 Y141.321 E.0126
G1 X126.068 Y141.025 E.01298
G1 X126.004 Y140.851 E.00629
G1 X125.925 Y140.481 E.01278
G1 X125.925 Y123.631 E.57038
G1 X125.993 Y123.133 E.01699
G1 X126.179 Y122.811 E.01259
G1 X126.464 Y122.572 E.01259
G1 X126.681 Y122.493 E.00782
G1 X127.019 Y122.425 E.01164
G1 X153.882 Y122.426 E.90929
G1 X154.366 Y122.493 E.01656
G1 X154.689 Y122.679 E.01259
G1 X154.928 Y122.964 E.01259
G1 X155.058 Y123.322 E.01287
G1 X155.075 Y123.568 E.00835
G1 X155.075 Y140.364 E.56854
G1 X155.002 Y140.877 E.01752
G1 X154.821 Y141.188 E.0122
G1 X154.536 Y141.428 E.0126
G1 X154.216 Y141.544 E.01151
G1 E-.08 F1800
;WIPE_START
G1 F1200
G1 X153.864 Y141.575 E-.25427
G1 X153.217 Y141.575 E-.46573
;WIPE_END
G1 X153.759 Y133.962 Z.6 F7200
G1 X154.557 Y122.746 Z.6
M73 P1 R59
G1 Z.2
G1 E.8 F1800
;TYPE:Bottom surface
;WIDTH:0.481502
G1 F3600
G1 X127.06 Y122.746 E1.00275
G1 X126.891 Y122.758 E.00621
G1 X126.627 Y122.854 E.01023
G1 X126.429 Y123.02 E.00945
G1 X126.334 Y123.185 E.00692
G1 X154.667 Y123.185 E1.03327
G1 X154.742 Y123.392 E.00803
G1 X154.755 Y123.623 E.00846
G1 X126.245 Y123.623 E1.03969
G1 X126.245 Y124.062 E.01599
G1 X154.755 Y124.062 E1.03969
G1 X154.755 Y124.5 E.01599
G1 X126.245 Y124.5 E1.03969
G1 X126.245 Y124.939 E.01599
G1 X154.755 Y124.939 E1.03969
G1 X154.755 Y125.378 E.01599
G1 X126.245 Y125.378 E1.03969
G1 X126.245 Y125.816 E.01599
G1 X154.755 Y125.816 E1.03969
G1 X154.755 Y126.255 E.01599
G1 X126.245 Y126.255 E1.03969
G1 X126.245 Y126.693 E.01599
G1 X154.755 Y126.693 E1.03969
G1 X154.755 Y127.132 E.01599
G1 X126.245 Y127.132 E1.03969
G1 X126.245 Y127.571 E.01599
G1 X154.755 Y127.571 E1.03969
G1 X154.755 Y128.009 E.01599
G1 X126.245 Y128.009 E1.03969
G1 X126.245 Y128.448 E.01599
G1 X154.755 Y128.448 E1.03969
G1 X154.755 Y128.886 E.01599
G1 X126.245 Y128.886 E1.03969
G1 X126.245 Y129.325 E.01599
G1 X154.755 Y129.325 E1.03969
G1 X154.755 Y129.763 E.01599
G1 X126.245 Y129.763 E1.03969
G1 X126.245 Y130.202 E.01599
G1 X154.755 Y130.202 E1.03969
G1 X154.755 Y130.641 E.01599
G1 X126.245 Y130.641 E1.03969
G1 X126.245 Y131.079 E.01599
M73 P2 R59
G1 X154.755 Y131.079 E1.03969
G1 X154.755 Y131.518 E.01599
G1 X126.245 Y131.518 E1.03969
G1 X126.245 Y131.956 E.01599
G1 X154.755 Y131.956 E1.03969
G1 X154.755 Y132.395 E.01599
G1 X126.245 Y132.395 E1.03969
G1 X126.245 Y132.833 E.01599
G1 X154.755 Y132.834 E1.03969
G1 X154.755 Y133.272 E.01599
G1 X126.245 Y133.272 E1.03969
G1 X126.245 Y133.711 E.01599
G1 X154.755 Y133.711 E1.03969
G1 X154.755 Y134.149 E.01599
G1 X126.245 Y134.149 E1.03969
G1 X126.245 Y134.588 E.01599
G1 X154.755 Y134.588 E1.03969
G1 X154.755 Y135.026 E.01599
G1 X126.245 Y135.026 E1.03969
G1 X126.245 Y135.465 E.01599
G1 X154.755 Y135.465 E1.03969
G1 X154.755 Y135.904 E.01599
G1 X126.245 Y135.904 E1.03969
G1 X126.245 Y136.342 E.01599
G1 X154.755 Y136.342 E1.03969
G1 X154.755 Y136.781 E.01599
G1 X126.245 Y136.781 E1.03969
G1 X126.245 Y137.219 E.01599
G1 X154.755 Y137.219 E1.03969
G1 X154.755 Y137.658 E.01599
G1 X126.245 Y137.658 E1.03969
G1 X126.245 Y138.096 E.01599
G1 X154.755 Y138.096 E1.03969
G1 X154.755 Y138.535 E.01599
G1 X126.245 Y138.535 E1.03969
G1 X126.245 Y138.974 E.01599
G1 X154.755 Y138.974 E1.03969
G1 X154.755 Y139.412 E.01599
G1 X126.245 Y139.412 E1.03969
G1 X126.245 Y139.851 E.01599
G1 X154.755 Y139.851 E1.03969
G1 X154.755 Y140.289 E.01599
G1 X126.245 Y140.289 E1.03969
G1 X126.258 Y140.609 E.01167
G1 X126.301 Y140.728 E.00461
G1 X154.703 Y140.728 E1.03579
G1 X154.697 Y140.764 E.00135
G1 X154.572 Y140.979 E.00906
G1 X154.373 Y141.146 E.00947
G1 X154.317 Y141.167 E.00218
G1 X126.685 Y141.167 E1.00766
G1 X126.745 Y141.201 E.00251
G1 X127.054 Y141.255 E.01143
G1 X129.05 Y141.256 E.0728
G1 X129.425 Y141.295 E.01373
G1 X129.801 Y141.402 E.01425
G1 X130.126 Y141.556 E.01312
G1 X130.196 Y141.605 E.00312
G1 X150.807 Y141.605 E.75164
G1 X150.478 Y141.854 E.01502
G1 X150.325 Y142.044 E.00889
G1 X130.709 Y142.044 E.71536
G1 X130.954 Y142.391 E.01549
G1 X130.995 Y142.482 E.00365
G1 X150.004 Y142.482 E.69324
G1 X149.889 Y142.73 E.00997
G1 X149.837 Y142.921 E.0072
G1 X131.163 Y142.921 E.68102
G1 X131.211 Y143.101 E.00678
G1 X131.235 Y143.359 E.00948
G1 X149.767 Y143.359 E.67582
G1 X149.755 Y143.798 E.016
G1 X131.244 Y143.798 E.67506
G1 X131.244 Y144.237 E.01599
G1 X149.755 Y144.237 E.67505
G1 X149.755 Y144.675 E.01599
G1 X131.244 Y144.675 E.67505
G1 X131.244 Y145.114 E.01599
G1 X149.755 Y145.114 E.67505
G1 X149.755 Y145.552 E.01599
G1 X131.244 Y145.552 E.67504
G1 X131.244 Y145.991 E.01599
G1 X149.755 Y145.991 E.67504
G1 X149.755 Y146.43 E.01599
G1 X131.244 Y146.43 E.67504
G1 X131.245 Y146.868 E.01599
G1 X149.755 Y146.868 E.67503
G1 X149.755 Y147.307 E.01599
G1 X131.245 Y147.307 E.67503
G1 X131.245 Y147.745 E.01599
G1 X149.755 Y147.745 E.67503
G1 X149.755 Y148.184 E.01599
G1 X131.245 Y148.184 E.67502
G1 X131.245 Y148.622 E.01599
G1 X149.755 Y148.622 E.67502
G1 X149.755 Y149.061 E.01599
G1 X131.245 Y149.061 E.67502
G1 X131.245 Y149.5 E.01599
