M118 E1 OCTOAPP_DISABLE_LAYER_MAXIC
; HEADER_BLOCK_START
; generated by OrcaSlicer 2.3.0 on 2025-07-20 at 11:05:55
; total layer number: 20
;_GP_TOTAL_LAYER_NUMBER_PLACEHOLDER
; filament_density: 1.31
; filament_diameter: 1.75
; max_z_height: 4.00
; HEADER_BLOCK_END
; THUMBNAIL_BLOCK_START
;
; THUMBNAIL_BLOCK_END
; THUMBNAIL_BLOCK_START
;
; THUMBNAIL_BLOCK_END
; external perimeters extrusion width = 0.45mm
; perimeters extrusion width = 0.45mm
; infill extrusion width = 0.45mm
; solid infill extrusion width = 0.45mm
; top infill extrusion width = 0.40mm
; EXECUTABLE_BLOCK_START
M73 P0 R19
M201 X1000 Y1000 Z200 E800
M203 X200 Y200 Z12 E120
M204 P1250 R1000 T1250
M205 X10.00 Y10.00 Z0.40 E5.00 ; sets the jerk limits, mm/sec
;TYPE:Custom
M862.3 P "" ; printer model check
M862.1 P0.4 ; nozzle diameter check
M115 U3.2.3 ; tell printer latest fw version
G90 ; use absolute coordinates
M83 ; extruder relative mode
M204 S1250 T1000 ; MK2 firmware only supports the old M204 format
M104 S220 ; set extruder temp
M140 S55 ; set bed temp
M190 S55 ; wait for bed temp
M109 S220 ; wait for extruder temp
G28 W ; home all without mesh bed level
G80 ; mesh bed leveling
G1 Z2.0 F3000 ;Move Z Axis up
G1 X83 Y85.2614 Z0.8 F5000 ; Move to start
M109 S220 ; wait for nozzle temp to stabilize
G92 E0 ;Reset Extruder
G1 X83 Y115.261 E30 F360.0 ; Extrude 30mm in Y
G92 E0 ;Reset Extruder
G1 E-0.5 F2100 ; Retract
G1 Y125.261 F5000 ; Move 10mm in Y
G92 E0  ;Reset Extrude
G90
G21
M83 ; use relative distances for extrusion
; Filament gcode
M106 S0
;LAYER_CHANGE
M118 E1 OCTOAPP_LAYER LAYER=0
M117 DASHBOARD_LAYER_INDICATOR 1
;Z:0.2
;HEIGHT:0.2
;BEFORE_LAYER_CHANGE
G92 E0.0
;0.2
G1 E-.8 F1800
;_SET_FAN_SPEED_CHANGING_LAYER
M204 S300
; printing object GDShipKeychainv1.stl id:15 copy 0
G1 X107.379 Y110.317 F7200
G1 Z.6
G1 Z.2
G1 E.8 F1800
;TYPE:Inner wall
;WIDTH:0.449999
G1 F1200
G1 X107.285 Y110.333 E.00311
G1 X103.756 Y111.824 E.12449
G1 X103.519 Y111.883 E.00792
G1 X103.264 Y111.867 E.00831
G1 X103.008 Y111.751 E.00914
G1 X102.853 Y111.519 E.00906
G1 X102.781 Y111.222 E.00994
G1 X102.776 Y106.328 E.15902
G1 X102.673 Y106.056 E.00946
G1 X102.446 Y105.859 E.00975
G1 X102.17 Y105.793 E.00923
G1 X96.626 Y105.793 E.18015
G1 X96.382 Y105.762 E.00798
G1 X96.11 Y105.653 E.00953
G1 X95.935 Y105.428 E.00926
G1 X95.854 Y105.096 E.01112
G1 X95.854 Y94.309 E.35051
G1 X96.014 Y93.985 E.01174
G1 X96.267 Y93.798 E.01023
G1 X96.577 Y93.747 E.01022
G1 X102.281 Y93.747 E.18536
G1 X102.54 Y93.623 E.00933
G1 X102.715 Y93.412 E.00891
G1 X102.781 Y93.137 E.00919
G1 X102.781 Y88.805 E.14074
G1 X102.854 Y88.516 E.00971
G1 X103.006 Y88.296 E.00869
G1 X103.282 Y88.141 E.01029
G1 X103.639 Y88.154 E.01161
G1 X114.635 Y92.54 E.38468
G1 X114.909 Y92.561 E.00892
G1 X115.165 Y92.459 E.00895
G1 X115.351 Y92.255 E.00899
G1 X115.428 Y91.957 E.00998
G1 X115.428 Y90.682 E.04144
G1 X115.465 Y90.525 E.00523
G1 X115.578 Y90.461 E.00425
G1 X133.966 Y90.459 E.59749
G1 X134.981 Y90.484 E.03301
G1 X135.065 Y90.591 E.0044
G1 X135.274 Y91.004 E.01506
G1 X135.442 Y91.124 E.00669
G1 X135.723 Y91.185 E.00935
G1 X136.263 Y91.16 E.01757
G1 X136.54 Y91.019 E.01012
G1 X136.708 Y90.77 E.00975
G1 X136.787 Y90.548 E.00766
G1 X136.882 Y90.384 E.00615
G1 X137.131 Y90.311 E.00843
G1 X153.706 Y94.685 E.55704
G1 X153.92 Y94.822 E.00827
M73 P1 R19
G1 X154.094 Y95.057 E.00947
G1 X154.142 Y95.342 E.00939
G1 X154.146 Y104.415 E.29484
G1 X154.118 Y104.649 E.00766
G1 X153.995 Y104.942 E.01033
G1 X153.703 Y105.151 E.01167
G1 X146.737 Y106.915 E.2335
G1 X146.49 Y107.043 E.00905
G1 X146.334 Y107.249 E.0084
G1 X146.277 Y107.525 E.00918
G1 X146.305 Y108.459 E.03037
G1 X146.267 Y108.84 E.01242
G1 X146.077 Y109.109 E.01071
G1 X145.669 Y109.264 E.01416
G1 X129.128 Y110.958 E.54033
G1 X128.845 Y111.062 E.00978
G1 X128.627 Y111.329 E.01122
G1 X128.616 Y111.465 E.00442
G1 X128.53 Y111.339 E.00496
G1 X128.262 Y111.121 E.01122
G1 X127.964 Y111.077 E.00978
G1 X123.42 Y111.543 E.14842
G1 X123.135 Y111.648 E.0099
G1 X122.908 Y111.942 E.01206
G1 X122.859 Y112.078 E.00469
G1 X122.836 Y111.95 E.00424
G1 X122.555 Y111.708 E.01206
G1 X122.254 Y111.662 E.0099
G1 X113.38 Y112.572 E.28985
G1 X113.119 Y112.681 E.00918
G1 X112.943 Y112.882 E.00869
G1 X112.868 Y113.175 E.00981
G1 X112.867 Y121.181 E.26017
G1 X112.833 Y121.436 E.00837
G1 X112.704 Y121.64 E.00783
G1 X112.46 Y121.833 E.01012
G1 X112.197 Y121.886 E.00873
G1 X108.773 Y121.886 E.11125
G1 X108.42 Y121.769 E.0121
G1 X108.229 Y121.557 E.00925
G1 X108.138 Y121.276 E.00961
G1 X108.134 Y111.655 E.3126
G1 X108.12 Y110.768 E.02884
G1 X108.026 Y110.551 E.0077
G1 X107.819 Y110.362 E.00909
G1 X107.551 Y110.286 E.00906
G1 X107.419 Y110.31 E.00437
G1 X107.452 Y110.728 F7200
;TYPE:Outer wall
G1 F1200
G1 X103.768 Y112.284 E.12994
G1 X103.352 Y112.335 E.01361
G1 X103.101 Y112.267 E.00845
G1 X102.824 Y112.143 E.00986
G1 X102.545 Y111.876 E.01257
G1 X102.389 Y111.535 E.01217
G1 X102.352 Y111.249 E.00938
G1 X102.352 Y106.403 E.15746
G1 X102.311 Y106.287 E.004
G1 X102.17 Y106.221 E.00504
G1 X96.626 Y106.221 E.18015
G1 X96.131 Y106.153 E.01625
G1 X95.846 Y105.996 E.01055
G1 X95.621 Y105.761 E.01057
G1 X95.478 Y105.471 E.01053
G1 X95.425 Y105.128 E.01126
G1 X95.425 Y94.471 E.34631
G1 X95.451 Y94.167 E.00991
G1 X95.596 Y93.816 E.01236
G1 X95.774 Y93.604 E.00897
G1 X96.092 Y93.402 E.01226
G1 X96.512 Y93.319 E.01389
G1 X102.17 Y93.319 E.18388
G1 X102.28 Y93.282 E.00378
G1 X102.352 Y93.137 E.00526
G1 X102.352 Y88.851 E.13927
G1 X102.389 Y88.491 E.01176
G1 X102.576 Y88.11 E.01378
G1 X102.846 Y87.86 E.01194
G1 X103.278 Y87.701 E.01497
G1 X103.746 Y87.736 E.01526
G1 X114.79 Y92.137 E.38631
G1 X114.934 Y92.097 E.00488
G1 X115 Y91.957 E.00501
G1 X115 Y90.626 E.04326
G1 X115.088 Y90.321 E.01032
G1 X115.246 Y90.135 E.00793
G1 X115.532 Y90.032 E.00986
G1 X134.847 Y90.03 E.62766
G1 X135.161 Y90.087 E.01037
G1 X135.378 Y90.28 E.00942
G1 X135.536 Y90.636 E.01266
G1 X135.628 Y90.738 E.00447
G1 X136.137 Y90.746 E.01654
G1 X136.255 Y90.699 E.00409
G1 X136.44 Y90.247 E.01588
G1 X136.597 Y90.055 E.00805
G1 X136.805 Y89.93 E.00791
G1 X137.204 Y89.888 E.01304
G1 X153.727 Y94.248 E.5553
G1 X154.099 Y94.404 E.01311
G1 X154.335 Y94.622 E.01043
G1 X154.496 Y94.896 E.01031
G1 X154.57 Y95.341 E.01469
G1 X154.575 Y104.415 E.29484
G1 X154.51 Y104.9 E.0159
G1 X154.333 Y105.216 E.01179
G1 X154.153 Y105.373 E.00774
G1 X153.848 Y105.557 E.01157
G1 X146.779 Y107.347 E.23698
G1 X146.705 Y107.512 E.00589
G1 X146.736 Y108.536 E.03328
G1 X146.675 Y108.985 E.01472
G1 X146.459 Y109.326 E.01313
G1 X146.177 Y109.559 E.01187
G1 X145.754 Y109.686 E.01436
G1 X129.161 Y111.386 E.54199
G1 X129.022 Y111.495 E.00576
M73 P2 R19
;WIDTH:0.48831
G1 X129.004 Y111.55 E.00203
;WIDTH:0.526621
G1 X128.987 Y111.604 E.00221
;WIDTH:0.564932
G1 X128.969 Y111.658 E.00238
G1 X129.228 Y112.27 E.02769
;WIDTH:0.552906
G1 X129.403 Y113.022 E.03144
;WIDTH:0.552165
G1 X129.415 Y113.78 E.03078
G1 X129.312 Y114.323 E.0225
;WIDTH:0.555574
G1 X129.116 Y114.891 E.02457
G1 X128.99 Y115.127 E.01095
;WIDTH:0.559753
G1 X128.724 Y115.552 E.02069
G1 X128.406 Y115.929 E.02033
;WIDTH:0.551698
G1 X127.971 Y116.29 E.02295
;WIDTH:0.551338
G1 X127.408 Y116.631 E.02675
G1 X126.881 Y116.826 E.0228
;WIDTH:0.550973
G1 X126.099 Y116.961 E.03217
G1 X125.502 Y116.939 E.02421
;WIDTH:0.552375
G1 X124.794 Y116.784 E.02949
G1 X124.364 Y116.609 E.01886
;WIDTH:0.560333
G1 X123.955 Y116.371 E.01956
G1 X123.557 Y116.064 E.02074
;WIDTH:0.55026
G1 X123.161 Y115.641 E.0235
;WIDTH:0.547867
G1 X122.798 Y115.092 E.02652
;WIDTH:0.561062
G1 X122.593 Y114.616 E.02143
G1 X122.453 Y114.124 E.02117
;WIDTH:0.54951
G1 X122.399 Y113.492 E.02563
;WIDTH:0.558645
G1 X122.429 Y112.923 E.02346
;WIDTH:0.574407
G1 X122.556 Y112.316 E.0263
G1 X122.499 Y112.245 E.00385
;WIDTH:0.532938
G1 X122.443 Y112.174 E.00355
;WIDTH:0.491469
G1 X122.387 Y112.102 E.00325
;WIDTH:0.449999
G1 X122.3 Y112.088 E.00285
G1 X114.233 Y112.914 E.26351
G1 X113.372 Y113.028 E.02824
G1 X113.297 Y113.175 E.00537
G1 X113.295 Y121.323 E.26478
G1 X113.154 Y121.771 E.01526
G1 X112.91 Y122.061 E.01231
G1 X112.63 Y122.232 E.01067
G1 X112.21 Y122.314 E.0139
G1 X108.905 Y122.314 E.10739
G1 X108.408 Y122.246 E.0163
G1 X108.168 Y122.121 E.00881
G1 X107.927 Y121.891 E.01081
G1 X107.789 Y121.652 E.00895
G1 X107.71 Y121.327 E.01087
G1 X107.701 Y110.858 E.34021
G1 X107.611 Y110.737 E.00489
G1 X107.492 Y110.73 E.00388
G1 E-.08 F1800
;WIPE_START
G1 F1200
G1 X106.569 Y111.115 E-.72
;WIPE_END
G1 X114.199 Y111.3 Z.6 F7200
G1 X128.215 Y111.639 Z.6
G1 Z.2
G1 E.8 F1800
;WIDTH:0.527017
G1 F1200
G1 X128.333 Y111.761 E.00657
;WIDTH:0.565526
G1 X128.451 Y111.883 E.00709
G1 X128.676 Y112.353 E.02174
;WIDTH:0.549268
G1 X128.835 Y112.932 E.02427
;WIDTH:0.542803
G1 X128.877 Y113.577 E.02576
;WIDTH:0.549722
G1 X128.812 Y114.093 E.02104
;WIDTH:0.555574
G1 X128.592 Y114.705 E.02663
;WIDTH:0.559753
G1 X128.256 Y115.246 E.02626
G1 X128.038 Y115.518 E.01439
;WIDTH:0.551698
G1 X127.683 Y115.828 E.01912
;WIDTH:0.547254
G1 X127.245 Y116.1 E.02078
G1 X126.775 Y116.289 E.02038
;WIDTH:0.547717
G1 X126.173 Y116.405 E.0247
;WIDTH:0.549138
G1 X125.65 Y116.406 E.02112
;WIDTH:0.552375
G1 X124.928 Y116.248 E.03008
G1 X124.582 Y116.103 E.01523
;WIDTH:0.552666
G1 X123.933 Y115.663 E.03192
G1 X123.606 Y115.322 E.01922
;WIDTH:0.548249
G1 X123.277 Y114.826 E.02399
;WIDTH:0.54886
G1 X123.01 Y114.1 E.03126
G1 X122.94 Y113.576 E.02135
;WIDTH:0.558645
G1 X122.982 Y113.002 E.02367
;WIDTH:0.574407
G1 X123.108 Y112.469 E.02326
G1 X123.203 Y112.305 E.00805
;WIDTH:0.532938
G1 X123.298 Y112.141 E.00742
;WIDTH:0.491469
G1 X123.393 Y111.976 E.00679
;WIDTH:0.449999
G1 X128.008 Y111.504 E.15075
G1 X128.097 Y111.517 E.00292
;WIDTH:0.488508
G1 X128.187 Y111.61 E.00462
G1 E-.08 F1800
;WIPE_START
G1 F1200
G1 X128.333 Y111.761 E-.15115
G1 X128.451 Y111.883 E-.12235
G1 X128.676 Y112.353 E-.37525
G1 X128.702 Y112.449 E-.07125
;WIPE_END
G1 X135.094 Y108.278 Z.6 F7200
G1 X154.02 Y95.926 Z.6
G1 Z.2
G1 E.8 F1800
;TYPE:Bottom surface
;WIDTH:0.451182
G1 F3600
G1 X152.876 Y94.782 E.05274
G1 X152.091 Y94.575 E.02644
G1 X153.837 Y96.321 E.08045
G1 X153.837 Y96.898 E.01883
G1 X151.307 Y94.368 E.11661
G1 X150.523 Y94.161 E.02644
G1 X153.837 Y97.476 E.15278
G1 X153.838 Y98.054 E.01883
G1 X149.738 Y93.954 E.18894
G1 X148.954 Y93.747 E.02644
G1 X153.838 Y98.631 E.2251
G1 X153.838 Y99.209 E.01883
G1 X148.17 Y93.54 E.26127
G1 X147.385 Y93.333 E.02644
G1 X153.839 Y99.787 E.29743
G1 X153.839 Y100.364 E.01883
G1 X146.601 Y93.126 E.33359
G1 X145.816 Y92.919 E.02644
G1 X153.839 Y100.942 E.36976
G1 X153.84 Y101.52 E.01883
G1 X145.032 Y92.712 E.40592
G1 X144.248 Y92.505 E.02644
G1 X153.84 Y102.097 E.44208
G1 X153.84 Y102.675 E.01883
G1 X143.463 Y92.298 E.47825
G1 X142.679 Y92.091 E.02644
G1 X153.84 Y103.253 E.51441
G1 X153.841 Y103.83 E.01883
G1 X141.895 Y91.884 E.55057
G1 X141.11 Y91.677 E.02644
G1 X153.841 Y104.408 E.58673
G1 X153.808 Y104.651 E.008
G1 X153.755 Y104.747 E.00356
G1 X153.673 Y104.818 E.00352
G1 X140.326 Y91.47 E.61515
G1 X139.542 Y91.263 E.02644
G1 X153.234 Y104.955 E.63103
G1 X152.773 Y105.072 E.01549
G1 X138.757 Y91.056 E.64595
G1 X137.973 Y90.849 E.02644
G1 X152.312 Y105.189 E.66086
M73 P3 R19
G1 X151.851 Y105.305 E.01549
G1 X137.189 Y90.642 E.67578
G1 X137.083 Y90.628 E.00348
G1 X136.991 Y90.885 E.00888
G1 X136.936 Y90.967 E.00323
G1 X151.391 Y105.422 E.6662
G1 X150.93 Y105.538 E.01549
G1 X136.682 Y91.29 E.65668
G1 X136.551 Y91.379 E.00515
G1 X136.417 Y91.435 E.00474
G1 X136.28 Y91.465 E.00458
G1 X150.469 Y105.655 E.65397
G1 X150.008 Y105.772 E.01549
G1 X135.727 Y91.49 E.65822
G1 X135.582 Y91.482 E.00473
G1 X135.377 Y91.429 E.0069
G1 X135.209 Y91.343 E.00615
G1 X135.052 Y91.216 E.00657
G1 X134.849 Y90.894 E.01241
G1 X134.803 Y90.764 E.00449
G1 X134.423 Y90.764 E.01237
G1 X149.548 Y105.888 E.69705
G1 X149.087 Y106.005 E.01549
G1 X133.846 Y90.764 E.70243
G1 X133.269 Y90.764 E.01881
G1 X148.626 Y106.122 E.7078
G1 X148.166 Y106.238 E.01549
G1 X132.691 Y90.764 E.71317
G1 X132.114 Y90.764 E.01881
G1 X147.705 Y106.355 E.71855
G1 X147.244 Y106.472 E.01549
G1 X131.537 Y90.764 E.72392
G1 X130.96 Y90.764 E.01881
G1 X146.783 Y106.588 E.72929
G1 X146.496 Y106.678 E.00982
G1 X146.37 Y106.752 E.00475
G1 X130.382 Y90.765 E.73685
G1 X129.805 Y90.765 E.01881
G1 X146.096 Y107.056 E.75085
G1 X146.057 Y107.118 E.00239
G1 X145.997 Y107.29 E.00595
G1 X145.973 Y107.51 E.00721
G1 X129.228 Y90.765 E.77178
G1 X128.65 Y90.765 E.01881
G1 X145.989 Y108.103 E.79911
G1 X146.004 Y108.602 E.01625
G1 X145.988 Y108.68 E.0026
G1 X128.073 Y90.765 E.82567
G1 X127.496 Y90.765 E.01881
G1 X145.674 Y108.944 E.83782
G1 X145.609 Y108.963 E.00222
G1 X145.162 Y109.009 E.01464
G1 X126.918 Y90.765 E.84084
G1 X126.341 Y90.765 E.01881
G1 X144.639 Y109.063 E.8433
G1 X144.115 Y109.116 E.01716
G1 X125.764 Y90.765 E.84577
G1 X125.187 Y90.765 E.01881
M73 P4 R19
G1 X143.591 Y109.17 E.84824
G1 X143.068 Y109.224 E.01716
G1 X124.609 Y90.765 E.85071
G1 X124.032 Y90.765 E.01881
G1 X142.544 Y109.277 E.85318
G1 X142.02 Y109.331 E.01716
G1 X123.455 Y90.765 E.85565
G1 X122.877 Y90.765 E.01881
G1 X141.496 Y109.384 E.85812
G1 X140.973 Y109.438 E.01716
G1 X122.3 Y90.765 E.86059
G1 X121.723 Y90.765 E.01881
G1 X140.449 Y109.492 E.86306
G1 X139.925 Y109.545 E.01716
G1 X121.145 Y90.766 E.86553
G1 X120.568 Y90.766 E.01881
M73 P4 R18
G1 X139.401 Y109.599 E.868
G1 X138.878 Y109.653 E.01716
G1 X119.991 Y90.766 E.87047
G1 X119.413 Y90.766 E.01881
G1 X138.354 Y109.706 E.87294
G1 X137.83 Y109.76 E.01716
G1 X118.836 Y90.766 E.8754
G1 X118.259 Y90.766 E.01881
G1 X137.307 Y109.814 E.87787
G1 X136.783 Y109.867 E.01716
G1 X117.682 Y90.766 E.88034
G1 X117.104 Y90.766 E.01881
G1 X136.259 Y109.921 E.88281
G1 X135.735 Y109.975 E.01716
G1 X116.527 Y90.766 E.88528
G1 X115.95 Y90.766 E.01881
G1 X135.212 Y110.028 E.88775
G1 X134.688 Y110.082 E.01716
G1 X115.735 Y91.129 E.87349
G1 X115.734 Y91.705 E.01878
G1 X134.164 Y110.135 E.84941
G1 X133.64 Y110.189 E.01716
G1 X115.689 Y92.237 E.82736
G1 X115.617 Y92.405 E.00594
M73 P5 R18
G1 X115.472 Y92.598 E.00787
G1 X133.117 Y110.243 E.81321
G1 X132.593 Y110.296 E.01716
G1 X115.112 Y92.815 E.80569
G1 X114.955 Y92.864 E.00536
G1 X114.679 Y92.863 E.00899
G1 X114.547 Y92.827 E.00447
G1 X132.069 Y110.35 E.80759
G1 X131.546 Y110.404 E.01716
G1 X113.599 Y92.457 E.82712
G1 X112.638 Y92.074 E.03371
G1 X131.022 Y110.457 E.84726
G1 X130.498 Y110.511 E.01716
G1 X111.678 Y91.69 E.8674
G1 X110.717 Y91.307 E.03371
G1 X129.974 Y110.565 E.88754
G1 X129.451 Y110.618 E.01716
G1 X109.756 Y90.924 E.90768
G1 X108.796 Y90.54 E.03371
G1 X128.942 Y110.687 E.92853
G1 X128.665 Y110.812 E.00991
G1 X128.587 Y110.909 E.00405
G1 X107.835 Y90.157 E.95641
G1 X106.874 Y89.774 E.03371
G1 X127.881 Y110.78 E.96815
G1 X127.357 Y110.834 E.01716
G1 X105.913 Y89.39 E.98829
G1 X104.953 Y89.007 E.03371
G1 X126.833 Y110.887 E1.00842
G1 X126.309 Y110.941 E.01716
G1 X103.992 Y88.624 E1.02855
G1 X103.563 Y88.453 E.01504
G1 X103.385 Y88.431 E.00586
G1 X103.269 Y88.478 E.00407
G1 X125.785 Y110.994 E1.03772
G1 X125.261 Y111.048 E.01716
G1 X103.086 Y88.873 E1.02201
G1 X103.086 Y89.45 E.01882
G1 X124.737 Y111.101 E.99787
G1 X124.214 Y111.155 E.01716
G1 X103.086 Y90.027 E.97372
G1 X103.086 Y90.605 E.01882
M73 P6 R18
G1 X123.69 Y111.208 E.94958
G1 X123.384 Y111.24 E.01002
G1 X123.187 Y111.283 E.00656
G1 X103.086 Y91.182 E.92641
G1 X103.086 Y91.76 E.01882
G1 X122.854 Y111.528 E.91108
G1 X122.832 Y111.556 E.00118
G1 X122.683 Y111.428 E.00641
G1 X122.426 Y111.36 E.00868
G1 X122.119 Y111.369 E.01002
G1 X103.086 Y92.337 E.87717
G1 X103.086 Y92.914 E.01882
G1 X121.595 Y111.423 E.85303
G1 X121.071 Y111.477 E.01716
G1 X103.028 Y93.433 E.83158
G1 X102.989 Y93.548 E.00395
G1 X102.878 Y93.719 E.00664
G1 X102.806 Y93.789 E.00327
G1 X120.547 Y111.53 E.81768
G1 X120.024 Y111.584 E.01716
G1 X102.446 Y94.006 E.81013
G1 X102.288 Y94.045 E.00529
G1 X101.915 Y94.053 E.01217
G1 X119.5 Y111.637 E.81045
G1 X118.976 Y111.691 E.01716
G1 X101.338 Y94.053 E.81292
G1 X100.76 Y94.053 E.01882
G1 X118.452 Y111.745 E.8154
G1 X117.929 Y111.798 E.01716
G1 X100.183 Y94.053 E.81787
G1 X99.606 Y94.053 E.01882
G1 X117.405 Y111.852 E.82034
