; HEADER_BLOCK_START
; generated by OrcaSlicer 2.3.1 on 2025-12-18 at 19:50:23
; total layer number: 40
; filament_density: 1.31
; filament_diameter: 1.75
; max_z_height: 7.99
; HEADER_BLOCK_END

; THUMBNAIL_BLOCK_START

;
; THUMBNAIL_BLOCK_END

; THUMBNAIL_BLOCK_START

;
; THUMBNAIL_BLOCK_END

; external perimeters extrusion width = 0.45mm
; perimeters extrusion width = 0.45mm
; infill extrusion width = 0.45mm
; solid infill extrusion width = 0.45mm
; top infill extrusion width = 0.40mm

; EXECUTABLE_BLOCK_START
M73 P0 R84
;TYPE:Custom
M862.3 P "" ; printer model check
M862.1 P0.4 ; nozzle diameter check
M115 U3.2.3 ; tell printer latest fw version
G90 ; use absolute coordinates
M83 ; extruder relative mode
M204 S1250 T1000 ; MK2 firmware only supports the old M204 format
M104 S220 ; set extruder temp
M140 S55 ; set bed temp
M190 S55 ; wait for bed temp
M109 S220 ; wait for extruder temp
G28 W ; home all without mesh bed level
G80 ; mesh bed leveling
G1 Z2.0 F3000 ;Move Z Axis up
G1 X72.1851 Y44.9128 Z0.8 F5000 ; Move to start
M109 S220 ; wait for nozzle temp to stabilize
G92 E0 ;Reset Extruder
G1 X72.1851 Y74.9128 E30 F360.0 ; Extrude 30mm in Y
G92 E0 ;Reset Extruder
G1 E-0.5 F2100 ; Retract
G1 Y84.9128 F5000 ; Move 10mm in Y
G92 E0  ;Reset Extrude
G90
G21
M83 ; use relative distances for extrusion
; Filament gcode
M106 S0
;LAYER_CHANGE
;Z:0.2
;HEIGHT:0.2
;BEFORE_LAYER_CHANGE
G92 E0.0
;0.2


G1 E-.8 F1800
;_SET_FAN_SPEED_CHANGING_LAYER
SET_VELOCITY_LIMIT ACCEL=300 ACCEL_TO_DECEL=150
; printing object gingerbread.stl id:0 copy 0
G1 X150.275 Y127.844 F7200
G1 Z.6
G1 Z.2
G1 E.8 F1800
;TYPE:Inner wall
;WIDTH:0.449999
G1 F1200
G1 X150.199 Y127.817 E.00263
G1 X146.352 Y127.138 E.12696
G1 X146.827 Y124.445 E.08886
G1 X150.721 Y125.132 E.12849
G1 X151.052 Y125.069 E.01096
G1 X151.259 Y124.902 E.00863
G1 X151.382 Y124.627 E.00978
G1 X151.876 Y121.804 E.09315
G1 X163.981 Y125.97 E.416
G1 X164.541 Y126.226 E.01999
G1 X164.844 Y126.506 E.01342
G1 X164.947 Y127.007 E.01662
G1 X164.955 Y127.392 E.01252
G1 X164.842 Y128.305 E.0299
G1 X164.719 Y128.899 E.0197
G1 X164.417 Y130.002 E.03716
G1 X164.014 Y131.154 E.03966
G1 X163.725 Y131.85 E.02448
G1 X163.449 Y132.439 E.02115
G1 X163.147 Y133.009 E.02096
G1 X162.886 Y133.438 E.01631
G1 X162.525 Y133.91 E.01931
G1 X162.149 Y134.285 E.01726
G1 X161.8 Y134.461 E.01269
G1 X161.34 Y134.524 E.01511
G1 X160.755 Y134.47 E.01908
G1 X149.976 Y132.574 E.35562
G1 X150.717 Y128.397 E.13786
G1 X150.611 Y128.094 E.01045
G1 X150.401 Y127.891 E.00948
G1 X150.313 Y127.858 E.00305
G1 X150.125 Y128.239 F7200
;TYPE:Outer wall
G1 F1200
G1 X145.855 Y127.486 E.14088
G1 X146.479 Y123.949 E.11671
G1 X150.749 Y124.701 E.14088
G1 X150.892 Y124.666 E.00481
G1 X150.96 Y124.554 E.00426
G1 X151.541 Y121.235 E.10947
G1 X164.14 Y125.572 E.433
G1 X164.77 Y125.859 E.02248
G1 X165.046 Y126.086 E.01162
G1 X165.189 Y126.249 E.00704
G1 X165.317 Y126.621 E.0128
G1 X165.376 Y126.998 E.0124
G1 X165.384 Y127.414 E.01352
G1 X165.265 Y128.375 E.03146
G1 X165.136 Y128.999 E.0207
G1 X164.826 Y130.129 E.03808
G1 X164.414 Y131.307 E.04054
G1 X164.117 Y132.023 E.02518
G1 X163.833 Y132.631 E.02181
G1 X163.52 Y133.221 E.02172
G1 X163.24 Y133.68 E.01746
G1 X162.865 Y134.17 E.02006
G1 X162.585 Y134.467 E.01327
G1 X162.222 Y134.739 E.01472
G1 X161.778 Y134.917 E.01556
G1 X161.338 Y134.954 E.01435
G1 X160.698 Y134.895 E.02088
G1 X149.479 Y132.922 E.37014
G1 X150.273 Y128.45 E.1476
G1 X150.248 Y128.321 E.00425
G1 X150.158 Y128.261 E.00351
G1 E-.08 F1800
;WIPE_START
G1 F1200
G1 X149.174 Y128.084 E-.72
;WIPE_END
G1 X153.707 Y122.563 Z.6 F7200
G1 Z.2
G1 E.8 F1800
;TYPE:Bottom surface
;WIDTH:0.459014
G1 F3600
G1 X152.053 Y122.563 E.05492
G1 X151.98 Y122.979 E.01403
G1 X154.353 Y122.979 E.0788
G1 X155.562 Y123.395 E.04247
G1 X151.908 Y123.395 E.12137
G1 X151.835 Y123.811 E.01403
G1 X156.771 Y123.811 E.16394
G1 X157.98 Y124.227 E.04247
G1 X151.762 Y124.227 E.20652
G1 X151.689 Y124.643 E.01403
G1 X159.188 Y124.643 E.24909
G1 X160.397 Y125.06 E.04247
G1 X151.52 Y125.06 E.29485
G1 X151.439 Y125.159 E.00428
G1 X151.342 Y125.246 E.00431
G1 X151.187 Y125.344 E.00611
G1 X150.944 Y125.424 E.00849
G1 X150.703 Y125.435 E.00802
G1 X148.561 Y125.06 E.07223
G1 X147.028 Y125.06 E.05091
G1 X146.955 Y125.476 E.01403
G1 X161.606 Y125.476 E.48664
G1 X162.815 Y125.892 E.04247
G1 X146.882 Y125.892 E.52923
G1 X146.808 Y126.308 E.01403
G1 X163.986 Y126.308 E.57054
G1 X164.378 Y126.487 E.01432
G1 X164.56 Y126.636 E.0078
G1 X164.583 Y126.724 E.00303
G1 X146.735 Y126.724 E.59282
G1 X146.705 Y126.891 E.00562
G1 X148.113 Y127.14 E.04748
G1 X164.644 Y127.14 E.54908
G1 X164.649 Y127.376 E.00786
G1 X164.627 Y127.556 E.00601
G1 X150.388 Y127.556 E.47295
G1 X150.556 Y127.626 E.00605
G1 X150.756 Y127.785 E.00849
G1 X150.888 Y127.972 E.00761
G1 X164.576 Y127.972 E.45462
G1 X164.513 Y128.388 E.01398
G1 X151.006 Y128.388 E.44865
G1 X150.996 Y128.574 E.00617
G1 X150.955 Y128.804 E.00778
G1 X164.427 Y128.804 E.44746
G1 X164.314 Y129.22 E.01432
G1 X150.881 Y129.22 E.44617
G1 X150.807 Y129.637 E.01404
G1 X164.201 Y129.637 E.44484
G1 X164.076 Y130.053 E.01443
G1 X150.734 Y130.053 E.44315
G1 X150.66 Y130.469 E.01404
G1 X163.93 Y130.469 E.44076
G1 X163.784 Y130.885 E.01464
G1 X150.586 Y130.885 E.43838
G1 X150.512 Y131.301 E.01404
G1 X163.622 Y131.301 E.43544
G1 X163.45 Y131.717 E.01496
G1 X150.438 Y131.717 E.43217
G1 X150.365 Y132.133 E.01404
G1 X163.256 Y132.133 E.42816
G1 X163.045 Y132.549 E.01548
G1 X151.596 Y132.549 E.38028
G1 X153.962 Y132.965 E.07978
G1 X162.816 Y132.965 E.29409
G1 X162.634 Y133.265 E.01166
G1 X162.545 Y133.381 E.00487
G1 X156.328 Y133.381 E.2065
G1 X158.693 Y133.797 E.07978
G1 X162.226 Y133.797 E.11733
G1 X161.967 Y134.038 E.01174
G1 X161.783 Y134.146 E.00709
G1 X161.635 Y134.193 E.00514
G1 X161.386 Y134.214 E.00832
G1 X160.002 Y134.214 E.04597
G1 E-.3 F1800
;WIPE_START
G1 F3600
G1 X161.002 Y134.214 E-.5
;WIPE_END
G1 X153.476 Y132.942 Z.6 F7200
G1 X103.173 Y124.445 Z.6
G1 Z.2
G1 E.8 F1800
;TYPE:Inner wall
;WIDTH:0.449999
G1 F1200
G1 X103.648 Y127.138 E.08886
G1 X99.754 Y127.825 E.12849
G1 X99.464 Y127.997 E.01097
G1 X99.327 Y128.225 E.00863
G1 X99.305 Y128.525 E.00977
G1 X100.024 Y132.574 E.13365
G1 X89.477 Y134.429 E.34796
G1 X88.84 Y134.507 E.02087
G1 X88.305 Y134.494 E.01737
G1 X87.957 Y134.347 E.0123
G1 X87.559 Y134.019 E.01674
G1 X87.114 Y133.438 E.0238
G1 X86.815 Y132.937 E.01897
G1 X86.514 Y132.361 E.02108
G1 X86.24 Y131.765 E.02133
G1 X85.941 Y131.025 E.02592
G1 X85.548 Y129.875 E.03951
G1 X85.263 Y128.813 E.03572
G1 X85.147 Y128.236 E.01912
G1 X85.077 Y127.722 E.01686
G1 X85.05 Y127.012 E.02311
G1 X85.146 Y126.522 E.0162
G1 X85.459 Y126.226 E.01402
G1 X86.019 Y125.97 E.02
G1 X98.12 Y121.798 E.41593
G1 X98.638 Y124.737 E.09697
G1 X98.844 Y125.004 E.01096
G1 X99.111 Y125.123 E.00949
G1 X99.326 Y125.123 E.00699
G1 X103.134 Y124.452 E.12565
G1 X103.521 Y123.949 F7200
;TYPE:Outer wall
G1 F1200
G1 X104.145 Y127.486 E.11671
G1 X99.875 Y128.239 E.14088
G1 X99.752 Y128.321 E.00481
G1 X99.727 Y128.45 E.00425
G1 X100.521 Y132.922 E.1476
G1 X89.406 Y134.877 E.36672
G1 X88.879 Y134.934 E.01721
G1 X88.38 Y134.93 E.01621
G1 X87.917 Y134.821 E.01548
G1 X87.595 Y134.632 E.01212
G1 X87.243 Y134.31 E.01551
G1 X86.76 Y133.68 E.0258
G1 X86.48 Y133.221 E.01746
G1 X86.167 Y132.631 E.02172
G1 X85.883 Y132.023 E.02181
G1 X85.586 Y131.307 E.02518
G1 X85.174 Y130.129 E.04054
G1 X84.864 Y128.999 E.03808
G1 X84.734 Y128.373 E.02079
G1 X84.655 Y127.852 E.01711
G1 X84.61 Y127.093 E.0247
G1 X84.696 Y126.519 E.01889
G1 X84.869 Y126.155 E.01308
G1 X85.23 Y125.859 E.01519
G1 X85.86 Y125.572 E.02248
G1 X98.455 Y121.229 E.43291
G1 X99.041 Y124.554 E.10969
G1 X99.108 Y124.666 E.00425
G1 X99.251 Y124.701 E.00481
G1 X103.482 Y123.956 E.13958
G1 E-.08 F1800
;WIPE_START
G1 F1200
G1 X103.666 Y124.938 E-.72
;WIPE_END
G1 X96.403 Y122.594 Z.6 F7200
G1 X96.292 Y122.558 Z.6
G1 Z.2
G1 E.8 F1800
;TYPE:Bottom surface
;WIDTH:0.459199
G1 F3600
G1 X97.944 Y122.558 E.0549
G1 X98.017 Y122.974 E.01405
G1 X95.646 Y122.974 E.07879
G1 X94.439 Y123.39 E.04244
G1 X98.09 Y123.39 E.12135
G1 X98.164 Y123.807 E.01405
G1 X93.231 Y123.807 E.1639
G1 X92.024 Y124.223 E.04244
G1 X98.237 Y124.223 E.20646
G1 X98.31 Y124.639 E.01405
G1 X90.816 Y124.639 E.24902
G1 X89.609 Y125.055 E.04244
G1 X98.478 Y125.055 E.2947
G1 X98.654 Y125.243 E.00856
G1 X98.813 Y125.344 E.00626
G1 X99.056 Y125.424 E.00849
G1 X99.297 Y125.435 E.00803
G1 X101.463 Y125.055 E.07305
G1 X102.971 Y125.055 E.05012
G1 X103.044 Y125.472 E.01405
G1 X88.401 Y125.472 E.48657
G1 X87.194 Y125.888 E.04244
G1 X103.118 Y125.888 E.52913
G1 X103.191 Y126.304 E.01405
G1 X86.022 Y126.304 E.57051
G1 X85.622 Y126.487 E.01462
G1 X85.436 Y126.639 E.00798
G1 X85.406 Y126.72 E.00289
G1 X103.265 Y126.72 E.59343
G1 X103.295 Y126.891 E.00574
G1 X101.905 Y127.137 E.04689
G1 X85.348 Y127.137 E.55018
G1 X85.373 Y127.553 E.01386
G1 X99.62 Y127.553 E.47342
G1 X99.444 Y127.626 E.00633
G1 X99.244 Y127.785 E.00849
G1 X99.11 Y127.969 E.00756
G1 X85.415 Y127.969 E.45507
G1 X85.486 Y128.386 E.01403
G1 X98.998 Y128.386 E.44898
G1 X99.003 Y128.571 E.00615
G1 X99.044 Y128.802 E.0078
G1 X85.573 Y128.802 E.44766
G1 X85.685 Y129.218 E.01433
G1 X99.118 Y129.218 E.44638
G1 X99.192 Y129.634 E.01405
G1 X85.799 Y129.634 E.44505
G1 X85.924 Y130.051 E.01444
G1 X99.266 Y130.051 E.44336
G1 X99.34 Y130.467 E.01405
G1 X86.069 Y130.467 E.44097
G1 X86.215 Y130.883 E.01466
G1 X99.414 Y130.883 E.43858
G1 X99.487 Y131.3 E.01405
G1 X86.377 Y131.3 E.43565
G1 X86.55 Y131.716 E.01497
G1 X99.561 Y131.716 E.43237
G1 X99.635 Y132.132 E.01405
G1 X86.744 Y132.132 E.42836
G1 X86.954 Y132.548 E.0155
G1 X98.409 Y132.548 E.38063
G1 X96.042 Y132.965 E.07986
G1 X87.183 Y132.965 E.29436
G1 X87.366 Y133.265 E.01169
G1 X87.455 Y133.381 E.00485
G1 X93.675 Y133.381 E.20669
G1 X91.308 Y133.797 E.07986
G1 X87.774 Y133.797 E.11745
G1 X88.033 Y134.038 E.01176
G1 X88.217 Y134.146 E.0071
G1 X88.365 Y134.193 E.00514
G1 X88.613 Y134.213 E.00829
G1 X89.999 Y134.213 E.04604
G1 E-.3 F1800
;WIPE_START
G1 F3600
G1 X88.999 Y134.213 E-.5
;WIPE_END
G1 X96.255 Y131.847 Z.6 F7200
G1 X108.215 Y127.948 Z.6
G1 Z.2
G1 E.8 F1800
;TYPE:Inner wall
;WIDTH:0.449999
G1 F1200
G1 X108.221 Y127.851 E.00315
G1 X107.296 Y122.603 E.17318
G1 X107.184 Y122.07 E.01768
G1 X107.036 Y121.865 E.00825
G1 X106.824 Y121.739 E.008
G1 X106.52 Y121.715 E.00992
G1 X103.048 Y122.327 E.11453
G1 X102.663 Y120.237 E.06909
G1 X105.371 Y119.3 E.09313
G1 X106.121 Y119.019 E.02601
G1 X106.747 Y118.749 E.02214
G1 X107.317 Y118.455 E.02086
G1 X108.106 Y117.939 E.03062
G1 X108.778 Y117.348 E.02908
G1 X109.156 Y116.915 E.01866
G1 X109.483 Y116.45 E.01848
G1 X109.758 Y115.962 E.01822
G1 X109.982 Y115.453 E.01807
G1 X110.167 Y114.912 E.01857
G1 X110.318 Y114.33 E.01955
G1 X110.438 Y113.698 E.02089
G1 X110.536 Y112.932 E.0251
G1 X110.592 Y112.159 E.02517
G1 X110.615 Y111.311 E.02757
G1 X110.602 Y110.379 E.03029
G1 X110.551 Y109.342 E.03373
G1 X110.456 Y108.191 E.03755
G1 X110.314 Y106.943 E.04079
G1 X110.221 Y106.267 E.02221
G1 X109.885 Y104.294 E.06501
G1 X107.529 Y92.62 E.38701
G1 X112.837 Y92.624 E.17248
G1 X113.044 Y92.587 E.00686
G1 X113.26 Y92.453 E.00826
G1 X113.414 Y92.213 E.00926
G1 X113.448 Y92.013 E.00659
G1 X113.448 Y88.106 E.12695
G1 X116.94 Y88.106 E.1135
G1 X116.94 Y92.055 E.12833
G1 X117.05 Y92.357 E.01043
M73 P0 R83
G1 X117.287 Y92.559 E.01012
G1 X117.551 Y92.619 E.00879
G1 X132.449 Y92.619 E.4841
G1 X132.655 Y92.583 E.0068
G1 X132.871 Y92.449 E.00826
G1 X133.025 Y92.209 E.00926
G1 X133.06 Y92.009 E.00659
G1 X133.06 Y88.106 E.12683
G1 X136.552 Y88.106 E.1135
G1 X136.552 Y92.059 E.12846
G1 X136.661 Y92.361 E.01042
G1 X136.898 Y92.563 E.01012
G1 X137.163 Y92.624 E.00884
G1 X142.472 Y92.62 E.1725
G1 X140.115 Y104.294 E.38701
G1 X139.778 Y106.276 E.06532
G1 X139.685 Y106.951 E.02214
G1 X139.543 Y108.202 E.04092
G1 X139.449 Y109.353 E.03751
G1 X139.398 Y110.39 E.03376
G1 X139.385 Y111.336 E.03073
G1 X139.409 Y112.188 E.0277
G1 X139.468 Y112.965 E.02531
G1 X139.568 Y113.735 E.02524
G1 X139.691 Y114.37 E.02102
G1 X139.847 Y114.956 E.01972
G1 X140.037 Y115.502 E.0188
G1 X140.269 Y116.015 E.01828
G1 X140.55 Y116.503 E.01831
G1 X140.884 Y116.965 E.01852
G1 X141.267 Y117.393 E.01866
G1 X141.719 Y117.801 E.01979
G1 X142.478 Y118.335 E.03017
G1 X143.289 Y118.765 E.02983
G1 X143.907 Y119.031 E.02184
G1 X144.636 Y119.302 E.02528
G1 X147.341 Y120.238 E.093
G1 X146.952 Y122.328 E.06907
G1 X143.48 Y121.715 E.11455
G1 X143.176 Y121.739 E.00992
G1 X142.901 Y121.931 E.01089
G1 X142.773 Y122.211 E.01001
G1 X141.779 Y127.851 E.18612
G1 X141.799 Y128.147 E.00962
G1 X141.888 Y128.32 E.00632
G1 X142.051 Y128.472 E.00723
G1 X142.274 Y128.559 E.00778
G1 X145.745 Y129.171 E.11453
G1 X145.303 Y131.75 E.08504
G1 X137.72 Y130.418 E.25018
G1 X137.107 Y130.404 E.01992
M73 P1 R83
G1 X136.489 Y130.543 E.02058
G1 X135.93 Y130.826 E.02035
G1 X135.448 Y131.246 E.02078
G1 X135.09 Y131.758 E.0203
G1 X134.872 Y132.332 E.01995
G1 X134.795 Y132.963 E.02066
G1 X134.872 Y133.579 E.02018
G1 X135.105 Y134.175 E.0208
G1 X135.455 Y134.673 E.01974
G1 X136.464 Y135.68 E.04635
G1 X137.004 Y136.284 E.02631
G1 X137.495 Y136.892 E.02539
G1 X137.961 Y137.531 E.02572
G1 X138.395 Y138.195 E.02575
G1 X138.792 Y138.875 E.02562
G1 X139.163 Y139.59 E.02617
G1 X139.487 Y140.301 E.02538
G1 X139.779 Y141.035 E.02569
G1 X140.041 Y141.81 E.02657
G1 X140.245 Y142.524 E.02412
G1 X140.419 Y143.269 E.02488
G1 X140.563 Y144.062 E.02619
G1 X140.663 Y144.837 E.02537
G1 X140.726 Y145.625 E.02571
G1 X140.749 Y146.423 E.02594
G1 X140.733 Y147.202 E.02531
G1 X140.674 Y148.011 E.02635
G1 X140.579 Y148.788 E.02545
G1 X140.445 Y149.56 E.02546
G1 X140.266 Y150.349 E.0263
G1 X140.049 Y151.124 E.02615
G1 X139.814 Y151.827 E.02408
G1 X139.535 Y152.543 E.02499
G1 X139.214 Y153.262 E.02559
G1 X138.847 Y153.982 E.02624
G1 X138.457 Y154.661 E.02547
G1 X138.034 Y155.319 E.02541
G1 X137.57 Y155.967 E.0259
G1 X137.075 Y156.59 E.02584
G1 X136.556 Y157.179 E.02554
G1 X135.996 Y157.754 E.02607
G1 X135.409 Y158.297 E.02597
G1 X134.793 Y158.813 E.02612
G1 X134.203 Y159.261 E.02408
G1 X133.57 Y159.692 E.02489
G1 X132.883 Y160.113 E.02617
G1 X132.196 Y160.488 E.02542
G1 X131.491 Y160.828 E.02546
G1 X130.765 Y161.135 E.02559
G1 X130.012 Y161.409 E.02605
G1 X129.252 Y161.643 E.02584
G1 X128.49 Y161.837 E.02555
G1 X127.704 Y161.994 E.02605
G1 X126.912 Y162.111 E.02601
G1 X126.111 Y162.189 E.02616
G1 X125.375 Y162.224 E.02395
G1 X124.59 Y162.223 E.02549
G1 X123.811 Y162.183 E.02534
G1 X123.028 Y162.104 E.02559
G1 X122.24 Y161.984 E.02589
G1 X121.472 Y161.828 E.02545
G1 X120.708 Y161.632 E.02565
G1 X119.931 Y161.39 E.02645
G1 X119.199 Y161.121 E.02534
G1 X118.477 Y160.813 E.0255
G1 X117.748 Y160.459 E.02635
G1 X117.042 Y160.07 E.02618
G1 X116.414 Y159.683 E.02396
G1 X115.768 Y159.238 E.02549
G1 X115.147 Y158.766 E.02534
G1 X114.545 Y158.258 E.0256
G1 X113.963 Y157.714 E.02588
G1 X113.418 Y157.151 E.02546
G1 X112.898 Y156.558 E.02564
G1 X112.393 Y155.919 E.02645
G1 X111.942 Y155.283 E.02534
G1 X111.518 Y154.619 E.0256
G1 X111.125 Y153.93 E.02579
G1 X110.757 Y153.2 E.02658
G1 X110.455 Y152.522 E.02411
G1 X110.179 Y151.807 E.02488
G1 X109.926 Y151.042 E.02619
G1 X109.719 Y150.289 E.02537
G1 X109.547 Y149.517 E.02571
G1 X109.412 Y148.73 E.02594
G1 X109.32 Y147.957 E.0253
G1 X109.265 Y147.148 E.02635
G1 X109.251 Y146.365 E.02545
G1 X109.276 Y145.579 E.02554
G1 X109.342 Y144.787 E.02582
G1 X109.448 Y143.99 E.02613
G1 X109.583 Y143.256 E.02425
G1 X109.761 Y142.501 E.0252
G1 X109.98 Y141.742 E.02568
G1 X110.238 Y140.99 E.02581
G1 X110.529 Y140.263 E.02547
G1 X110.863 Y139.538 E.02591
G1 X111.231 Y138.834 E.02583
G1 X111.632 Y138.152 E.02569
G1 X112.066 Y137.492 E.02568
G1 X112.532 Y136.857 E.0256
G1 X113.042 Y136.23 E.02626
G1 X113.617 Y135.594 E.02787
G1 X114.629 Y134.572 E.04673
G1 X114.968 Y134.03 E.02077
G1 X115.16 Y133.432 E.02041
G1 X115.2 Y132.8 E.02058
G1 X115.085 Y132.178 E.02054
G1 X114.835 Y131.627 E.01968
G1 X114.437 Y131.125 E.02079
G1 X113.938 Y130.743 E.02044
G1 X113.361 Y130.495 E.02042
G1 X112.734 Y130.393 E.02063
G1 X112.205 Y130.426 E.01722
