M118 E1 OCTOAPP_DISABLE_LAYER_MAXIC
; HEADER_BLOCK_START
; generated by OrcaSlicer 2.3.0 on 2025-08-06 at 20:11:15
; total layer number: 150
;_GP_TOTAL_LAYER_NUMBER_PLACEHOLDER
; filament_density: 1.31
; filament_diameter: 1.75
; max_z_height: 30.00
; HEADER_BLOCK_END
; THUMBNAIL_BLOCK_START
;
; THUMBNAIL_BLOCK_END
; THUMBNAIL_BLOCK_START
;
; THUMBNAIL_BLOCK_END
; external perimeters extrusion width = 0.45mm
; perimeters extrusion width = 0.45mm
; infill extrusion width = 0.45mm
; solid infill extrusion width = 0.45mm
; top infill extrusion width = 0.40mm
; external perimeters extrusion width = 0.45mm
; perimeters extrusion width = 0.45mm
; infill extrusion width = 0.45mm
; solid infill extrusion width = 0.45mm
; top infill extrusion width = 0.40mm
; EXECUTABLE_BLOCK_START
M73 P0 R113
M201 X1000 Y1000 Z200 E800
M203 X200 Y200 Z12 E120
M204 P1250 R1000 T1250
M205 X10.00 Y10.00 Z0.40 E5.00 ; sets the jerk limits, mm/sec
;TYPE:Custom
M862.3 P "" ; printer model check
M862.1 P0.4 ; nozzle diameter check
M115 U3.2.3 ; tell printer latest fw version
G90 ; use absolute coordinates
M83 ; extruder relative mode
M204 S1250 T1000 ; MK2 firmware only supports the old M204 format
M104 S220 ; set extruder temp
M140 S55 ; set bed temp
M190 S55 ; wait for bed temp
M109 S220 ; wait for extruder temp
G28 W ; home all without mesh bed level
G80 ; mesh bed leveling
G1 Z2.0 F3000 ;Move Z Axis up
G1 X82.3024 Y53.5 Z0.8 F5000 ; Move to start
M109 S220 ; wait for nozzle temp to stabilize
G92 E0 ;Reset Extruder
G1 X82.3024 Y83.5 E30 F360.0 ; Extrude 30mm in Y
G92 E0 ;Reset Extruder
G1 E-0.5 F2100 ; Retract
G1 Y93.5 F5000 ; Move 10mm in Y
G92 E0  ;Reset Extrude
G90
G21
M83 ; use relative distances for extrusion
; Filament gcode
M106 S0
;LAYER_CHANGE
M118 E1 OCTOAPP_LAYER LAYER=0
M117 DASHBOARD_LAYER_INDICATOR 1
;Z:0.2
;HEIGHT:0.2
;BEFORE_LAYER_CHANGE
G92 E0.0
;0.2
G1 E-.8 F1800
;_SET_FAN_SPEED_CHANGING_LAYER
M204 S300
; printing object Hylly v7.stl id:158825940 copy 0
G1 X112.35 Y153.646 F7200
G1 Z.6
G1 Z.2
G1 E.8 F1800
;TYPE:Inner wall
;WIDTH:0.449999
G1 F1200
G1 X112.35 Y56.354 E3.16151
G1 X152.743 Y56.357 E1.31256
G1 X152.743 Y153.643 E3.16129
G1 X112.39 Y153.646 E1.31126
G1 X111.922 Y154.075 F7200
;TYPE:Outer wall
G1 F1200
G1 X111.922 Y55.925 E3.18936
G1 X153.172 Y55.929 E1.34041
G1 X153.172 Y154.071 E3.18914
G1 X111.962 Y154.075 E1.33911
G1 E-.08 F1800
;WIPE_START
G1 F1200
G1 X111.962 Y153.075 E-.72
;WIPE_END
G1 X114.871 Y146.019 Z.6 F7200
G1 X151.797 Y56.479 Z.6
G1 Z.2
G1 E.8 F1800
;TYPE:Bottom surface
;WIDTH:0.450769
G1 F3600
G1 X152.438 Y57.12 E.02953
G1 X152.438 Y57.697 E.01878
G1 X151.403 Y56.662 E.04766
G1 X150.826 Y56.662 E.01878
G1 X152.438 Y58.274 E.07421
G1 X152.438 Y58.851 E.01878
G1 X150.249 Y56.662 E.10077
G1 X149.673 Y56.662 E.01878
G1 X152.438 Y59.428 E.12733
G1 X152.438 Y60.004 E.01878
G1 X149.096 Y56.662 E.15389
G1 X148.519 Y56.662 E.01878
G1 X152.438 Y60.581 E.18045
G1 X152.438 Y61.158 E.01878
G1 X147.942 Y56.662 E.20701
G1 X147.365 Y56.662 E.01878
G1 X152.438 Y61.735 E.23356
G1 X152.438 Y62.312 E.01878
G1 X146.788 Y56.662 E.26012
G1 X146.212 Y56.662 E.01878
G1 X152.438 Y62.888 E.28668
G1 X152.438 Y63.465 E.01878
G1 X145.635 Y56.662 E.31324
G1 X145.058 Y56.662 E.01878
G1 X152.438 Y64.042 E.3398
G1 X152.438 Y64.619 E.01878
G1 X144.481 Y56.662 E.36636
G1 X143.904 Y56.662 E.01878
G1 X152.438 Y65.195 E.39291
G1 X152.438 Y65.772 E.01878
G1 X143.327 Y56.662 E.41947
G1 X142.75 Y56.661 E.01878
G1 X152.438 Y66.349 E.44603
G1 X152.438 Y66.926 E.01878
G1 X142.174 Y56.661 E.47259
G1 X141.597 Y56.661 E.01878
G1 X152.438 Y67.503 E.49915
G1 X152.438 Y68.079 E.01878
G1 X141.02 Y56.661 E.52571
G1 X140.443 Y56.661 E.01878
G1 X152.438 Y68.656 E.55226
G1 X152.438 Y69.233 E.01878
G1 X139.866 Y56.661 E.57882
G1 X139.289 Y56.661 E.01878
G1 X152.438 Y69.81 E.60538
G1 X152.438 Y70.387 E.01878
G1 X138.713 Y56.661 E.63194
G1 X138.136 Y56.661 E.01878
G1 X152.438 Y70.963 E.6585
G1 X152.438 Y71.54 E.01878
G1 X137.559 Y56.661 E.68506
G1 X136.982 Y56.661 E.01878
G1 X152.438 Y72.117 E.71161
G1 X152.438 Y72.694 E.01878
G1 X136.405 Y56.661 E.73817
G1 X135.828 Y56.661 E.01878
G1 X152.438 Y73.27 E.76473
G1 X152.438 Y73.847 E.01878
G1 X135.252 Y56.661 E.79129
G1 X134.675 Y56.661 E.01878
M73 P0 R112
G1 X152.438 Y74.424 E.81785
G1 X152.438 Y75.001 E.01878
G1 X134.098 Y56.661 E.84441
G1 X133.521 Y56.661 E.01878
G1 X152.438 Y75.578 E.87096
G1 X152.438 Y76.154 E.01878
G1 X132.944 Y56.661 E.89752
G1 X132.367 Y56.661 E.01878
G1 X152.438 Y76.731 E.92408
G1 X152.438 Y77.308 E.01878
G1 X131.791 Y56.661 E.95064
G1 X131.214 Y56.66 E.01878
G1 X152.438 Y77.885 E.9772
G1 X152.438 Y78.462 E.01878
G1 X130.637 Y56.66 E1.00376
G1 X130.06 Y56.66 E.01878
G1 X152.438 Y79.038 E1.03031
G1 X152.438 Y79.615 E.01878
G1 X129.483 Y56.66 E1.05687
G1 X128.906 Y56.66 E.01878
G1 X152.438 Y80.192 E1.08343
G1 X152.438 Y80.769 E.01878
G1 X128.33 Y56.66 E1.10999
G1 X127.753 Y56.66 E.01878
G1 X152.438 Y81.345 E1.13655
G1 X152.438 Y81.922 E.01878
G1 X127.176 Y56.66 E1.16311
G1 X126.599 Y56.66 E.01878
G1 X152.438 Y82.499 E1.18966
G1 X152.438 Y83.076 E.01878
G1 X126.022 Y56.66 E1.21622
G1 X125.445 Y56.66 E.01878
G1 X152.438 Y83.653 E1.24278
G1 X152.438 Y84.229 E.01878
G1 X124.869 Y56.66 E1.26934
G1 X124.292 Y56.66 E.01878
G1 X152.438 Y84.806 E1.2959
G1 X152.438 Y85.383 E.01878
G1 X123.715 Y56.66 E1.32246
G1 X123.138 Y56.66 E.01878
G1 X152.438 Y85.96 E1.34901
G1 X152.438 Y86.537 E.01878
G1 X122.561 Y56.66 E1.37557
G1 X121.984 Y56.66 E.01878
G1 X152.438 Y87.113 E1.40213
G1 X152.438 Y87.69 E.01878
G1 X121.408 Y56.66 E1.42869
G1 X120.831 Y56.66 E.01878
G1 X152.438 Y88.267 E1.45525
G1 X152.438 Y88.844 E.01878
G1 X120.254 Y56.66 E1.48181
G1 X119.677 Y56.66 E.01878
G1 X152.438 Y89.42 E1.50836
G1 X152.438 Y89.997 E.01878
M73 P1 R112
G1 X119.1 Y56.659 E1.53492
G1 X118.523 Y56.659 E.01878
G1 X152.438 Y90.574 E1.56148
G1 X152.438 Y91.151 E.01878
G1 X117.947 Y56.659 E1.58804
G1 X117.37 Y56.659 E.01878
G1 X152.438 Y91.728 E1.6146
G1 X152.438 Y92.304 E.01878
G1 X116.793 Y56.659 E1.64116
G1 X116.216 Y56.659 E.01878
G1 X152.438 Y92.881 E1.66771
G1 X152.438 Y93.458 E.01878
G1 X115.639 Y56.659 E1.69427
G1 X115.062 Y56.659 E.01878
G1 X152.438 Y94.035 E1.72083
G1 X152.438 Y94.612 E.01878
G1 X114.486 Y56.659 E1.74739
G1 X113.909 Y56.659 E.01878
G1 X152.438 Y95.188 E1.77395
G1 X152.438 Y95.765 E.01878
G1 X113.332 Y56.659 E1.80051
G1 X112.755 Y56.659 E.01878
G1 X152.438 Y96.342 E1.82706
G1 X152.438 Y96.919 E.01878
G1 X112.656 Y57.136 E1.83164
G1 X112.656 Y57.713 E.01878
G1 X152.438 Y97.495 E1.83164
G1 X152.438 Y98.072 E.01878
G1 X112.656 Y58.29 E1.83164
G1 X112.656 Y58.867 E.01878
G1 X152.438 Y98.649 E1.83164
G1 X152.438 Y99.226 E.01878
G1 X112.656 Y59.444 E1.83164
G1 X112.656 Y60.02 E.01878
G1 X152.438 Y99.803 E1.83164
G1 X152.438 Y100.379 E.01878
G1 X112.656 Y60.597 E1.83164
G1 X112.656 Y61.174 E.01878
G1 X152.438 Y100.956 E1.83164
G1 X152.438 Y101.533 E.01878
G1 X112.656 Y61.751 E1.83164
G1 X112.656 Y62.327 E.01878
G1 X152.438 Y102.11 E1.83164
G1 X152.438 Y102.687 E.01878
G1 X112.656 Y62.904 E1.83164
G1 X112.656 Y63.481 E.01878
G1 X152.438 Y103.263 E1.83164
G1 X152.438 Y103.84 E.01878
G1 X112.656 Y64.058 E1.83164
G1 X112.656 Y64.635 E.01878
G1 X152.438 Y104.417 E1.83164
G1 X152.438 Y104.994 E.01878
G1 X112.656 Y65.211 E1.83164
G1 X112.656 Y65.788 E.01878
G1 X152.438 Y105.57 E1.83164
G1 X152.438 Y106.147 E.01878
G1 X112.656 Y66.365 E1.83164
G1 X112.656 Y66.942 E.01878
G1 X152.438 Y106.724 E1.83164
G1 X152.438 Y107.301 E.01878
G1 X112.656 Y67.519 E1.83164
G1 X112.656 Y68.095 E.01878
G1 X152.438 Y107.878 E1.83164
G1 X152.438 Y108.454 E.01878
G1 X112.656 Y68.672 E1.83164
G1 X112.656 Y69.249 E.01878
G1 X152.438 Y109.031 E1.83164
G1 X152.438 Y109.608 E.01878
G1 X112.656 Y69.826 E1.83164
G1 X112.656 Y70.402 E.01878
G1 X152.438 Y110.185 E1.83164
G1 X152.438 Y110.762 E.01878
G1 X112.656 Y70.979 E1.83164
G1 X112.656 Y71.556 E.01878
M73 P1 R111
G1 X152.438 Y111.338 E1.83164
G1 X152.438 Y111.915 E.01878
G1 X112.656 Y72.133 E1.83164
G1 X112.656 Y72.71 E.01878
G1 X152.438 Y112.492 E1.83164
G1 X152.438 Y113.069 E.01878
G1 X112.656 Y73.286 E1.83164
G1 X112.656 Y73.863 E.01878
G1 X152.438 Y113.645 E1.83164
G1 X152.438 Y114.222 E.01878
G1 X112.656 Y74.44 E1.83164
G1 X112.656 Y75.017 E.01878
G1 X152.438 Y114.799 E1.83164
G1 X152.438 Y115.376 E.01878
G1 X112.656 Y75.594 E1.83164
G1 X112.656 Y76.17 E.01878
G1 X152.438 Y115.953 E1.83164
G1 X152.438 Y116.529 E.01878
G1 X112.656 Y76.747 E1.83164
G1 X112.656 Y77.324 E.01878
G1 X152.438 Y117.106 E1.83164
G1 X152.438 Y117.683 E.01878
G1 X112.656 Y77.901 E1.83164
G1 X112.656 Y78.477 E.01878
G1 X152.438 Y118.26 E1.83164
G1 X152.438 Y118.837 E.01878
G1 X112.656 Y79.054 E1.83164
G1 X112.656 Y79.631 E.01878
G1 X152.438 Y119.413 E1.83164
G1 X152.438 Y119.99 E.01878
G1 X112.656 Y80.208 E1.83164
G1 X112.656 Y80.785 E.01878
G1 X152.438 Y120.567 E1.83164
G1 X152.438 Y121.144 E.01878
G1 X112.656 Y81.361 E1.83164
G1 X112.656 Y81.938 E.01878
G1 X152.438 Y121.72 E1.83164
G1 X152.438 Y122.297 E.01878
G1 X112.656 Y82.515 E1.83164
G1 X112.656 Y83.092 E.01878
G1 X152.438 Y122.874 E1.83164
G1 X152.438 Y123.451 E.01878
G1 X112.656 Y83.669 E1.83164
G1 X112.656 Y84.245 E.01878
G1 X152.438 Y124.028 E1.83164
G1 X152.438 Y124.604 E.01878
G1 X112.656 Y84.822 E1.83164
G1 X112.656 Y85.399 E.01878
G1 X152.438 Y125.181 E1.83164
G1 X152.438 Y125.758 E.01878
G1 X112.656 Y85.976 E1.83164
G1 X112.656 Y86.552 E.01878
M73 P2 R111
G1 X152.438 Y126.335 E1.83164
G1 X152.438 Y126.912 E.01878
G1 X112.656 Y87.129 E1.83164
G1 X112.656 Y87.706 E.01878
G1 X152.438 Y127.488 E1.83164
G1 X152.438 Y128.065 E.01878
G1 X112.656 Y88.283 E1.83164
G1 X112.656 Y88.86 E.01878
G1 X152.438 Y128.642 E1.83164
G1 X152.438 Y129.219 E.01878
G1 X112.656 Y89.436 E1.83164
G1 X112.656 Y90.013 E.01878
G1 X152.438 Y129.795 E1.83164
G1 X152.438 Y130.372 E.01878
G1 X112.656 Y90.59 E1.83164
G1 X112.656 Y91.167 E.01878
G1 X152.438 Y130.949 E1.83164
G1 X152.438 Y131.526 E.01878
G1 X112.656 Y91.744 E1.83164
G1 X112.656 Y92.32 E.01878
G1 X152.438 Y132.103 E1.83164
G1 X152.438 Y132.679 E.01878
G1 X112.656 Y92.897 E1.83164
G1 X112.656 Y93.474 E.01878
G1 X152.438 Y133.256 E1.83164
G1 X152.438 Y133.833 E.01878
G1 X112.656 Y94.051 E1.83164
G1 X112.656 Y94.627 E.01878
G1 X152.438 Y134.41 E1.83164
G1 X152.438 Y134.987 E.01878
G1 X112.656 Y95.204 E1.83164
G1 X112.656 Y95.781 E.01878
G1 X152.438 Y135.563 E1.83164
G1 X152.438 Y136.14 E.01878
G1 X112.656 Y96.358 E1.83164
G1 X112.656 Y96.935 E.01878
G1 X152.438 Y136.717 E1.83164
G1 X152.438 Y137.294 E.01878
G1 X112.656 Y97.511 E1.83164
G1 X112.656 Y98.088 E.01878
G1 X152.438 Y137.87 E1.83164
G1 X152.438 Y138.447 E.01878
G1 X112.656 Y98.665 E1.83164
G1 X112.656 Y99.242 E.01878
G1 X152.438 Y139.024 E1.83164
G1 X152.438 Y139.601 E.01878
G1 X112.656 Y99.819 E1.83164
G1 X112.656 Y100.395 E.01878
G1 X152.438 Y140.178 E1.83164
G1 X152.438 Y140.754 E.01878
G1 X112.656 Y100.972 E1.83164
G1 X112.656 Y101.549 E.01878
G1 X152.438 Y141.331 E1.83164
G1 X152.438 Y141.908 E.01878
G1 X112.656 Y102.126 E1.83164
G1 X112.656 Y102.702 E.01878
M73 P2 R110
G1 X152.438 Y142.485 E1.83164
G1 X152.438 Y143.062 E.01878
G1 X112.656 Y103.279 E1.83164
G1 X112.656 Y103.856 E.01878
G1 X152.438 Y143.638 E1.83164
G1 X152.438 Y144.215 E.01878
G1 X112.656 Y104.433 E1.83164
G1 X112.656 Y105.01 E.01878
G1 X152.438 Y144.792 E1.83164
G1 X152.438 Y145.369 E.01878
G1 X112.656 Y105.586 E1.83164
G1 X112.656 Y106.163 E.01878
G1 X152.438 Y145.945 E1.83164
G1 X152.438 Y146.522 E.01878
G1 X112.656 Y106.74 E1.83164
G1 X112.656 Y107.317 E.01878
G1 X152.438 Y147.099 E1.83164
G1 X152.438 Y147.676 E.01878
G1 X112.656 Y107.894 E1.83164
G1 X112.656 Y108.47 E.01878
G1 X152.438 Y148.253 E1.83164
G1 X152.438 Y148.829 E.01878
G1 X112.656 Y109.047 E1.83164
G1 X112.656 Y109.624 E.01878
G1 X152.438 Y149.406 E1.83164
G1 X152.438 Y149.983 E.01878
G1 X112.656 Y110.201 E1.83164
G1 X112.656 Y110.777 E.01878
G1 X152.438 Y150.56 E1.83164
G1 X152.438 Y151.137 E.01878
G1 X112.656 Y111.354 E1.83164
G1 X112.656 Y111.931 E.01878
G1 X152.438 Y151.713 E1.83164
G1 X152.438 Y152.29 E.01878
G1 X112.656 Y112.508 E1.83164
G1 X112.656 Y113.085 E.01878
G1 X152.438 Y152.867 E1.83164
G1 X152.438 Y153.338 E.01533
G1 X152.332 Y153.338 E.00345
G1 X112.656 Y113.661 E1.82676
G1 X112.656 Y114.238 E.01878
G1 X151.755 Y153.338 E1.80021
G1 X151.179 Y153.338 E.01878
G1 X112.656 Y114.815 E1.77365
G1 X112.656 Y115.392 E.01878
G1 X150.602 Y153.338 E1.7471
G1 X150.025 Y153.338 E.01878
G1 X112.656 Y115.969 E1.72054
G1 X112.656 Y116.545 E.01878
G1 X149.448 Y153.338 E1.69399
G1 X148.872 Y153.338 E.01878
G1 X112.656 Y117.122 E1.66744
G1 X112.656 Y117.699 E.01878
G1 X148.295 Y153.338 E1.64088
G1 X147.718 Y153.338 E.01878
G1 X112.656 Y118.276 E1.61433
G1 X112.656 Y118.852 E.01878
G1 X147.141 Y153.338 E1.58777
G1 X146.565 Y153.338 E.01878
G1 X112.656 Y119.429 E1.56122
G1 X112.656 Y120.006 E.01878
G1 X145.988 Y153.338 E1.53467
G1 X145.411 Y153.338 E.01878
G1 X112.656 Y120.583 E1.50811
G1 X112.656 Y121.16 E.01878
G1 X144.835 Y153.338 E1.48156
G1 X144.258 Y153.338 E.01878
G1 X112.656 Y121.736 E1.45501
G1 X112.656 Y122.313 E.01878
G1 X143.681 Y153.338 E1.42845
G1 X143.104 Y153.338 E.01878
M73 P3 R110
G1 X112.656 Y122.89 E1.4019
G1 X112.656 Y123.467 E.01878
G1 X142.528 Y153.339 E1.37534
G1 X141.951 Y153.339 E.01878
G1 X112.656 Y124.044 E1.34879
G1 X112.656 Y124.62 E.01878
G1 X141.374 Y153.339 E1.32224
G1 X140.797 Y153.339 E.01878
G1 X112.656 Y125.197 E1.29568
G1 X112.656 Y125.774 E.01878
G1 X140.221 Y153.339 E1.26913
G1 X139.644 Y153.339 E.01878
G1 X112.656 Y126.351 E1.24257
G1 X112.656 Y126.927 E.01878
G1 X139.067 Y153.339 E1.21602
G1 X138.49 Y153.339 E.01878
G1 X112.656 Y127.504 E1.18947
G1 X112.656 Y128.081 E.01878
G1 X137.914 Y153.339 E1.16291
G1 X137.337 Y153.339 E.01878
G1 X112.656 Y128.658 E1.13636
G1 X112.656 Y129.235 E.01878
G1 X136.76 Y153.339 E1.10981
G1 X136.183 Y153.339 E.01878
G1 X112.656 Y129.811 E1.08325
G1 X112.656 Y130.388 E.01878
G1 X135.607 Y153.339 E1.0567
G1 X135.03 Y153.339 E.01878
G1 X112.656 Y130.965 E1.03014
G1 X112.656 Y131.542 E.01878
G1 X134.453 Y153.339 E1.00359
G1 X133.877 Y153.339 E.01878
G1 X112.656 Y132.119 E.97704
G1 X112.656 Y132.695 E.01878
G1 X133.3 Y153.339 E.95048
G1 X132.723 Y153.339 E.01878
G1 X112.656 Y133.272 E.92393
G1 X112.656 Y133.849 E.01878
G1 X132.146 Y153.339 E.89737
G1 X131.57 Y153.339 E.01878
G1 X112.656 Y134.426 E.87082
G1 X112.656 Y135.002 E.01878
G1 X130.993 Y153.34 E.84427
G1 X130.416 Y153.34 E.01878
G1 X112.656 Y135.579 E.81771
G1 X112.656 Y136.156 E.01878
G1 X129.839 Y153.34 E.79116
G1 X129.263 Y153.34 E.01878
G1 X112.656 Y136.733 E.76461
G1 X112.656 Y137.31 E.01878
G1 X128.686 Y153.34 E.73805
G1 X128.109 Y153.34 E.01878
G1 X112.656 Y137.886 E.7115
G1 X112.656 Y138.463 E.01878
G1 X127.532 Y153.34 E.68494
G1 X126.956 Y153.34 E.01878
G1 X112.656 Y139.04 E.65839
G1 X112.656 Y139.617 E.01878
G1 X126.379 Y153.34 E.63184
G1 X125.802 Y153.34 E.01878
G1 X112.656 Y140.194 E.60528
G1 X112.656 Y140.77 E.01878
G1 X125.225 Y153.34 E.57873
G1 X124.649 Y153.34 E.01878
G1 X112.656 Y141.347 E.55218
G1 X112.656 Y141.924 E.01878
G1 X124.072 Y153.34 E.52562
G1 X123.495 Y153.34 E.01878
G1 X112.656 Y142.501 E.49907
M73 P3 R109
G1 X112.656 Y143.077 E.01878
G1 X122.919 Y153.34 E.47251
G1 X122.342 Y153.34 E.01878
G1 X112.656 Y143.654 E.44596
G1 X112.656 Y144.231 E.01878
G1 X121.765 Y153.34 E.41941
G1 X121.188 Y153.34 E.01878
G1 X112.656 Y144.808 E.39285
G1 X112.656 Y145.385 E.01878
G1 X120.612 Y153.34 E.3663
G1 X120.035 Y153.34 E.01878
G1 X112.656 Y145.961 E.33974
G1 X112.656 Y146.538 E.01878
G1 X119.458 Y153.34 E.31319
G1 X118.881 Y153.341 E.01878
G1 X112.656 Y147.115 E.28664
G1 X112.656 Y147.692 E.01878
G1 X118.305 Y153.341 E.26008
G1 X117.728 Y153.341 E.01878
G1 X112.656 Y148.269 E.23353
G1 X112.656 Y148.845 E.01878
G1 X117.151 Y153.341 E.20698
G1 X116.574 Y153.341 E.01878
G1 X112.656 Y149.422 E.18042
G1 X112.656 Y149.999 E.01878
G1 X115.998 Y153.341 E.15387
G1 X115.421 Y153.341 E.01878
G1 X112.656 Y150.576 E.12731
G1 X112.656 Y151.152 E.01878
G1 X114.844 Y153.341 E.10076
