; HEADER_BLOCK_START
; generated by OrcaSlicer 2.3.1 on 2025-12-25 at 11:20:13
; total layer number: 129
; filament_density: 1.31
; filament_diameter: 1.75
; max_z_height: 25.80
; HEADER_BLOCK_END

; THUMBNAIL_BLOCK_START

;
; THUMBNAIL_BLOCK_END

; THUMBNAIL_BLOCK_START

;
; THUMBNAIL_BLOCK_END

; external perimeters extrusion width = 0.40mm
; perimeters extrusion width = 0.44mm
; infill extrusion width = 0.44mm
; solid infill extrusion width = 0.48mm
; top infill extrusion width = 0.38mm
; first layer extrusion width = 0.48mm

; EXECUTABLE_BLOCK_START
M73 P0 R48
;TYPE:Custom
M115 U3.2.3 ; tell printer latest fw version
G90 ; use absolute coordinates
M83 ; extruder relative mode
M204 S10000 T1500 ; MK2 firmware only supports the old M204 format
M104 S230 ; set extruder temp
M140 S55 ; set bed temp
M190 S55 ; wait for bed temp
M109 S230 ; wait for extruder temp
G28 W ; home all without mesh bed level
G80 ; mesh bed leveling
G1 Z0.2 F720
G1 Y-2 F1000 ; go outside print area
G92 E0
G1 X60 E9 F1000 ; intro line
G1 X100 E12.5 F1000 ; intro line
G92 E0
G90
G21
M83 ; use relative distances for extrusion
; Filament gcode
SET_PRESSURE_ADVANCE ADVANCE=0.0775; Override pressure advance value
M106 S0
;LAYER_CHANGE
;Z:0.2
;HEIGHT:0.2
;BEFORE_LAYER_CHANGE
G92 E0.0
;0.2

G1 E-.4 F2100
;AFTER_LAYER_CHANGE
;0.2
;_SET_FAN_SPEED_CHANGING_LAYER
SET_VELOCITY_LIMIT ACCEL=800 ACCEL_TO_DECEL=400
; printing object joy-fidget-complete-low-tolerance.stl id:64 copy 0
G1 Z.6 F10800
G1 X127.472 Y95.805
G1 Z.6
G1 Z.2
G1 E.4 F2100
;TYPE:Inner wall
;WIDTH:0.479999
G1 F1200
G1 X127.049 Y95.831 E.01511
G1 X126.465 Y95.831 E.02078
G1 X125.916 Y95.808 E.01956
G1 X124.829 Y95.7 E.0389
G1 X124.26 Y95.609 E.02055
G1 X123.168 Y95.366 E.03984
G1 X122.098 Y95.037 E.03987
G1 X121.59 Y94.847 E.01932
G1 X120.56 Y94.391 E.04009
G1 X120.048 Y94.125 E.02055
G1 X119.11 Y93.567 E.0389
G1 X118.18 Y92.908 E.04058
G1 X117.752 Y92.564 E.01957
G1 X116.942 Y91.831 E.0389
G1 X116.533 Y91.414 E.0208
G1 X116.165 Y91.007 E.01955
G1 X115.481 Y90.155 E.03891
G1 X115.146 Y89.685 E.02055
G1 X114.555 Y88.736 E.03983
G1 X114.04 Y87.742 E.03987
G1 X113.82 Y87.246 E.01932
G1 X113.424 Y86.192 E.0401
G1 X113.113 Y85.103 E.04032
G1 X112.891 Y83.999 E.04012
G1 X112.816 Y83.462 E.01933
G1 X112.729 Y82.373 E.03891
G1 X112.727 Y81.233 E.04057
G1 X112.819 Y80.098 E.04058
G1 X112.992 Y79.019 E.0389
G1 X113.111 Y78.483 E.01958
G1 X113.425 Y77.387 E.04058
G1 X113.807 Y76.365 E.03888
G1 X114.043 Y75.831 E.02079
G1 X114.286 Y75.338 E.01956
G1 X114.826 Y74.389 E.03891
G1 X115.464 Y73.445 E.04058
G1 X116.178 Y72.557 E.04058
G1 X116.928 Y71.763 E.0389
G1 X117.327 Y71.386 E.01956
G1 X117.768 Y71.003 E.02079
G1 X118.633 Y70.337 E.03888
G1 X119.582 Y69.719 E.04033
G1 X120.572 Y69.183 E.04012
G1 X121.064 Y68.953 E.01933
G1 X122.079 Y68.55 E.03891
G1 X123.168 Y68.213 E.04057
G1 X123.701 Y68.083 E.01956
G1 X124.803 Y67.883 E.03987
G1 X125.917 Y67.771 E.03987
G1 X126.461 Y67.749 E.01939
G1 X127.333 Y67.761 E.03108
G1 X128.17 Y67.817 E.02988
G1 X128.684 Y67.878 E.01843
G1 X129.812 Y68.081 E.04083
G1 X130.913 Y68.375 E.04057
G1 X131.944 Y68.737 E.03891
G1 X132.451 Y68.95 E.01958
G1 X133.472 Y69.454 E.04058
G1 X134.411 Y70.013 E.0389
G1 X134.866 Y70.321 E.01956
G1 X135.769 Y71.016 E.04058
G1 X136.578 Y71.749 E.0389
G1 X136.988 Y72.165 E.0208
G1 X137.356 Y72.572 E.01955
G1 X138.04 Y73.424 E.03891
G1 X138.681 Y74.365 E.04058
G1 X139.244 Y75.356 E.04058
G1 X139.706 Y76.346 E.0389
G1 X139.909 Y76.857 E.01958
G1 X140.266 Y77.939 E.04058
G1 X140.524 Y79 E.03888
G1 X140.628 Y79.574 E.02079
G1 X140.704 Y80.118 E.01956
G1 X140.792 Y81.207 E.0389
G1 X140.793 Y82.346 E.04058
G1 X140.701 Y83.482 E.04058
G1 X140.528 Y84.56 E.0389
G1 X140.409 Y85.097 E.01958
G1 X140.096 Y86.192 E.04058
G1 X139.714 Y87.215 E.03888
G1 X139.477 Y87.749 E.0208
G1 X139.235 Y88.241 E.01956
G1 X138.695 Y89.191 E.03891
G1 X138.056 Y90.134 E.04058
G1 X137.342 Y91.022 E.04057
G1 X136.593 Y91.817 E.03891
G1 X136.194 Y92.194 E.01956
G1 X135.753 Y92.577 E.02079
G1 X134.888 Y93.243 E.03888
G1 X133.939 Y93.86 E.04033
G1 X132.948 Y94.397 E.04012
G1 X132.457 Y94.626 E.01933
G1 X131.441 Y95.03 E.03891
G1 X130.353 Y95.366 E.04058
G1 X129.819 Y95.496 E.01956
G1 X128.711 Y95.697 E.04012
G1 X128.172 Y95.762 E.01933
G1 X127.512 Y95.802 E.02357
G1 X127.5 Y96.263 F10800
;TYPE:Outer wall
G1 F1200
G1 X127.062 Y96.289 E.0156
G1 X126.456 Y96.289 E.0216
G1 X125.884 Y96.266 E.02038
G1 X124.771 Y96.155 E.03986
G1 X124.174 Y96.06 E.02153
G1 X123.051 Y95.81 E.04099
G1 X121.95 Y95.471 E.04101
G1 X121.416 Y95.272 E.02029
G1 X120.362 Y94.804 E.04108
G1 X119.825 Y94.526 E.02153
G1 X118.864 Y93.954 E.03986
G1 X118.39 Y93.633 E.02037
G1 X117.9 Y93.271 E.02169
G1 X117.454 Y92.913 E.02038
G1 X116.625 Y92.162 E.03986
G1 X116.199 Y91.729 E.02161
G1 X115.816 Y91.305 E.02037
G1 X115.115 Y90.432 E.03986
G1 X114.764 Y89.94 E.02153
G1 X114.156 Y88.963 E.04098
G1 X113.627 Y87.94 E.04101
G1 X113.395 Y87.42 E.02029
G1 X112.99 Y86.34 E.04108
G1 X112.812 Y85.76 E.0216
G1 X112.666 Y85.207 E.02037
G1 X112.439 Y84.076 E.04109
G1 X112.36 Y83.512 E.02029
G1 X112.271 Y82.396 E.03986
G1 X112.258 Y81.789 E.02161
G1 X112.269 Y81.215 E.02045
G1 X112.303 Y80.642 E.02045
G1 X112.364 Y80.038 E.02161
G1 X112.542 Y78.933 E.03986
G1 X112.666 Y78.375 E.02038
G1 X112.812 Y77.819 E.02046
G1 X112.99 Y77.239 E.02161
G1 X113.382 Y76.191 E.03985
G1 X113.628 Y75.637 E.02161
G1 X113.881 Y75.124 E.02037
G1 X114.433 Y74.15 E.03986
G1 X114.763 Y73.641 E.02161
G1 X115.095 Y73.173 E.02045
G1 X115.446 Y72.718 E.02045
G1 X115.835 Y72.253 E.02162
G1 X116.603 Y71.438 E.03986
G1 X117.019 Y71.046 E.02037
G1 X117.477 Y70.648 E.02161
G1 X118.364 Y69.965 E.03985
G1 X118.866 Y69.624 E.02161
G1 X119.352 Y69.323 E.02037
G1 X120.366 Y68.773 E.04109
G1 X120.882 Y68.532 E.0203
G1 X121.922 Y68.119 E.03986
G1 X122.498 Y67.928 E.02161
G1 X123.05 Y67.77 E.02045
G1 X123.606 Y67.634 E.02037
G1 X124.739 Y67.429 E.041
G1 X125.884 Y67.314 E.041
G1 X126.454 Y67.291 E.02032
G1 X127.352 Y67.302 E.03197
G1 X128.213 Y67.36 E.03075
G1 X128.748 Y67.424 E.01918
G1 X129.349 Y67.52 E.0217
G1 X129.912 Y67.634 E.02046
G1 X130.47 Y67.77 E.02045
G1 X131.053 Y67.938 E.02162
G1 X132.109 Y68.309 E.03986
G1 X132.636 Y68.531 E.02038
G1 X133.157 Y68.774 E.02045
G1 X133.695 Y69.053 E.02161
G1 X134.657 Y69.626 E.03986
G1 X135.131 Y69.947 E.02037
G1 X135.62 Y70.308 E.02169
G1 X136.066 Y70.667 E.02038
G1 X136.896 Y71.418 E.03986
G1 X137.321 Y71.85 E.02161
G1 X137.705 Y72.275 E.02037
G1 X138.406 Y73.147 E.03986
G1 X138.758 Y73.642 E.02162
G1 X139.071 Y74.123 E.02045
G1 X139.365 Y74.616 E.02045
G1 X139.653 Y75.15 E.02161
G1 X140.127 Y76.164 E.03986
G1 X140.339 Y76.696 E.02038
G1 X140.708 Y77.817 E.04205
G1 X140.973 Y78.904 E.03985
G1 X141.081 Y79.501 E.02161
G1 X141.16 Y80.068 E.02037
G1 X141.221 Y80.831 E.02726
G1 X141.257 Y81.537 E.02518
G1 X141.252 Y82.364 E.02947
G1 X141.217 Y82.937 E.02045
G1 X141.156 Y83.541 E.02161
G1 X140.979 Y84.646 E.03986
G1 X140.855 Y85.205 E.02038
G1 X140.709 Y85.76 E.02046
G1 X140.53 Y86.34 E.02161
G1 X140.139 Y87.388 E.03985
G1 X139.893 Y87.943 E.02161
G1 X139.64 Y88.456 E.02037
G1 X139.087 Y89.429 E.03986
G1 X138.757 Y89.938 E.02161
G1 X138.425 Y90.407 E.02045
G1 X138.075 Y90.862 E.02045
G1 X137.685 Y91.327 E.02161
G1 X136.918 Y92.141 E.03986
G1 X136.501 Y92.534 E.02037
G1 X136.043 Y92.932 E.02161
G1 X135.157 Y93.614 E.03985
G1 X134.655 Y93.955 E.02161
G1 X134.169 Y94.257 E.02037
G1 X133.155 Y94.806 E.04109
G1 X132.638 Y95.048 E.0203
G1 X131.598 Y95.461 E.03986
G1 X131.022 Y95.652 E.02162
G1 X130.47 Y95.81 E.02045
G1 X129.915 Y95.945 E.02037
G1 X128.779 Y96.151 E.04109
G1 X128.214 Y96.219 E.0203
G1 X127.54 Y96.26 E.02405
G1 E-.28 F2100
;WIPE_START
G1 F1200
G1 X127.062 Y96.289 E-.05736
G1 X126.54 Y96.289 E-.06264
;WIPE_END
G1 Z.6 F10800
G1 X115.414 Y89.835 Z.6
G1 Z.2
G1 E.4 F2100
;TYPE:Bottom surface
;WIDTH:0.48525
G1 F3600
G1 X117.206 Y91.628 E.09138
G1 X117.965 Y92.314 E.03686
G1 X118.38 Y92.648 E.01918
G1 X119.287 Y93.291 E.04008
G1 X119.8 Y93.596 E.02155
G1 X114.943 Y88.739 E.24761
G1 X114.84 Y88.574 E.00701
G1 X114.261 Y87.431 E.04617
G1 X121.102 Y94.272 E.34872
G1 X121.713 Y94.543 E.02411
G1 X122.169 Y94.714 E.01752
G1 X113.851 Y86.396 E.42399
G1 X113.735 Y86.087 E.01189
G1 X113.562 Y85.481 E.02271
G1 X123.075 Y94.995 E.48494
G1 X123.899 Y95.193 E.03055
G1 X113.356 Y84.65 E.53742
G1 X113.205 Y83.873 E.02854
G1 X124.675 Y95.343 E.5847
G1 X125.383 Y95.426 E.02568
G1 X113.121 Y83.164 E.62503
G1 X113.067 Y82.484 E.02459
G1 X126.066 Y95.483 E.66264
G1 X126.704 Y95.496 E.02301
G1 X113.045 Y81.837 E.69627
G1 X113.066 Y81.232 E.0218
G1 X127.32 Y95.486 E.72655
G1 X127.909 Y95.45 E.0213
G1 X113.094 Y80.635 E.75519
G1 X113.156 Y80.07 E.02046
G1 X128.48 Y95.395 E.78116
G1 X129.019 Y95.308 E.01967
G1 X113.242 Y79.532 E.80422
G1 X113.335 Y78.998 E.0195
G1 X129.549 Y95.212 E.82649
G1 X130.056 Y95.095 E.01879
G1 X113.457 Y78.495 E.84616
G1 X113.581 Y77.994 E.01862
G1 X130.551 Y94.964 E.86504
G1 X131.033 Y94.82 E.01812
G1 X113.728 Y77.515 E.8821
G1 X113.897 Y77.059 E.01754
G1 X131.494 Y94.656 E.89701
G1 X131.942 Y94.478 E.01736
G1 X114.068 Y76.604 E.91115
G1 X114.259 Y76.17 E.01709
G1 X132.387 Y94.297 E.92403
G1 X132.813 Y94.098 E.01695
G1 X114.458 Y75.743 E.93559
G1 X114.669 Y75.328 E.01678
G1 X133.218 Y93.878 E.94555
G1 X133.624 Y93.658 E.01663
G1 X114.895 Y74.929 E.95468
G1 X115.123 Y74.532 E.01652
G1 X134.017 Y93.426 E.9631
G1 X134.397 Y93.18 E.0163
G1 X115.369 Y74.152 E.96992
G1 X115.631 Y73.789 E.01615
G1 X134.766 Y92.923 E.97535
G1 X135.119 Y92.651 E.01608
G1 X115.897 Y73.429 E.97982
G1 X116.171 Y73.077 E.01607
G1 X135.473 Y92.379 E.98391
G1 X135.806 Y92.087 E.01598
G1 X116.458 Y72.739 E.98626
G1 X116.761 Y72.417 E.01595
M73 P1 R48
G1 X136.135 Y91.79 E.98754
G1 X136.456 Y91.485 E.01595
G1 X117.065 Y72.095 E.98842
G1 X117.386 Y71.79 E.01595
G1 X136.759 Y91.163 E.98754
G1 X137.063 Y90.841 E.01595
G1 X117.714 Y71.493 E.98626
G1 X118.048 Y71.201 E.01598
G1 X137.35 Y90.503 E.98391
G1 X137.623 Y90.151 E.01607
G1 X118.401 Y70.929 E.97982
G1 X118.755 Y70.657 E.01608
G1 X137.889 Y89.791 E.97536
G1 X138.151 Y89.427 E.01615
G1 X119.124 Y70.4 E.96992
G1 X119.503 Y70.154 E.0163
G1 X138.397 Y89.048 E.9631
G1 X138.625 Y88.65 E.01652
G1 X119.896 Y69.922 E.95468
G1 X120.302 Y69.702 E.01663
G1 X138.852 Y88.251 E.94555
G1 X139.062 Y87.836 E.01678
G1 X120.708 Y69.482 E.93559
G1 X121.134 Y69.282 E.01695
G1 X139.261 Y87.41 E.92403
G1 X139.453 Y86.976 E.01709
G1 X121.578 Y69.101 E.91115
G1 X122.026 Y68.923 E.01736
G1 X139.623 Y86.521 E.89701
G1 X139.793 Y86.064 E.01754
G1 X122.488 Y68.76 E.8821
G1 X122.97 Y68.616 E.01812
G1 X139.94 Y85.586 E.86504
G1 X140.064 Y85.085 E.01862
G1 X123.464 Y68.485 E.84616
G1 X123.972 Y68.367 E.01879
G1 X140.186 Y84.581 E.82649
G1 X140.278 Y84.048 E.0195
G1 X124.502 Y68.271 E.80422
G1 X125.044 Y68.188 E.01979
G1 X140.365 Y83.509 E.78096
G1 X140.426 Y82.945 E.02046
G1 X125.613 Y68.131 E.75511
G1 X126.2 Y68.092 E.02119
G1 X140.454 Y82.347 E.72663
G1 X140.475 Y81.743 E.0218
G1 X126.814 Y68.082 E.69637
G1 X127.455 Y68.097 E.02312
G1 X140.454 Y81.096 E.66258
G1 X140.399 Y80.416 E.02459
G1 X128.126 Y68.142 E.62562
G1 X128.853 Y68.244 E.02646
G1 X140.304 Y79.695 E.58371
G1 X140.171 Y78.936 E.02776
G1 X129.62 Y68.386 E.53781
G1 X130.44 Y68.579 E.03034
G1 X139.97 Y78.11 E.4858
G1 X139.783 Y77.485 E.02351
G1 X139.671 Y77.185 E.01155
G1 X131.368 Y68.882 E.42321
G1 X131.825 Y69.043 E.01744
G1 X132.417 Y69.306 E.02336
G1 X139.245 Y76.134 E.34804
G1 X138.951 Y75.504 E.02505
G1 X138.58 Y74.843 E.02733
G1 X133.72 Y69.983 E.24772
G1 X134.234 Y70.289 E.02156
G1 X135.141 Y70.932 E.04008
G1 X135.556 Y71.265 E.01918
G1 X136.313 Y71.951 E.03681
G1 X138.107 Y73.744 E.09144
G1 E-.28 F2100
;WIPE_START
G1 F3600
G1 X137.4 Y73.037 E-.12
;WIPE_END
G1 Z.6 F10800
G1 X116.842 Y109.857 Z.6
G1 Z.2
G1 E.4 F2100
;TYPE:Outer wall
;WIDTH:0.665076
G1 F1200
G1 X116.856 Y109.852 E.00075
;WIDTH:0.647134
G1 X118.161 Y109.449 E.06727
;WIDTH:0.659702
G1 X119.061 Y109.224 E.04658
;WIDTH:0.663466
G1 X119.716 Y109.093 E.03381
G1 X120.936 Y108.905 E.0624
;WIDTH:0.667658
G1 X122.397 Y108.787 E.07463
;WIDTH:0.65987
G1 X122.911 Y108.775 E.02582
;WIDTH:0.665202
G1 X124.425 Y108.806 E.0768
;WIDTH:0.668132
G1 X125.62 Y108.919 E.06117
;WIDTH:0.660642
G1 X126.437 Y109.034 E.04151
;WIDTH:0.668626
G1 X127.754 Y109.299 E.0685
;WIDTH:0.65832
G1 X128.334 Y109.452 E.03008
;WIDTH:0.659118
G1 X129.058 Y109.659 E.03785
;WIDTH:0.661818
G1 X130.178 Y110.048 E.05977
;WIDTH:0.668832
G1 X131.585 Y110.649 E.07804
;WIDTH:0.657302
G1 X132.168 Y110.944 E.03271
;WIDTH:0.66876
G1 X133.359 Y111.613 E.06966
;WIDTH:0.656642
G1 X133.942 Y111.976 E.03434
;WIDTH:0.668698
G1 X135.041 Y112.758 E.06879
;WIDTH:0.656822
G1 X135.594 Y113.202 E.03548
;WIDTH:0.654556
G1 X136.123 Y113.648 E.03448
;WIDTH:0.659144
G1 X137.069 Y114.541 E.0653
G1 X137.583 Y115.09 E.03777
;WIDTH:0.655468
G1 X138.045 Y115.605 E.03454
;WIDTH:0.668366
G1 X138.879 Y116.658 E.06846
;WIDTH:0.653964
G1 X139.287 Y117.238 E.03532
;WIDTH:0.654836
G1 X139.671 Y117.814 E.03451
;WIDTH:0.667944
G1 X140.349 Y118.982 E.06877
;WIDTH:0.667684
G1 X140.951 Y120.197 E.06907
;WIDTH:0.659706
G1 X141.156 Y120.656 E.02528
;WIDTH:0.667622
G1 X141.403 Y121.281 E.03419
G1 X141.711 Y122.143 E.04657
;WIDTH:0.666918
G1 X142.025 Y123.207 E.05641
G1 X142.331 Y124.524 E.06877
;WIDTH:0.660146
G1 X142.447 Y125.185 E.03378
;WIDTH:0.666422
G1 X142.539 Y125.872 E.03517
G1 X142.654 Y127.198 E.06767
;WIDTH:0.666018
G1 X142.685 Y128.355 E.05873
;WIDTH:0.648044
G1 X142.631 Y129.592 E.06107
;WIDTH:0.647686
G1 X142.486 Y130.951 E.06733
;WIDTH:0.659848
G1 X142.33 Y131.902 E.04849
;WIDTH:0.664406
G1 X142.185 Y132.576 E.0349
G1 X141.912 Y133.628 E.05503
;WIDTH:0.64987
G1 X141.704 Y134.292 E.03445
;WIDTH:0.654556
G1 X141.235 Y135.575 E.06809
G1 X140.957 Y136.21 E.0345
;WIDTH:0.667906
G1 X140.583 Y136.992 E.04419
G1 X140.272 Y137.587 E.03421
;WIDTH:0.668172
G1 X139.655 Y138.622 E.06137
;WIDTH:0.6683
G1 X139.2 Y139.307 E.04191
G1 X138.801 Y139.869 E.03512
;WIDTH:0.658646
G1 X138.466 Y140.295 E.02717
;WIDTH:0.66022
G1 X137.965 Y140.907 E.03977
G1 X137.081 Y141.867 E.06568
;WIDTH:0.65456
G1 X136.091 Y142.803 E.06788
;WIDTH:0.657834
G1 X135.552 Y143.259 E.0354
;WIDTH:0.658068
G1 X135.025 Y143.676 E.03368
G1 X133.938 Y144.446 E.06678
;WIDTH:0.656988
G1 X133.336 Y144.827 E.03565
G1 X132.753 Y145.162 E.03365
;WIDTH:0.66885
G1 X131.541 Y145.793 E.06968
;WIDTH:0.65618
G1 X130.913 Y146.07 E.0343
;WIDTH:0.655048
G1 X130.274 Y146.336 E.03452
;WIDTH:0.659054
G1 X129.017 Y146.776 E.06687
;WIDTH:0.668734
G1 X127.659 Y147.144 E.07173
;WIDTH:0.655466
G1 X126.982 Y147.288 E.03456
;WIDTH:0.660784
G1 X125.692 Y147.499 E.06585
;WIDTH:0.668404
G1 X124.266 Y147.623 E.07291
;WIDTH:0.652086
G1 X123.575 Y147.644 E.03436
;WIDTH:0.668102
G1 X122.209 Y147.624 E.06959
;WIDTH:0.654476
G1 X121.524 Y147.574 E.03421
;WIDTH:0.667514
G1 X120.382 Y147.436 E.05853
G1 X119.51 Y147.288 E.04505
;WIDTH:0.659716
G1 X118.398 Y147.038 E.05726
;WIDTH:0.659828
G1 X117.751 Y146.86 E.03377
;WIDTH:0.666844
G1 X117.111 Y146.655 E.03415
G1 X115.843 Y146.185 E.06876
;WIDTH:0.666454
G1 X114.611 Y145.627 E.06871
;WIDTH:0.666132
G1 X113.736 Y145.169 E.05015
;WIDTH:0.654526
G1 X113.126 Y144.808 E.03535
;WIDTH:0.66544
G1 X112.283 Y144.265 E.05084
G1 X111.428 Y143.646 E.05355
;WIDTH:0.664774
G1 X110.674 Y143.039 E.04908
G1 X109.861 Y142.313 E.05523
;WIDTH:0.653878
G1 X109.37 Y141.825 E.03446
;WIDTH:0.667354
G1 X108.743 Y141.156 E.04665
G1 X108.303 Y140.648 E.03417
;WIDTH:0.663494
G1 X107.592 Y139.737 E.05843
;WIDTH:0.646512
G1 X106.821 Y138.609 E.0672
;WIDTH:0.662108
G1 X106.377 Y137.879 E.04313
;WIDTH:0.668264
G1 X105.74 Y136.673 E.06949
;WIDTH:0.658794
G1 X105.521 Y136.195 E.02642
;WIDTH:0.660656
G1 X105.202 Y135.455 E.04057
G1 X104.756 Y134.232 E.0655
;WIDTH:0.659806
G1 X104.546 Y133.54 E.03635
;WIDTH:0.668776
G1 X104.238 Y132.286 E.06588
G1 X103.987 Y130.901 E.07175
;WIDTH:0.658158
G1 X103.904 Y130.214 E.03471
G1 X103.812 Y128.89 E.06653
;WIDTH:0.66891
G1 X103.812 Y127.518 E.06999
;WIDTH:0.656674
G1 X103.855 Y126.834 E.03429
