M118 E1 OCTOAPP_DISABLE_LAYER_MAXIC
; HEADER_BLOCK_START
; generated by OrcaSlicer 2.3.0 on 2025-10-26 at 10:39:46
; total layer number: 50
;_GP_TOTAL_LAYER_NUMBER_PLACEHOLDER
; filament_density: 1.31
; filament_diameter: 1.75
; max_z_height: 10.00
; HEADER_BLOCK_END
; THUMBNAIL_BLOCK_START
;
; THUMBNAIL_BLOCK_END
; THUMBNAIL_BLOCK_START
;
; THUMBNAIL_BLOCK_END
; external perimeters extrusion width = 0.45mm
; perimeters extrusion width = 0.45mm
; infill extrusion width = 0.45mm
; solid infill extrusion width = 0.45mm
; top infill extrusion width = 0.40mm
; EXECUTABLE_BLOCK_START
M73 P0 R5
M201 X1000 Y1000 Z200 E800
M203 X200 Y200 Z12 E120
M204 P1250 R1000 T1250
M205 X10.00 Y10.00 Z0.40 E5.00 ; sets the jerk limits, mm/sec
;TYPE:Custom
M862.3 P "" ; printer model check
M862.1 P0.4 ; nozzle diameter check
M115 U3.2.3 ; tell printer latest fw version
G90 ; use absolute coordinates
M83 ; extruder relative mode
M204 S1250 T1000 ; MK2 firmware only supports the old M204 format
M104 S220 ; set extruder temp
M140 S55 ; set bed temp
M190 S55 ; wait for bed temp
M109 S220 ; wait for extruder temp
G28 W ; home all without mesh bed level
G80 ; mesh bed leveling
G1 Z2.0 F3000 ;Move Z Axis up
G1 X107.357 Y97.3573 Z0.8 F5000 ; Move to start
M109 S220 ; wait for nozzle temp to stabilize
G92 E0 ;Reset Extruder
G1 X107.357 Y127.357 E30 F360.0 ; Extrude 30mm in Y
G92 E0 ;Reset Extruder
G1 E-0.5 F2100 ; Retract
M73 P2 R5
G1 Y137.357 F5000 ; Move 10mm in Y
G92 E0  ;Reset Extrude
G90
G21
M83 ; use relative distances for extrusion
; Filament gcode
M106 S0
;LAYER_CHANGE
M117 DASHBOARD_LAYER_INDICATOR 1
M118 E1 OCTOAPP_LAYER LAYER=0
M117 DASHBOARD_LAYER_INDICATOR 1
;Z:0.2
;HEIGHT:0.2
;BEFORE_LAYER_CHANGE
G92 E0.0
;0.2
G1 E-.8 F1800
;_SET_FAN_SPEED_CHANGING_LAYER
M204 S300
; printing object Kiinnike v3.stl id:1398458 copy 0
G1 X121.955 Y107.545 F7200
G1 Z.6
G1 Z.2
G1 E.8 F1800
;TYPE:Inner wall
;WIDTH:0.449999
G1 F1200
G1 X121.711 Y107.186 E.01411
G1 X121.418 Y106.715 E.01803
G1 X121.208 Y106.183 E.01859
G1 X121.071 Y105.583 E.01998
G1 X121.029 Y104.976 E.01977
G1 X121.082 Y104.34 E.02075
G1 X121.21 Y103.829 E.0171
G1 X121.442 Y103.258 E.02002
G1 X121.808 Y102.637 E.02342
G1 X122.355 Y102.04 E.02632
G1 X122.891 Y101.65 E.02153
G1 X123.37 Y101.382 E.01786
G1 X123.86 Y101.196 E.01703
G1 X124.482 Y101.06 E.02067
G1 X125.003 Y101.033 E.01697
G1 X125.59 Y101.083 E.01912
G1 X126.148 Y101.205 E.01857
G1 X126.75 Y101.435 E.02096
G1 X127.182 Y101.697 E.0164
G1 X127.665 Y102.055 E.01952
G1 X128.045 Y102.48 E.01855
G1 X128.365 Y102.905 E.01729
G1 X128.623 Y103.4 E.01815
G1 X128.807 Y103.886 E.01687
G1 X128.927 Y104.393 E.01693
G1 X128.971 Y105.024 E.02055
G1 X128.918 Y105.66 E.02075
G1 X128.79 Y106.171 E.0171
G1 X128.558 Y106.742 E.02002
G1 X128.192 Y107.363 E.02342
G1 X127.645 Y107.96 E.02632
G1 X126.977 Y108.446 E.02685
G1 X126.502 Y108.671 E.01707
G1 X126.02 Y108.83 E.01649
G1 X125.477 Y108.945 E.01805
G1 X124.846 Y108.968 E.02053
G1 X124.211 Y108.894 E.02078
M73 P2 R4
G1 X123.704 Y108.749 E.01712
G1 X123.142 Y108.498 E.02001
G1 X122.533 Y108.113 E.02341
G1 X121.983 Y107.573 E.02503
M73 P3 R4
G1 X121.638 Y107.804 F7200
G1 F1200
G1 X121.245 Y107.226 E.02271
G1 X120.995 Y106.775 E.01675
G1 X120.817 Y106.3 E.01648
G1 X120.668 Y105.648 E.02174
G1 X120.622 Y104.974 E.02194
G1 X120.661 Y104.441 E.01737
G1 X120.748 Y103.94 E.01653
G1 X120.902 Y103.456 E.01648
G1 X121.181 Y102.853 E.02159
G1 X121.485 Y102.387 E.01809
G1 X122.083 Y101.735 E.02873
G1 X122.807 Y101.208 E.02911
G1 X123.418 Y100.922 E.02193
G1 X123.908 Y100.757 E.01679
G1 X124.424 Y100.657 E.01709
G1 X125.006 Y100.626 E.01895
G1 X125.646 Y100.68 E.02084
G1 X126.26 Y100.814 E.02044
G1 X126.937 Y101.073 E.02355
G1 X127.393 Y101.349 E.01731
G1 X127.946 Y101.759 E.02239
G1 X128.549 Y102.433 E.02938
G1 X128.846 Y102.904 E.01809
G1 X129.119 Y103.51 E.02159
G1 X129.265 Y103.997 E.01654
G1 X129.347 Y104.506 E.01676
G1 X129.378 Y105.026 E.01691
G1 X129.339 Y105.559 E.01737
G1 X129.252 Y106.06 E.01653
G1 X129.098 Y106.544 E.01648
G1 X128.819 Y107.147 E.02159
G1 X128.515 Y107.613 E.01809
G1 X127.917 Y108.265 E.02873
G1 X127.349 Y108.679 E.02284
G1 X126.907 Y108.945 E.01677
G1 X126.434 Y109.14 E.01662
G1 X125.858 Y109.297 E.0194
G1 X125.357 Y109.36 E.01639
G1 X124.83 Y109.375 E.01714
G1 X124.297 Y109.318 E.01742
G1 X123.8 Y109.214 E.01651
G1 X123.321 Y109.045 E.01648
G1 X122.728 Y108.746 E.02159
G1 X122.272 Y108.427 E.01808
G1 X121.666 Y107.832 E.0276
G1 X121.301 Y108.032 F7200
G1 F1200
G1 X120.909 Y107.455 E.02271
G1 X120.62 Y106.936 E.01927
G1 X120.426 Y106.417 E.01801
G1 X120.265 Y105.712 E.0235
G1 X120.215 Y104.972 E.02411
G1 X120.257 Y104.397 E.01872
G1 X120.354 Y103.837 E.01848
G1 X120.521 Y103.308 E.01801
G1 X120.824 Y102.656 E.02338
G1 X121.162 Y102.137 E.02013
G1 X121.81 Y101.43 E.03115
G1 X122.59 Y100.862 E.03137
G1 X123.06 Y100.629 E.01703
G1 X123.627 Y100.416 E.01968
G1 X124.179 Y100.29 E.01839
G1 X124.75 Y100.217 E.01872
G1 X125.304 Y100.222 E.018
G1 X126.017 Y100.321 E.02339
G1 X126.623 Y100.495 E.0205
G1 X127.124 Y100.71 E.0177
G1 X127.814 Y101.127 E.02621
G1 X128.228 Y101.463 E.01733
G1 X128.875 Y102.187 E.03154
G1 X129.206 Y102.711 E.02012
G1 X129.501 Y103.367 E.02339
G1 X129.661 Y103.9 E.01807
G1 X129.752 Y104.469 E.01873
G1 X129.785 Y105.028 E.0182
G1 X129.743 Y105.603 E.01872
G1 X129.646 Y106.163 E.01848
G1 X129.479 Y106.692 E.01801
G1 X129.176 Y107.344 E.02338
G1 X128.838 Y107.863 E.02013
G1 X128.19 Y108.57 E.03115
G1 X127.589 Y109.008 E.02416
G1 X127.08 Y109.313 E.01929
G1 X126.565 Y109.526 E.01809
G1 X125.944 Y109.695 E.02094
G1 X125.381 Y109.766 E.01842
G1 X124.814 Y109.782 E.01843
G1 X124.24 Y109.721 E.01877
G1 X123.684 Y109.605 E.01846
G1 X123.161 Y109.42 E.01801
G1 X122.519 Y109.096 E.02338
G1 X122.011 Y108.741 E.02012
G1 X121.327 Y108.07 E.03115
G1 X121.324 Y108.066 E.00017
G1 X120.947 Y108.273 F7200
;TYPE:Outer wall
G1 F1200
M73 P4 R4
G1 X120.554 Y107.695 E.02271
G1 X120.226 Y107.106 E.02192
G1 X120.015 Y106.541 E.01962
G1 X119.841 Y105.78 E.02536
G1 X119.786 Y104.969 E.0264
G1 X119.831 Y104.351 E.02013
G1 X119.939 Y103.729 E.02054
G1 X120.121 Y103.153 E.01963
G1 X120.448 Y102.448 E.02527
G1 X120.822 Y101.873 E.02228
G1 X121.523 Y101.109 E.03369
G1 X122.362 Y100.497 E.03374
G1 X122.896 Y100.233 E.01937
G1 X123.504 Y100.006 E.02107
G1 X124.097 Y99.869 E.01977
G1 X124.732 Y99.789 E.02079
G1 X125.335 Y99.793 E.01961
G1 X126.106 Y99.9 E.02528
G1 X126.768 Y100.09 E.02238
G1 X127.32 Y100.328 E.01955
G1 X128.061 Y100.776 E.02813
G1 X128.525 Y101.152 E.01941
G1 X129.218 Y101.928 E.03382
G1 X129.584 Y102.507 E.02226
G1 X129.904 Y103.217 E.02529
G1 X130.118 Y104.007 E.02661
G1 X130.188 Y104.527 E.01705
G1 X130.214 Y105.031 E.01637
G1 X130.169 Y105.649 E.02013
G1 X130.061 Y106.271 E.02054
G1 X129.879 Y106.847 E.01963
G1 X129.552 Y107.552 E.02527
G1 X129.178 Y108.127 E.02228
G1 X128.477 Y108.891 E.03369
G1 X127.638 Y109.503 E.03374
G1 X126.976 Y109.82 E.02384
G1 X126.347 Y110.029 E.02153
G1 X125.815 Y110.15 E.01772
G1 X125.299 Y110.201 E.01687
G1 X124.798 Y110.21 E.01628
G1 X124.18 Y110.145 E.02019
G1 X123.562 Y110.016 E.02051
G1 X122.993 Y109.815 E.01963
G1 X122.299 Y109.465 E.02526
G1 X121.737 Y109.072 E.02227
G1 X120.996 Y108.346 E.03369
G1 X120.969 Y108.306 E.00156
G1 E-.08 F1800
;WIPE_START
G1 F1200
G1 X120.554 Y107.695 E-.53189
G1 X120.427 Y107.467 E-.18811
;WIPE_END
G1 X127.185 Y103.92 Z.6 F7200
G1 X128.429 Y103.267 Z.6
G1 Z.2
G1 E.8 F1800
;TYPE:Bottom surface
;WIDTH:0.471599
G1 F3600
G1 X127.377 Y102.214 E.05095
G1 X127.169 Y102.045 E.00917
G1 X126.61 Y101.708 E.02233
G1 X126.246 Y101.551 E.01356
G1 X126.051 Y101.495 E.00694
G1 X128.508 Y103.952 E.11888
G1 X128.573 Y104.168 E.00772
G1 X128.625 Y104.436 E.00935
G1 X128.649 Y104.699 E.00903
G1 X125.301 Y101.351 E.16199
G1 X124.939 Y101.338 E.0124
G1 X124.697 Y101.353 E.00832
G1 X128.649 Y105.306 E.19129
G1 X128.616 Y105.613 E.01058
M73 P5 R4
G1 X128.571 Y105.833 E.0077
G1 X124.169 Y101.432 E.21301
G1 X123.816 Y101.528 E.01252
G1 X123.705 Y101.574 E.00412
G1 X128.428 Y106.297 E.22855
G1 X128.236 Y106.711 E.01562
G1 X123.285 Y101.76 E.23957
G1 X123.185 Y101.813 E.00387
G1 X122.923 Y102.004 E.01111
G1 X128.007 Y107.088 E.24601
G1 X127.95 Y107.175 E.00355
G1 X127.729 Y107.416 E.0112
G1 X122.573 Y102.26 E.24953
G1 X122.56 Y102.269 E.00054
G1 X122.28 Y102.574 E.01415
G1 X127.438 Y107.732 E.24962
G1 X127.088 Y107.988 E.01485
G1 X122.001 Y102.901 E.24618
G1 X121.77 Y103.276 E.01509
G1 X126.727 Y108.233 E.23988
G1 X126.308 Y108.421 E.0157
G1 X121.578 Y103.691 E.22891
G1 X121.432 Y104.151 E.01653
G1 X125.843 Y108.562 E.21347
G1 X125.707 Y108.599 E.00483
G1 X125.324 Y108.648 E.01324
G1 X121.352 Y104.677 E.19217
G1 X121.335 Y104.838 E.00554
G1 X121.334 Y105.112 E.00936
G1 X121.349 Y105.28 E.00578
G1 X124.727 Y108.658 E.16346
M73 P6 R4
G1 X124.268 Y108.594 E.01586
G1 X123.988 Y108.525 E.00987
G1 X121.484 Y106.021 E.12117
G1 X121.65 Y106.493 E.01712
G1 X121.755 Y106.708 E.00819
G1 X122.158 Y107.302 E.02457
G1 X123.296 Y108.439 E.05503
; stop printing object Kiinnike v3.stl id:1398458 copy 0
M106 S255
;LAYER_CHANGE
M117 DASHBOARD_LAYER_INDICATOR 2
M118 E1 OCTOAPP_LAYER LAYER=1
M117 DASHBOARD_LAYER_INDICATOR 2
;Z:0.4
;HEIGHT:0.2
;BEFORE_LAYER_CHANGE
G92 E0.0
;0.4
G1 E-.3 F1800
;WIPE_START
G1 F3600
G1 X122.589 Y107.732 E-.5
;WIPE_END
;_SET_FAN_SPEED_CHANGING_LAYER
M204 S500
; printing object Kiinnike v3.stl id:1398458 copy 0
M204 S180
G1 X121.618 Y107.74 Z.8 F7200
G1 Z.4
G1 E.8 F1800
M204 S300
;TYPE:Inner wall
;WIDTH:0.449999
G1 F3600
G1 X121.464 Y107.558 E.00776
G1 X121.085 Y106.946 E.02338
G1 X120.846 Y106.361 E.02054
G1 X120.736 Y105.879 E.01609
G1 X120.633 Y105.253 E.0206
G1 X120.634 Y104.73 E.01699
G1 X120.715 Y104.161 E.01867
G1 X120.849 Y103.654 E.01705
G1 X121.091 Y103.069 E.02055
G1 X121.366 Y102.581 E.01822
G1 X121.811 Y102.01 E.02353
G1 X122.29 Y101.568 E.02116
G1 X122.753 Y101.248 E.0183
G1 X123.202 Y101.013 E.01648
G1 X123.76 Y100.814 E.01924
G1 X124.325 Y100.678 E.01889
G1 X124.846 Y100.629 E.01699
G1 X125.416 Y100.654 E.01855
G1 X125.935 Y100.737 E.01708
G1 X126.545 Y100.923 E.02072
G1 X127.055 Y101.148 E.01812
G1 X127.667 Y101.536 E.02355
G1 X128.153 Y101.97 E.02118
G1 X128.514 Y102.396 E.01816
G1 X128.811 Y102.857 E.0178
G1 X129.149 Y103.619 E.02712
G1 X129.304 Y104.261 E.02144
G1 X129.366 Y105.015 E.0246
G1 X129.333 Y105.594 E.01884
G1 X129.235 Y106.092 E.0165
G1 X129.059 Y106.627 E.01828
G1 X128.771 Y107.211 E.02118
G1 X128.349 Y107.801 E.02354
G1 X127.923 Y108.235 E.01979
G1 X127.442 Y108.617 E.01996
G1 X126.819 Y108.976 E.02337
G1 X126.205 Y109.204 E.02127
G1 X125.717 Y109.315 E.01625
G1 X125.126 Y109.364 E.01929
G1 X124.546 Y109.35 E.01884
G1 X124.045 Y109.268 E.01649
G1 X123.506 Y109.109 E.01828
G1 X122.912 Y108.841 E.02118
G1 X122.309 Y108.438 E.02355
G1 X121.861 Y108.026 E.01979
G1 X121.644 Y107.771 E.01089
M204 S180
G1 X121.329 Y108.06 F7200
M204 S300
G1 F3600
G1 X120.981 Y107.59 E.01902
G1 X120.718 Y107.124 E.01737
G1 X120.457 Y106.484 E.02246
G1 X120.339 Y105.969 E.01716
G1 X120.24 Y105.419 E.01817
G1 X120.227 Y104.898 E.01693
G1 X120.264 Y104.346 E.01799
G1 X120.371 Y103.804 E.01793
G1 X120.563 Y103.219 E.02002
G1 X120.875 Y102.586 E.02293
G1 X121.17 Y102.138 E.01745
G1 X121.516 Y101.728 E.01744
G1 X122.035 Y101.25 E.02291
G1 X122.542 Y100.899 E.02004
G1 X123.03 Y100.643 E.01792
G1 X123.547 Y100.452 E.0179
G1 X124.088 Y100.31 E.01816
G1 X124.641 Y100.239 E.01812
G1 X125.192 Y100.223 E.01792
G1 X125.741 Y100.277 E.01793
G1 X126.343 Y100.412 E.02003
G1 X127.003 Y100.66 E.02292
G1 X127.477 Y100.91 E.01744
G1 X127.919 Y101.215 E.01744
G1 X128.445 Y101.685 E.02293
G1 X128.842 Y102.154 E.01994
G1 X129.17 Y102.663 E.01968
G1 X129.452 Y103.297 E.02255
G1 X129.632 Y103.812 E.01774
G1 X129.739 Y104.364 E.01828
G1 X129.773 Y105.102 E.02399
G1 X129.736 Y105.654 E.01799
G1 X129.629 Y106.196 E.01793
G1 X129.437 Y106.781 E.02002
G1 X129.125 Y107.414 E.02293
G1 X128.83 Y107.862 E.01745
G1 X128.484 Y108.272 E.01744
G1 X127.965 Y108.75 E.02291
G1 X127.458 Y109.101 E.02004
G1 X126.984 Y109.349 E.01737
G1 X126.321 Y109.595 E.02298
G1 X125.606 Y109.739 E.02372
G1 X125.052 Y109.774 E.01804
G1 X124.499 Y109.755 E.01796
G1 X123.955 Y109.666 E.01793
G1 X123.364 Y109.492 E.02003
G1 X122.721 Y109.201 E.02292
G1 X122.263 Y108.921 E.01745
G1 X121.842 Y108.588 E.01744
G1 X121.354 Y108.091 E.02264
M204 S180
G1 X121.002 Y108.302 F7200
M204 S300
G1 F3600
G1 X120.639 Y107.812 E.01983
G1 X120.35 Y107.302 E.01903
G1 X120.067 Y106.607 E.02438
G1 X119.942 Y106.06 E.01824
G1 X119.835 Y105.457 E.01989
G1 X119.82 Y104.897 E.0182
G1 X119.861 Y104.286 E.01993
G1 X119.976 Y103.701 E.01937
G1 X120.185 Y103.065 E.02176
G1 X120.521 Y102.384 E.02467
G1 X120.843 Y101.893 E.01906
G1 X121.222 Y101.445 E.01906
M73 P7 R4
G1 X121.78 Y100.931 E.02466
G1 X122.331 Y100.55 E.02177
G1 X123.042 Y100.199 E.02579
G1 X123.517 Y100.036 E.01629
G1 X124.01 Y99.91 E.01654
G1 X124.602 Y99.834 E.0194
G1 X125.213 Y99.816 E.01986
G1 X125.806 Y99.874 E.01937
G1 X126.459 Y100.021 E.02177
G1 X127.17 Y100.288 E.02467
G1 X127.689 Y100.561 E.01906
G1 X128.171 Y100.895 E.01906
G1 X128.738 Y101.401 E.02467
G1 X129.169 Y101.911 E.02172
G1 X129.529 Y102.468 E.02156
G1 X129.824 Y103.131 E.02357
G1 X130.028 Y103.715 E.02008
G1 X130.143 Y104.306 E.01958
G1 X130.18 Y105.103 E.02591
G1 X130.139 Y105.714 E.01993
G1 X130.024 Y106.299 E.01937
G1 X129.815 Y106.935 E.02176
G1 X129.479 Y107.616 E.02467
G1 X129.157 Y108.107 E.01906
G1 X128.778 Y108.555 E.01906
G1 X128.22 Y109.069 E.02466
G1 X127.669 Y109.45 E.02177
G1 X127.15 Y109.722 E.01903
G1 X126.438 Y109.985 E.02469
G1 X125.657 Y110.143 E.02587
G1 X125.064 Y110.181 E.01931
G1 X124.452 Y110.16 E.0199
G1 X123.864 Y110.063 E.01936
G1 X123.222 Y109.875 E.02177
G1 X122.53 Y109.561 E.02467
G1 X122.03 Y109.255 E.01906
G1 X121.57 Y108.891 E.01906
G1 X121.038 Y108.35 E.02467
G1 X121.026 Y108.334 E.00064
M204 S180
G1 X120.658 Y108.557 F7200
M204 S500
;TYPE:Outer wall
G1 F3600
G1 X120.279 Y108.046 E.02069
G1 X119.964 Y107.489 E.02078
G1 X119.657 Y106.737 E.02641
G1 X119.489 Y106.001 E.0245
G1 X119.408 Y105.498 E.01658
G1 X119.391 Y104.897 E.01953
G1 X119.436 Y104.222 E.02197
G1 X119.561 Y103.592 E.02088
G1 X119.788 Y102.902 E.0236
G1 X120.148 Y102.17 E.02651
G1 X120.499 Y101.637 E.02076
G1 X120.912 Y101.148 E.02076
G1 X121.511 Y100.596 E.0265
G1 X121.831 Y100.375 E.01263
G1 X122.408 Y100.026 E.02191
G1 X122.88 Y99.802 E.01699
G1 X123.406 Y99.622 E.01803
G1 X123.928 Y99.49 E.01752
G1 X124.561 Y99.407 E.02074
G1 X125.234 Y99.387 E.02189
G1 X125.874 Y99.45 E.02088
G1 X126.583 Y99.609 E.0236
G1 X127.346 Y99.897 E.02651
G1 X127.911 Y100.194 E.02076
G1 X128.437 Y100.558 E.02076
G1 X129.045 Y101.101 E.02651
G1 X129.514 Y101.655 E.0236
G1 X129.907 Y102.264 E.02354
G1 X130.215 Y102.957 E.02465
G1 X130.444 Y103.612 E.02255
G1 X130.567 Y104.245 E.02094
G1 X130.609 Y105.103 E.02792
G1 X130.564 Y105.778 E.02197
G1 X130.439 Y106.408 E.02088
G1 X130.212 Y107.098 E.0236
G1 X129.852 Y107.83 E.02651
G1 X129.501 Y108.363 E.02076
G1 X129.088 Y108.852 E.02076
G1 X128.489 Y109.404 E.02651
G1 X128.149 Y109.639 E.01342
G1 X127.614 Y109.963 E.02032
G1 X126.886 Y110.277 E.02576
G1 X126.222 Y110.474 E.02251
G1 X125.712 Y110.568 E.01687
G1 X125.078 Y110.609 E.02064
G1 X124.403 Y110.586 E.02194
G1 X123.769 Y110.482 E.02088
G1 X123.072 Y110.277 E.0236
G1 X122.329 Y109.941 E.02651
G1 X121.784 Y109.607 E.02076
G1 X121.283 Y109.211 E.02076
G1 X120.711 Y108.629 E.02651
G1 X120.681 Y108.589 E.00162
M204 S180
G1 E-.3 F1800
;WIPE_START
G1 F3600
G1 X120.279 Y108.046 E-.3383
G1 X120.119 Y107.764 E-.1617
;WIPE_END
G1 X127.72 Y107.062 Z.8 F7200
G1 X128.708 Y106.971 Z.8
G1 Z.4
G1 E.8 F1800
M204 S500
;TYPE:Internal solid infill
;WIDTH:0.4656
G1 F4200
G1 X127.804 Y107.875 E.04314
G1 X127.494 Y108.161 E.01424
G1 X127.068 Y108.455 E.01747
G1 X126.678 Y108.66 E.01485
G1 X126.271 Y108.81 E.01465
G1 X128.813 Y106.268 E.12129
G1 X128.899 Y106.004 E.00937
G1 X128.996 Y105.487 E.01776
G1 X125.488 Y108.995 E.1674
G1 X124.861 Y109.025 E.02119
G1 X129.02 Y104.865 E.19849
