M118 E1 OCTOAPP_DISABLE_LAYER_MAXIC
; HEADER_BLOCK_START
; generated by OrcaSlicer 2.3.1 on 2025-11-30 at 14:27:56
; total layer number: 17
; filament_density: 1.31
; filament_diameter: 1.75
; max_z_height: 4.07
; HEADER_BLOCK_END
; THUMBNAIL_BLOCK_START
;
; THUMBNAIL_BLOCK_END
; THUMBNAIL_BLOCK_START
;
; THUMBNAIL_BLOCK_END
; external perimeters extrusion width = 0.45mm
; perimeters extrusion width = 0.45mm
; infill extrusion width = 0.45mm
; solid infill extrusion width = 0.45mm
; top infill extrusion width = 0.40mm
; EXECUTABLE_BLOCK_START
M73 P0 R25
M201 X1000 Y1000 Z200 E800
M203 X200 Y200 Z12 E120
M204 P1250 R1000 T1250
M205 X10.00 Y10.00 Z0.40 E5.00 ; sets the jerk limits, mm/sec
;TYPE:Custom
M862.3 P "" ; printer model check
M862.1 P0.4 ; nozzle diameter check
M115 U3.2.3 ; tell printer latest fw version
G90 ; use absolute coordinates
M83 ; extruder relative mode
M204 S1250 T1000 ; MK2 firmware only supports the old M204 format
M104 S220 ; set extruder temp
M140 S55 ; set bed temp
M190 S55 ; wait for bed temp
M109 S220 ; wait for extruder temp
G28 W ; home all without mesh bed level
G80 ; mesh bed leveling
G1 Z2.0 F3000 ;Move Z Axis up
G1 X83 Y83 Z0.8 F5000 ; Move to start
M109 S220 ; wait for nozzle temp to stabilize
G92 E0 ;Reset Extruder
G1 X83 Y113 E30 F360.0 ; Extrude 30mm in Y
G92 E0 ;Reset Extruder
G1 E-0.5 F2100 ; Retract
G1 Y123 F5000 ; Move 10mm in Y
G92 E0  ;Reset Extrude
G90
G21
M83 ; use relative distances for extrusion
; Filament gcode
M106 S0
;LAYER_CHANGE
M117 DASHBOARD_LAYER_INDICATOR 1
M118 E1 OCTOAPP_LAYER LAYER=0
M117 DASHBOARD_LAYER_INDICATOR 1
;Z:0.2
;HEIGHT:0.2
;BEFORE_LAYER_CHANGE
G92 E0.0
;0.2
G1 E-.8 F1800
;_SET_FAN_SPEED_CHANGING_LAYER
M204 S300
; printing object Laukkumerkki.stl id:513 copy 0
G1 X150.716 Y85.923 F7200
G1 Z.6
G1 Z.2
G1 E.8 F1800
;TYPE:Inner wall
;WIDTH:0.449999
G1 F1200
G1 X151.281 Y86.058 E.01887
G1 X151.882 Y86.307 E.02113
G1 X152.443 Y86.651 E.02139
G1 X152.935 Y87.08 E.02121
G1 X153.354 Y87.563 E.02078
G1 X153.701 Y88.145 E.02202
G1 X153.94 Y88.711 E.01996
G1 X154.095 Y89.359 E.02164
G1 X154.14 Y89.972 E.01999
G1 X154.14 Y119.933 E.97357
G1 X154.08 Y120.661 E.02374
G1 X153.945 Y121.273 E.02036
G1 X153.693 Y121.882 E.02139
G1 X153.349 Y122.443 E.02139
G1 X152.947 Y122.908 E.01997
G1 X152.417 Y123.353 E.02248
G1 X151.889 Y123.69 E.02036
G1 X151.274 Y123.944 E.02164
G1 X150.637 Y124.09 E.02122
G1 X149.98 Y124.146 E.02142
G1 X100.027 Y124.146 E1.62322
G1 X99.351 Y124.093 E.02204
M73 P0 R24
G1 X98.719 Y123.942 E.02111
G1 X98.118 Y123.693 E.02113
G1 X97.759 Y123.472 E.0137
G1 X97.226 Y123.081 E.02149
G1 X96.779 Y122.601 E.02131
G1 X96.41 Y122.073 E.02093
G1 X96.144 Y121.507 E.02033
G1 X95.96 Y120.872 E.02148
G1 X95.86 Y120.217 E.02153
G1 X95.854 Y105.642 E.4736
;WIDTH:0.443302
G1 X95.829 Y104.834 E.02583
;WIDTH:0.422513
G1 X95.843 Y104.519 E.00956
;WIDTH:0.449999
G1 X95.857 Y104.204 E.01025
G1 X95.854 Y90.132 E.45728
G1 X95.877 Y89.567 E.01838
G1 X96.008 Y88.902 E.02202
G1 X96.21 Y88.321 E.01997
G1 X96.528 Y87.736 E.02164
G1 X96.942 Y87.209 E.02178
G1 X97.385 Y86.784 E.01997
G1 X97.934 Y86.407 E.02163
G1 X98.542 Y86.125 E.02179
G1 X99.13 Y85.947 E.01997
G1 X99.793 Y85.86 E.02173
G1 X100.498 Y85.854 E.0229
G1 X149.979 Y85.854 E1.60786
G1 X150.648 Y85.907 E.02182
M73 P1 R24
G1 X150.677 Y85.913 E.00096
G1 X150.816 Y85.506 F7200
;TYPE:Outer wall
G1 F1200
G1 X151.414 Y85.65 E.01997
G1 X152.077 Y85.924 E.02333
G1 X152.465 Y86.162 E.0148
G1 X152.896 Y86.467 E.01717
G1 X153.4 Y86.939 E.02241
G1 X153.828 Y87.507 E.02313
G1 X154.083 Y87.951 E.01662
G1 X154.35 Y88.584 E.02233
G1 X154.518 Y89.286 E.02347
G1 X154.568 Y89.972 E.02236
G1 X154.568 Y119.933 E.97357
G1 X154.505 Y120.717 E.02556
G1 X154.351 Y121.411 E.0231
G1 X154.076 Y122.077 E.0234
G1 X153.699 Y122.691 E.0234
G1 X153.25 Y123.211 E.02234
G1 X152.678 Y123.693 E.0243
G1 X152.079 Y124.075 E.02309
G1 X151.412 Y124.351 E.02346
G1 X150.704 Y124.514 E.0236
G1 X149.992 Y124.575 E.02325
G1 X100.01 Y124.575 E1.62413
G1 X99.284 Y124.518 E.02368
G1 X98.586 Y124.35 E.02331
G1 X97.923 Y124.076 E.02333
G1 X97.309 Y123.699 E.0234
G1 X96.789 Y123.25 E.02234
G1 X96.446 Y122.871 E.01662
G1 X96.038 Y122.287 E.02312
G1 X95.744 Y121.66 E.02251
G1 X95.543 Y120.972 E.0233
G1 X95.432 Y120.239 E.02408
G1 X95.433 Y89.848 E.98755
G1 X95.487 Y89.291 E.0182
G1 X95.594 Y88.791 E.01661
G1 X95.82 Y88.142 E.02234
G1 X96.164 Y87.507 E.02346
G1 X96.624 Y86.923 E.02415
G1 X97.119 Y86.446 E.02234
G1 X97.714 Y86.037 E.02346
G1 X98.389 Y85.725 E.02416
G1 X99.047 Y85.526 E.02233
G1 X99.763 Y85.432 E.02349
G1 X149.996 Y85.425 E1.63229
G1 X150.716 Y85.482 E.02347
G1 X150.777 Y85.497 E.00206
G1 E-.08 F1800
;WIPE_START
G1 F1200
G1 X151.414 Y85.65 E-.4712
G1 X151.733 Y85.782 E-.2488
;WIPE_END
G1 X144.617 Y88.541 Z.6 F7200
G1 X97.179 Y106.936 Z.6
G1 Z.2
G1 E.8 F1800
;TYPE:Inner wall
G1 F1200
G1 X96.916 Y106.739 E.01067
G1 X96.616 Y106.408 E.01453
G1 X96.384 Y106.026 E.01453
G1 X96.231 Y105.606 E.01451
;WIDTH:0.443302
G1 X96.181 Y104.834 E.02472
;WIDTH:0.422513
G1 X96.221 Y104.558 E.00845
;WIDTH:0.449999
G1 X96.26 Y104.282 E.00907
G1 X96.437 Y103.871 E.01453
G1 X96.688 Y103.501 E.01453
G1 X97.004 Y103.185 E.01453
G1 X97.375 Y102.935 E.01453
G1 X97.813 Y102.753 E.01541
G1 X98.446 Y102.649 E.02084
G1 X98.892 Y102.681 E.01454
G1 X99.324 Y102.797 E.01453
G1 X99.84 Y103.074 E.01903
G1 X100.084 Y103.261 E.00998
G1 X100.384 Y103.592 E.01453
G1 X100.616 Y103.974 E.01453
G1 X100.772 Y104.393 E.01453
G1 X100.846 Y104.834 E.01453
G1 X100.835 Y105.281 E.01452
G1 X100.74 Y105.718 E.01454
G1 X100.547 Y106.152 E.01542
G1 X100.231 Y106.594 E.01768
G1 X99.817 Y106.949 E.01772
G1 X99.424 Y107.163 E.01453
G1 X98.998 Y107.299 E.01453
G1 X98.554 Y107.351 E.01453
G1 X98.108 Y107.319 E.01453
G1 X97.676 Y107.203 E.01453
G1 X97.274 Y107.007 E.01453
G1 X97.211 Y106.96 E.00255
G1 X97.442 Y106.599 F7200
;TYPE:Outer wall
G1 F1200
G1 X97.227 Y106.443 E.00863
G1 X96.976 Y106.176 E.01189
G1 X96.781 Y105.867 E.01189
G1 X96.648 Y105.526 E.01189
G1 X96.582 Y105.166 E.01189
G1 X96.586 Y104.8 E.01189
G1 X96.658 Y104.441 E.01189
G1 X96.797 Y104.103 E.01189
G1 X96.998 Y103.797 E.01189
G1 X97.253 Y103.534 E.01189
G1 X97.553 Y103.325 E.01189
G1 X97.894 Y103.174 E.01213
G1 X98.425 Y103.077 E.01755
G1 X98.791 Y103.097 E.0119
G1 X99.146 Y103.187 E.01189
G1 X99.591 Y103.423 E.01639
G1 X100.002 Y103.797 E.01804
G1 X100.219 Y104.133 E.01301
G1 X100.352 Y104.474 E.01189
G1 X100.418 Y105.002 E.01728
G1 X100.352 Y105.526 E.01715
G1 X100.198 Y105.903 E.01325
G1 X99.902 Y106.32 E.01661
G1 X99.602 Y106.578 E.01284
G1 X99.284 Y106.758 E.01189
G1 X98.937 Y106.874 E.01189
G1 X98.574 Y106.923 E.01189
G1 X98.209 Y106.903 E.01189
G1 X97.854 Y106.813 E.01189
G1 X97.523 Y106.658 E.01189
G1 X97.474 Y106.623 E.00196
G1 E-.08 F1800
;WIPE_START
G1 F1200
G1 X97.227 Y106.443 E-.22
G1 X96.976 Y106.176 E-.26345
G1 X96.801 Y105.898 E-.23655
;WIPE_END
G1 X103.976 Y103.294 Z.6 F7200
G1 X151.181 Y86.16 Z.6
G1 Z.2
M73 P2 R24
G1 E.8 F1800
;TYPE:Bottom surface
;WIDTH:0.452483
G1 F3600
G1 X99.814 Y86.165 E1.67935
G1 X99.19 Y86.247 E.02059
G1 X98.813 Y86.348 E.01276
G1 X98.444 Y86.49 E.01294
G1 X98.287 Y86.57 E.00575
G1 X151.717 Y86.57 E1.74682
G1 X152.266 Y86.901 E.02096
G1 X152.363 Y86.979 E.00406
G1 X97.64 Y86.979 E1.78907
G1 X97.285 Y87.285 E.01531
G1 X97.191 Y87.389 E.00457
G1 X152.812 Y87.389 E1.8184
G1 X153.142 Y87.798 E.01721
G1 X96.86 Y87.798 E1.84005
G1 X96.786 Y87.899 E.00408
G1 X96.619 Y88.208 E.01148
G1 X153.39 Y88.208 E1.85604
G1 X153.508 Y88.438 E.00845
G1 X153.577 Y88.618 E.00628
G1 X96.423 Y88.618 E1.86852
G1 X96.348 Y88.813 E.00686
G1 X96.291 Y89.027 E.00723
G1 X153.702 Y89.027 E1.87693
G1 X153.796 Y89.437 E.01374
G1 X96.207 Y89.437 E1.88278
G1 X96.181 Y89.599 E.00536
G1 X96.168 Y89.846 E.00811
G1 X153.835 Y89.846 E1.88529
G1 X153.835 Y90.256 E.01339
G1 X96.159 Y90.256 E1.88559
G1 X96.159 Y90.665 E.01339
G1 X153.835 Y90.665 E1.88559
G1 X153.835 Y91.075 E.01339
G1 X96.159 Y91.075 E1.88559
G1 X96.159 Y91.484 E.01339
G1 X153.835 Y91.484 E1.88559
G1 X153.835 Y91.894 E.01339
M73 P3 R24
G1 X96.159 Y91.894 E1.88558
G1 X96.159 Y92.304 E.01339
G1 X153.835 Y92.304 E1.88558
G1 X153.835 Y92.713 E.01339
G1 X96.159 Y92.713 E1.88558
G1 X96.16 Y93.123 E.01339
G1 X153.835 Y93.123 E1.88557
G1 X153.835 Y93.532 E.01339
G1 X96.16 Y93.532 E1.88557
G1 X96.16 Y93.942 E.01339
G1 X153.835 Y93.942 E1.88557
G1 X153.835 Y94.351 E.01339
G1 X96.16 Y94.351 E1.88556
G1 X96.16 Y94.761 E.01339
G1 X153.835 Y94.761 E1.88556
G1 X153.835 Y95.171 E.01339
G1 X96.16 Y95.171 E1.88556
G1 X96.16 Y95.58 E.01339
G1 X153.835 Y95.58 E1.88556
G1 X153.835 Y95.99 E.01339
G1 X96.16 Y95.99 E1.88555
G1 X96.16 Y96.399 E.01339
G1 X153.835 Y96.399 E1.88555
G1 X153.835 Y96.809 E.01339
G1 X96.16 Y96.809 E1.88555
G1 X96.16 Y97.218 E.01339
M73 P4 R24
G1 X153.835 Y97.218 E1.88554
G1 X153.835 Y97.628 E.01339
G1 X96.161 Y97.628 E1.88554
G1 X96.161 Y98.037 E.01339
G1 X153.835 Y98.037 E1.88554
G1 X153.835 Y98.447 E.01339
G1 X96.161 Y98.447 E1.88554
G1 X96.161 Y98.857 E.01339
G1 X153.835 Y98.857 E1.88553
G1 X153.835 Y99.266 E.01339
G1 X96.161 Y99.266 E1.88553
G1 X96.161 Y99.676 E.01339
G1 X153.835 Y99.676 E1.88553
G1 X153.835 Y100.085 E.01339
G1 X96.161 Y100.085 E1.88552
G1 X96.161 Y100.495 E.01339
G1 X153.835 Y100.495 E1.88552
G1 X153.835 Y100.904 E.01339
G1 X96.161 Y100.904 E1.88552
G1 X96.161 Y101.314 E.01339
M73 P4 R23
G1 X153.835 Y101.314 E1.88551
G1 X153.835 Y101.724 E.01339
G1 X96.161 Y101.724 E1.88551
G1 X96.162 Y102.133 E.01339
G1 X153.835 Y102.133 E1.88551
G1 X153.835 Y102.543 E.01339
M73 P5 R23
G1 X99.5 Y102.543 E1.77635
G1 X99.291 Y102.464 E.00732
G1 X98.959 Y102.383 E.01115
G1 X98.796 Y102.36 E.00538
G1 X98.454 Y102.343 E.0112
G1 X98.249 Y102.358 E.00673
G1 X97.749 Y102.455 E.01664
G1 X97.498 Y102.543 E.00869
G1 X96.162 Y102.543 E.0437
G1 X96.162 Y102.952 E.01339
G1 X96.808 Y102.952 E.02113
G1 X96.699 Y103.047 E.00473
G1 X96.41 Y103.362 E.01397
G1 X95.979 Y103.362 E.0141
G1 E-.3 F1800
;WIPE_START
G1 F3600
G1 X96.41 Y103.362 E-.21566
G1 X96.699 Y103.047 E-.21368
G1 X96.806 Y102.954 E-.07066
;WIPE_END
G1 X96.652 Y106.638 Z.6 F7200
G1 Z.2
G1 E.8 F1800
G1 F3600
G1 X96.163 Y106.638 E.016
G1 X96.163 Y107.048 E.01339
G1 X97.121 Y107.048 E.03133
G1 E-.3 F1800
;WIPE_START
G1 F3600
G1 X96.163 Y107.048 E-.47908
G1 X96.163 Y107.006 E-.02092
;WIPE_END
G1 X99.876 Y102.952 Z.6 F7200
G1 Z.2
G1 E.8 F1800
G1 F3600
G1 X153.835 Y102.952 E1.76406
G1 X153.835 Y103.362 E.01339
G1 X100.592 Y103.362 E1.74065
G1 X100.854 Y103.771 E.0159
G1 X153.835 Y103.771 E1.73208
G1 X153.835 Y104.181 E.01339
G1 X101.024 Y104.181 E1.72653
G1 X101.053 Y104.254 E.00257
G1 X101.114 Y104.59 E.01118
G1 X153.835 Y104.59 E1.72358
G1 X153.835 Y105 E.01339
G1 X101.149 Y105 E1.72244
G1 X101.148 Y105.25 E.00817
G1 X101.116 Y105.41 E.00533
G1 X153.835 Y105.41 E1.72353
G1 X153.835 Y105.819 E.01339
G1 X101.027 Y105.819 E1.72645
G1 X100.858 Y106.229 E.01448
G1 X153.835 Y106.229 E1.73196
G1 X153.835 Y106.638 E.01339
G1 X100.575 Y106.638 E1.74123
G1 X100.366 Y106.891 E.01072
G1 X100.185 Y107.048 E.00782
G1 X153.835 Y107.048 E1.75396
G1 X153.835 Y107.457 E.01339
G1 X99.497 Y107.457 E1.77647
G1 X99.207 Y107.561 E.01008
M73 P6 R23
G1 X99.046 Y107.6 E.00539
G1 X98.709 Y107.649 E.01115
G1 X98.544 Y107.656 E.00538
G1 X98.203 Y107.64 E.01115
G1 X98.041 Y107.617 E.00538
G1 X97.709 Y107.536 E.01115
G1 X97.499 Y107.457 E.00735
G1 X96.163 Y107.457 E.04367
G1 X96.163 Y107.867 E.01339
G1 X153.835 Y107.867 E1.88547
G1 X153.835 Y108.277 E.01339
G1 X96.163 Y108.277 E1.88546
G1 X96.163 Y108.686 E.01339
G1 X153.835 Y108.686 E1.88546
G1 X153.835 Y109.096 E.01339
G1 X96.163 Y109.096 E1.88546
G1 X96.163 Y109.505 E.01339
G1 X153.835 Y109.505 E1.88546
G1 X153.835 Y109.915 E.01339
G1 X96.163 Y109.915 E1.88545
G1 X96.163 Y110.324 E.01339
G1 X153.835 Y110.324 E1.88545
G1 X153.835 Y110.734 E.01339
G1 X96.163 Y110.734 E1.88545
G1 X96.163 Y111.144 E.01339
G1 X153.835 Y111.144 E1.88544
G1 X153.835 Y111.553 E.01339
G1 X96.164 Y111.553 E1.88544
G1 X96.164 Y111.963 E.01339
G1 X153.835 Y111.963 E1.88544
G1 X153.835 Y112.372 E.01339
G1 X96.164 Y112.372 E1.88544
G1 X96.164 Y112.782 E.01339
G1 X153.835 Y112.782 E1.88543
G1 X153.835 Y113.191 E.01339
M73 P7 R23
G1 X96.164 Y113.191 E1.88543
G1 X96.164 Y113.601 E.01339
G1 X153.835 Y113.601 E1.88543
G1 X153.835 Y114.01 E.01339
G1 X96.164 Y114.01 E1.88542
G1 X96.164 Y114.42 E.01339
G1 X153.835 Y114.42 E1.88542
G1 X153.835 Y114.83 E.01339
G1 X96.164 Y114.83 E1.88542
G1 X96.164 Y115.239 E.01339
G1 X153.835 Y115.239 E1.88541
G1 X153.835 Y115.649 E.01339
G1 X96.164 Y115.649 E1.88541
G1 X96.165 Y116.058 E.01339
G1 X153.835 Y116.058 E1.88541
G1 X153.835 Y116.468 E.01339
G1 X96.165 Y116.468 E1.88541
G1 X96.165 Y116.877 E.01339
G1 X153.835 Y116.877 E1.8854
G1 X153.835 Y117.287 E.01339
G1 X96.165 Y117.287 E1.8854
G1 X96.165 Y117.697 E.01339
G1 X153.835 Y117.697 E1.8854
G1 X153.835 Y118.106 E.01339
G1 X96.165 Y118.106 E1.88539
G1 X96.165 Y118.516 E.01339
G1 X153.835 Y118.516 E1.88539
G1 X153.835 Y118.925 E.01339
M73 P8 R23
G1 X96.165 Y118.925 E1.88539
G1 X96.165 Y119.335 E.01339
G1 X153.835 Y119.335 E1.88539
G1 X153.835 Y119.744 E.01339
G1 X96.165 Y119.744 E1.88538
G1 X96.165 Y120.154 E.01339
G1 X153.835 Y120.154 E1.88538
G1 X153.835 Y120.189 E.00115
G1 X153.785 Y120.563 E.01235
G1 X96.204 Y120.563 E1.88252
G1 X96.298 Y120.973 E.01374
G1 X153.709 Y120.973 E1.87693
G1 X153.655 Y121.175 E.00684
G1 X153.569 Y121.383 E.00735
G1 X96.423 Y121.383 E1.86827
G1 X96.49 Y121.556 E.00609
G1 X96.61 Y121.792 E.00864
G1 X153.389 Y121.792 E1.8563
G1 X153.138 Y122.202 E.0157
G1 X96.858 Y122.202 E1.83999
G1 X97.188 Y122.611 E.01721
M73 P8 R22
G1 X152.812 Y122.611 E1.81849
G1 X152.578 Y122.845 E.01081
G1 X152.349 Y123.021 E.00944
G1 X97.637 Y123.021 E1.78868
G1 X97.734 Y123.099 E.00406
G1 X98.283 Y123.43 E.02097
G1 X151.717 Y123.43 E1.74693
G1 X151.176 Y123.655 E.01916
G1 X150.798 Y123.756 E.01277
G1 X150.401 Y123.819 E.01314
G1 X149.995 Y123.84 E.0133
G1 X98.819 Y123.84 E1.67311
; stop printing object Laukkumerkki.stl id:513 copy 0
M106 S255
;LAYER_CHANGE
M117 DASHBOARD_LAYER_INDICATOR 2
M118 E1 OCTOAPP_LAYER LAYER=1
M117 DASHBOARD_LAYER_INDICATOR 2
;Z:0.441458
;HEIGHT:0.241458
;BEFORE_LAYER_CHANGE
G92 E0.0
;0.441458
G1 E-.3 F1800
M73 P9 R22
;WIPE_START
G1 F3600
G1 X99.819 Y123.84 E-.5
;WIPE_END
;_SET_FAN_SPEED_CHANGING_LAYER
M204 S500
; printing object Laukkumerkki.stl id:513 copy 0
M204 S180
G1 X105.931 Y119.269 Z.841 F7200
G1 X150.774 Y85.731 Z.841
G1 Z.441
G1 E.8 F1800
M204 S300
;TYPE:Inner wall
;WIDTH:0.449999
G1 F3600
G1 X151.344 Y85.863 E.02244
G1 X151.947 Y86.116 E.02508
G1 X152.538 Y86.484 E.02673
G1 X153.076 Y86.924 E.02666
G1 X153.498 Y87.423 E.02508
G1 X153.872 Y88.045 E.02783
G1 X154.134 Y88.649 E.02528
G1 X154.297 Y89.327 E.02677
G1 X154.344 Y89.971 E.02478
G1 X154.344 Y120.014 E1.15283
G1 X154.294 Y120.692 E.02609
G1 X154.135 Y121.351 E.026
G1 X153.866 Y121.981 E.02632
G1 X153.519 Y122.557 E.02578
G1 X153.051 Y123.092 E.02727
G1 X152.562 Y123.515 E.0248
G1 X151.974 Y123.875 E.02649
G1 X151.343 Y124.136 E.02618
G1 X150.68 Y124.296 E.02619
G1 X149.975 Y124.351 E.02712
G1 X100.203 Y124.351 E1.90993
G1 X99.6 Y124.317 E.02319
G1 X99.069 Y124.243 E.02057
G1 X98.441 Y124.061 E.02507
G1 X97.842 Y123.769 E.02557
G1 X97.356 Y123.437 E.02259
G1 X96.908 Y123.051 E.02268
G1 X96.485 Y122.562 E.0248
G1 X96.125 Y121.974 E.02649
G1 X95.864 Y121.343 E.02618
G1 X95.761 Y120.915 E.01693
G1 X95.656 Y120.228 E.02666
G1 X95.656 Y105.814 E.55312
;WIDTH:0.488145
G1 X95.675 Y105.692 E.00516
;WIDTH:0.52629
G1 X95.694 Y105.571 E.00561
;WIDTH:0.564436
G1 X95.713 Y105.45 E.00606
;WIDTH:0.602581
G1 X95.732 Y105.329 E.00651
G1 X95.732 Y104.852 E.02527
;WIDTH:0.601786
G1 X95.713 Y104.686 E.00888
;WIDTH:0.56384
G1 X95.694 Y104.519 E.00827
;WIDTH:0.525893
G1 X95.675 Y104.353 E.00766
;WIDTH:0.487946
G1 X95.656 Y104.186 E.00704
;WIDTH:0.449999
G1 X95.656 Y89.986 E.54492
G1 X95.706 Y89.308 E.02609
G1 X95.865 Y88.649 E.026
G1 X96.134 Y88.019 E.02632
G1 X96.481 Y87.443 E.02578
G1 X96.949 Y86.908 E.02727
G1 X97.438 Y86.485 E.0248
