M118 E1 OCTOAPP_DISABLE_LAYER_MAXIC
; HEADER_BLOCK_START
; generated by OrcaSlicer 2.3.0 on 2025-09-07 at 20:51:50
; total layer number: 180
;_GP_TOTAL_LAYER_NUMBER_PLACEHOLDER
; filament_density: 1.31
; filament_diameter: 1.75
; max_z_height: 44.95
; HEADER_BLOCK_END
; THUMBNAIL_BLOCK_START
;
; THUMBNAIL_BLOCK_END
; THUMBNAIL_BLOCK_START
;
; THUMBNAIL_BLOCK_END
; external perimeters extrusion width = 0.75mm
; perimeters extrusion width = 0.75mm
; infill extrusion width = 0.75mm
; solid infill extrusion width = 0.75mm
; top infill extrusion width = 0.75mm
; EXECUTABLE_BLOCK_START
M73 P0 R100
M201 X1000 Y1000 Z200 E800
M203 X200 Y200 Z12 E120
M204 P1250 R1000 T1250
M205 X10.00 Y10.00 Z0.40 E5.00 ; sets the jerk limits, mm/sec
;TYPE:Custom
M862.3 P "" ; printer model check
M862.1 P0.4 ; nozzle diameter check
M115 U3.2.3 ; tell printer latest fw version
G90 ; use absolute coordinates
M83 ; extruder relative mode
M204 S1250 T1000 ; MK2 firmware only supports the old M204 format
M104 S220 ; set extruder temp
M140 S55 ; set bed temp
M190 S55 ; wait for bed temp
M109 S220 ; wait for extruder temp
G28 W ; home all without mesh bed level
G80 ; mesh bed leveling
G1 Z2.0 F3000 ;Move Z Axis up
G1 X82.885 Y68.4 Z0.8 F5000 ; Move to start
M109 S220 ; wait for nozzle temp to stabilize
G92 E0 ;Reset Extruder
G1 X82.885 Y98.4 E30 F360.0 ; Extrude 30mm in Y
G92 E0 ;Reset Extruder
G1 E-0.5 F2100 ; Retract
G1 Y108.4 F5000 ; Move 10mm in Y
G92 E0  ;Reset Extrude
G90
G21
M83 ; use relative distances for extrusion
; Filament gcode
M106 S0
;LAYER_CHANGE
M118 E1 OCTOAPP_LAYER LAYER=0
M117 DASHBOARD_LAYER_INDICATOR 1
;Z:0.2
;HEIGHT:0.2
;BEFORE_LAYER_CHANGE
G92 E0.0
;0.2
G1 E-.8 F1800
;_SET_FAN_SPEED_CHANGING_LAYER
M204 S300
; printing object Body1.stl id:15 copy 0
G1 X99.681 Y124.872 F7200
G1 Z.6
G1 Z.2
G1 E.8 F1800
;TYPE:Inner wall
;WIDTH:0.749999
G1 F1200
G1 X99.681 Y124.984 E.00633
G1 X99.842 Y125.403 E.02531
G1 X100.011 Y125.611 E.01512
G1 X100.398 Y125.846 E.02559
G1 X100.742 Y125.904 E.01968
G1 X151.358 Y125.904 E2.85686
G1 X151.655 Y125.861 E.01693
G1 X151.994 Y125.691 E.02142
G1 X152.294 Y125.342 E.02597
G1 X152.402 Y125.029 E.01871
;WIDTH:0.798988
G1 X152.429 Y124.989 E.00287
;WIDTH:0.847977
G1 X152.456 Y124.95 E.00306
;WIDTH:0.896965
G1 X152.482 Y124.911 E.00325
;WIDTH:0.945954
G1 X152.509 Y124.871 E.00343
;WIDTH:0.994943
G1 X152.536 Y124.832 E.00362
;WIDTH:1.04393
G1 X152.563 Y124.793 E.00381
;WIDTH:1.09292
G1 X152.59 Y124.753 E.00399
G1 X152.59 Y84.775 E3.35082
G1 X153.64 Y84.775 E.08801
G1 X153.64 Y124.753 E3.35082
G1 X153.664 Y124.811 E.00521
;WIDTH:1.04393
G1 X153.689 Y124.868 E.00496
;WIDTH:0.994943
G1 X153.713 Y124.925 E.00472
;WIDTH:0.945954
G1 X153.738 Y124.982 E.00448
;WIDTH:0.896965
G1 X153.762 Y125.039 E.00424
;WIDTH:0.847977
G1 X153.787 Y125.096 E.00399
;WIDTH:0.798988
G1 X153.811 Y125.153 E.00375
;WIDTH:0.749999
G1 X153.811 Y138.296 E.74184
G1 X96.189 Y138.296 E3.25236
G1 X96.189 Y71.704 E3.75864
M73 P0 R99
G1 X99.681 Y71.704 E.19715
G1 X99.681 Y124.832 E2.9987
G1 X100.41 Y124.636 F7200
;TYPE:Outer wall
G1 F1200
G1 X100.41 Y124.843 E.0117
G1 X100.46 Y125.018 E.0103
G1 X100.573 Y125.129 E.00894
G1 X100.742 Y125.175 E.00986
G1 X151.358 Y125.175 E2.85686
G1 X151.557 Y125.109 E.01185
G1 X151.651 Y124.999 E.00813
G1 X151.69 Y124.843 E.00909
G1 X151.69 Y83.875 E2.31232
G1 X154.54 Y83.875 E.16086
G1 X154.54 Y139.025 E3.11278
G1 X95.46 Y139.025 E3.3346
G1 X95.46 Y70.975 E3.84089
G1 X100.41 Y70.975 E.27939
G1 X100.41 Y124.596 E3.02646
G1 E-.08 F1800
;WIPE_START
G1 F1200
G1 X100.41 Y124.843 E-.17801
G1 X100.46 Y125.018 E-.13137
G1 X100.573 Y125.129 E-.11406
G1 X100.742 Y125.175 E-.12582
G1 X100.979 Y125.175 E-.17073
;WIPE_END
G1 X100.757 Y117.546 Z.6 F7200
G1 X99.469 Y73.355 Z.6
G1 Z.2
G1 E.8 F1800
;TYPE:Bottom surface
;WIDTH:0.753888
G1 F3600
G1 X98.348 Y72.234 E.09
G1 X97.343 Y72.234 E.05706
G1 X99.151 Y74.042 E.14516
G1 X99.151 Y75.048 E.05706
G1 X96.719 Y72.616 E.19522
G1 X96.719 Y73.621 E.05706
G1 X99.151 Y76.053 E.19522
G1 X99.151 Y77.059 E.05706
G1 X96.719 Y74.626 E.19522
G1 X96.719 Y75.632 E.05706
G1 X99.151 Y78.064 E.19522
G1 X99.151 Y79.07 E.05706
G1 X96.719 Y76.637 E.19522
G1 X96.719 Y77.643 E.05706
G1 X99.151 Y80.075 E.19522
G1 X99.151 Y81.081 E.05706
G1 X96.719 Y78.648 E.19522
G1 X96.719 Y79.654 E.05706
G1 X99.151 Y82.086 E.19522
G1 X99.151 Y83.092 E.05706
G1 X96.719 Y80.659 E.19522
G1 X96.719 Y81.665 E.05706
G1 X99.151 Y84.097 E.19522
G1 X99.151 Y85.102 E.05706
G1 X96.719 Y82.67 E.19522
G1 X96.719 Y83.676 E.05706
G1 X99.151 Y86.108 E.19522
G1 X99.151 Y87.113 E.05706
G1 X96.719 Y84.681 E.19522
G1 X96.719 Y85.687 E.05706
G1 X99.151 Y88.119 E.19522
G1 X99.151 Y89.124 E.05706
G1 X96.719 Y86.692 E.19522
G1 X96.719 Y87.697 E.05706
G1 X99.151 Y90.13 E.19522
G1 X99.151 Y91.135 E.05706
G1 X96.719 Y88.703 E.19522
G1 X96.719 Y89.708 E.05706
G1 X99.151 Y92.141 E.19522
G1 X99.151 Y93.146 E.05706
G1 X96.719 Y90.714 E.19522
G1 X96.719 Y91.719 E.05706
G1 X99.151 Y94.152 E.19522
G1 X99.151 Y95.157 E.05706
G1 X96.719 Y92.725 E.19522
G1 X96.719 Y93.73 E.05706
G1 X99.151 Y96.163 E.19522
G1 X99.151 Y97.168 E.05706
G1 X96.719 Y94.736 E.19522
G1 X96.719 Y95.741 E.05706
G1 X99.151 Y98.173 E.19522
G1 X99.151 Y99.179 E.05706
G1 X96.719 Y96.747 E.19522
G1 X96.719 Y97.752 E.05706
G1 X99.151 Y100.184 E.19522
G1 X99.151 Y101.19 E.05706
G1 X96.719 Y98.758 E.19522
G1 X96.719 Y99.763 E.05706
G1 X99.151 Y102.195 E.19522
G1 X99.151 Y103.201 E.05706
G1 X96.719 Y100.768 E.19522
G1 X96.719 Y101.774 E.05706
G1 X99.151 Y104.206 E.19522
G1 X99.151 Y105.212 E.05706
G1 X96.719 Y102.779 E.19522
G1 X96.719 Y103.785 E.05706
G1 X99.151 Y106.217 E.19522
G1 X99.151 Y107.223 E.05706
G1 X96.719 Y104.79 E.19522
G1 X96.719 Y105.796 E.05706
G1 X99.151 Y108.228 E.19522
G1 X99.151 Y109.234 E.05706
G1 X96.719 Y106.801 E.19522
G1 X96.719 Y107.807 E.05706
G1 X99.151 Y110.239 E.19522
G1 X99.151 Y111.244 E.05706
G1 X96.719 Y108.812 E.19522
G1 X96.719 Y109.818 E.05706
G1 X99.151 Y112.25 E.19522
G1 X99.151 Y113.255 E.05706
G1 X96.719 Y110.823 E.19522
G1 X96.719 Y111.829 E.05706
G1 X99.151 Y114.261 E.19522
G1 X99.151 Y115.266 E.05706
G1 X96.719 Y112.834 E.19522
G1 X96.719 Y113.839 E.05706
G1 X99.151 Y116.272 E.19522
G1 X99.151 Y117.277 E.05706
G1 X96.719 Y114.845 E.19522
G1 X96.719 Y115.85 E.05706
G1 X99.151 Y118.283 E.19522
G1 X99.151 Y119.288 E.05706
G1 X96.719 Y116.856 E.19522
G1 X96.719 Y117.861 E.05706
G1 X99.151 Y120.294 E.19522
G1 X99.151 Y121.299 E.05706
G1 X96.719 Y118.867 E.19522
G1 X96.719 Y119.872 E.05706
G1 X99.151 Y122.305 E.19522
G1 X99.151 Y123.31 E.05706
G1 X96.719 Y120.878 E.19522
G1 X96.719 Y121.883 E.05706
G1 X99.469 Y124.634 E.22076
G1 E-.3 F1800
;WIPE_START
G1 F3600
G1 X98.762 Y123.927 E-.5
;WIPE_END
G1 X106.392 Y124.133 Z.6 F7200
G1 X152.5 Y125.381 Z.6
G1 Z.2
G1 E.8 F1800
G1 F3600
G1 X153.281 Y126.162 E.06268
G1 X153.281 Y127.167 E.05706
G1 X152.26 Y126.145 E.082
G1 X151.807 Y126.371 E.0287
G1 X151.521 Y126.412 E.01641
G1 X153.281 Y128.172 E.14126
G1 X153.281 Y129.178 E.05706
G1 X150.537 Y126.434 E.22024
G1 X149.532 Y126.434 E.05706
G1 X153.281 Y130.183 E.30094
G1 X153.281 Y131.189 E.05706
G1 X148.526 Y126.434 E.38163
G1 X147.521 Y126.434 E.05706
G1 X153.281 Y132.194 E.46233
G1 X153.281 Y133.2 E.05706
G1 X146.515 Y126.434 E.54303
G1 X145.51 Y126.434 E.05706
G1 X153.281 Y134.205 E.62373
G1 X153.281 Y135.211 E.05706
G1 X144.504 Y126.434 E.70443
G1 X143.499 Y126.434 E.05706
G1 X153.281 Y136.216 E.78513
G1 X153.281 Y137.222 E.05706
G1 X142.493 Y126.434 E.86582
G1 X141.488 Y126.434 E.05706
G1 X152.82 Y137.766 E.90953
G1 X151.815 Y137.766 E.05706
G1 X140.483 Y126.434 E.90953
G1 X139.477 Y126.434 E.05706
G1 X150.809 Y137.766 E.90953
G1 X149.804 Y137.766 E.05706
G1 X138.472 Y126.434 E.90953
G1 X137.466 Y126.434 E.05706
G1 X148.798 Y137.766 E.90953
G1 X147.793 Y137.766 E.05706
M73 P1 R99
G1 X136.461 Y126.434 E.90953
G1 X135.455 Y126.434 E.05706
G1 X146.788 Y137.766 E.90953
G1 X145.782 Y137.766 E.05706
G1 X134.45 Y126.434 E.90953
G1 X133.444 Y126.434 E.05706
G1 X144.777 Y137.766 E.90953
G1 X143.771 Y137.766 E.05706
G1 X132.439 Y126.434 E.90953
G1 X131.433 Y126.434 E.05706
G1 X142.766 Y137.766 E.90953
G1 X141.76 Y137.766 E.05706
G1 X130.428 Y126.434 E.90953
G1 X129.422 Y126.434 E.05706
G1 X140.755 Y137.766 E.90953
G1 X139.749 Y137.766 E.05706
G1 X128.417 Y126.434 E.90953
G1 X127.412 Y126.434 E.05706
G1 X138.744 Y137.766 E.90953
G1 X137.738 Y137.766 E.05706
G1 X126.406 Y126.434 E.90953
G1 X125.401 Y126.434 E.05706
G1 X136.733 Y137.766 E.90953
G1 X135.727 Y137.766 E.05706
G1 X124.395 Y126.434 E.90953
G1 X123.39 Y126.434 E.05706
G1 X134.722 Y137.766 E.90953
G1 X133.717 Y137.766 E.05706
G1 X122.384 Y126.434 E.90953
G1 X121.379 Y126.434 E.05706
G1 X132.711 Y137.766 E.90953
G1 X131.706 Y137.766 E.05706
G1 X120.373 Y126.434 E.90953
G1 X119.368 Y126.434 E.05706
G1 X130.7 Y137.766 E.90953
G1 X129.695 Y137.766 E.05706
G1 X118.362 Y126.434 E.90953
G1 X117.357 Y126.434 E.05706
G1 X128.689 Y137.766 E.90953
G1 X127.684 Y137.766 E.05706
G1 X116.351 Y126.434 E.90953
G1 X115.346 Y126.434 E.05706
G1 X126.678 Y137.766 E.90953
G1 X125.673 Y137.766 E.05706
G1 X114.341 Y126.434 E.90953
G1 X113.335 Y126.434 E.05706
G1 X124.667 Y137.766 E.90953
G1 X123.662 Y137.766 E.05706
G1 X112.33 Y126.434 E.90953
G1 X111.324 Y126.434 E.05706
G1 X122.656 Y137.766 E.90953
G1 X121.651 Y137.766 E.05706
G1 X110.319 Y126.434 E.90953
G1 X109.313 Y126.434 E.05706
G1 X120.646 Y137.766 E.90953
G1 X119.64 Y137.766 E.05706
G1 X108.308 Y126.434 E.90953
G1 X107.302 Y126.434 E.05706
G1 X118.635 Y137.766 E.90953
G1 X117.629 Y137.766 E.05706
G1 X106.297 Y126.434 E.90953
G1 X105.291 Y126.434 E.05706
G1 X116.624 Y137.766 E.90953
G1 X115.618 Y137.766 E.05706
G1 X104.286 Y126.434 E.90953
G1 X103.28 Y126.434 E.05706
G1 X114.613 Y137.766 E.90953
G1 X113.607 Y137.766 E.05706
G1 X102.275 Y126.434 E.90953
G1 X101.27 Y126.434 E.05706
G1 X112.602 Y137.766 E.90953
G1 X111.596 Y137.766 E.05706
G1 X96.719 Y122.889 E1.19408
G1 X96.719 Y123.894 E.05706
G1 X110.591 Y137.766 E1.11338
M73 P1 R98
G1 X109.585 Y137.766 E.05706
G1 X96.719 Y124.9 E1.03268
G1 X96.719 Y125.905 E.05706
G1 X108.58 Y137.766 E.95198
G1 X107.575 Y137.766 E.05706
G1 X96.719 Y126.91 E.87128
G1 X96.719 Y127.916 E.05706
G1 X106.569 Y137.766 E.79058
G1 X105.564 Y137.766 E.05706
G1 X96.719 Y128.921 E.70988
G1 X96.719 Y129.927 E.05706
G1 X104.558 Y137.766 E.62919
G1 X103.553 Y137.766 E.05706
G1 X96.719 Y130.932 E.54849
G1 X96.719 Y131.938 E.05706
G1 X102.547 Y137.766 E.46779
G1 X101.542 Y137.766 E.05706
G1 X96.719 Y132.943 E.38709
G1 X96.719 Y133.949 E.05706
G1 X100.536 Y137.766 E.30639
G1 X99.531 Y137.766 E.05706
G1 X96.719 Y134.954 E.22569
G1 X96.719 Y135.96 E.05706
G1 X98.525 Y137.766 E.145
G1 X97.52 Y137.766 E.05706
G1 X96.401 Y136.647 E.08983
; stop printing object Body1.stl id:15 copy 0
M106 S255
;LAYER_CHANGE
M118 E1 OCTOAPP_LAYER LAYER=1
M117 DASHBOARD_LAYER_INDICATOR 2
;Z:0.45
;HEIGHT:0.25
;BEFORE_LAYER_CHANGE
G92 E0.0
;0.45
G1 E-.3 F1800
;WIPE_START
G1 F3600
G1 X97.108 Y137.354 E-.5
;WIPE_END
;_SET_FAN_SPEED_CHANGING_LAYER
M204 S500
; printing object Body1.stl id:15 copy 0
M204 S180
G1 X98.9 Y129.935 Z.85 F7200
G1 X100.163 Y124.711 Z.85
G1 Z.45
G1 E.8 F1800
M204 S300
;TYPE:Inner wall
;WIDTH:0.749999
G1 F3600
G1 X100.235 Y124.92 E.01537
G1 X100.53 Y125.264 E.03149
G1 X100.864 Y125.431 E.02597
G1 X101.156 Y125.473 E.02053
G1 X151.104 Y125.473 E3.47049
G1 X151.435 Y125.35 E.02452
G1 X151.7 Y125.149 E.02311
G1 X151.908 Y124.83 E.02643
G1 X151.988 Y124.429 E.02847
G1 X151.988 Y84.173 E2.79703
G1 X154.242 Y84.173 E.15659
G1 X154.242 Y138.727 E3.7905
G1 X95.758 Y138.727 E4.06356
G1 X95.758 Y71.273 E4.68681
G1 X100.112 Y71.273 E.3025
G1 X100.112 Y124.564 E3.70272
G1 X100.15 Y124.673 E.00806
M204 S180
G1 X100.835 Y124.472 F7200
M204 S500
;TYPE:Outer wall
G1 F3600
G1 X100.835 Y124.493 E.00148
G1 X100.964 Y124.686 E.0161
G1 X101.156 Y124.75 E.01412
G1 X150.944 Y124.75 E3.45932
G1 X151.095 Y124.712 E.01083
G1 X151.24 Y124.552 E.01502
G1 X151.265 Y124.429 E.00876
G1 X151.265 Y83.555 E2.83996
G1 X151.37 Y83.45 E.01035
G1 X154.86 Y83.45 E.24245
G1 X154.965 Y83.555 E.01035
G1 X154.965 Y139.345 E3.87635
G1 X154.86 Y139.45 E.01035
G1 X95.14 Y139.45 E4.14942
G1 X95.035 Y139.345 E.01035
G1 X95.035 Y70.55 E4.77999
G1 X100.835 Y70.55 E.403
G1 X100.835 Y124.432 E3.74381
M204 S180
G1 E-.3 F1800
;WIPE_START
G1 F3600
G1 X100.835 Y124.493 E-.03062
G1 X100.964 Y124.686 E-.11586
G1 X101.156 Y124.75 E-.10162
G1 X101.66 Y124.75 E-.2519
;WIPE_END
G1 X109.292 Y124.645 Z.85 F7200
G1 X152.726 Y124.046 Z.85
G1 Z.45
G1 E.8 F1800
M204 S500
;TYPE:Internal solid infill
;WIDTH:0.832302
G1 F4200
G1 X153.375 Y123.397 E.07131
G1 X153.504 Y123.391 E.01009
G1 X153.504 Y84.911 E2.98972
G1 X152.726 Y84.911 E.0605
G1 X152.726 Y124.006 E3.03749
M204 S180
G1 E-.37143 F1800
;WIPE_START
G1 F4200
G1 X152.726 Y123.006 E-.42857
;WIPE_END
G1 X153.169 Y130.626 Z.85 F7200
G1 X153.596 Y137.964 Z.85
G1 Z.45
G1 E.8 F1800
M204 S500
;WIDTH:0.734836
G1 F4200
G1 X153.51 Y137.964 E.00579
G1 X153.468 Y138.038 E.00579
G1 X153.51 Y138.112 E.00579
G1 X153.596 Y138.112 E.00579
G1 X153.618 Y138.073 E.00307
M204 S180
G1 X152.266 Y138.448 F7200
M204 S500
;WIDTH:0.751122
G1 F4200
G1 X153.65 Y137.065 E.13617
G1 X153.65 Y136.869 E.01365
G1 X153.618 Y136.836 E.00318
G1 X153.618 Y136.111 E.0505
G1 X151.593 Y138.135 E.19923
G1 X150.607 Y138.135 E.06865
G1 X153.618 Y135.124 E.2963
G1 X153.618 Y134.138 E.06865
G1 X149.621 Y138.135 E.39338
G1 X148.634 Y138.135 E.06865
G1 X153.618 Y133.152 E.49046
G1 X153.618 Y132.165 E.06865
G1 X147.648 Y138.135 E.58754
G1 X146.662 Y138.135 E.06865
G1 X153.618 Y131.179 E.68462
G1 X153.618 Y130.192 E.06865
G1 X145.675 Y138.135 E.7817
G1 X144.689 Y138.135 E.06865
G1 X153.618 Y129.206 E.87878
G1 X153.618 Y128.22 E.06865
G1 X143.702 Y138.135 E.97586
G1 X142.716 Y138.135 E.06865
G1 X153.618 Y127.233 E1.07294
G1 X153.618 Y126.247 E.06865
G1 X141.73 Y138.135 E1.17002
G1 X140.743 Y138.135 E.06865
G1 X153.618 Y125.261 E1.2671
G1 X153.618 Y124.274 E.06865
G1 X139.757 Y138.135 E1.36418
G1 X138.771 Y138.135 E.06865
G1 X150.808 Y126.097 E1.18474
G1 X149.822 Y126.097 E.06865
G1 X137.784 Y138.135 E1.18474
G1 X136.798 Y138.135 E.06865
G1 X148.835 Y126.097 E1.18474
G1 X147.849 Y126.097 E.06865
G1 X135.811 Y138.135 E1.18474
G1 X134.825 Y138.135 E.06865
G1 X146.863 Y126.097 E1.18474
G1 X145.876 Y126.097 E.06865
G1 X133.839 Y138.135 E1.18474
G1 X132.852 Y138.135 E.06865
G1 X144.89 Y126.097 E1.18474
G1 X143.903 Y126.097 E.06865
G1 X131.866 Y138.135 E1.18474
G1 X130.88 Y138.135 E.06865
G1 X142.917 Y126.097 E1.18474
G1 X141.931 Y126.097 E.06865
G1 X129.893 Y138.135 E1.18474
G1 X128.907 Y138.135 E.06865
G1 X140.944 Y126.097 E1.18474
G1 X139.958 Y126.097 E.06865
G1 X127.92 Y138.135 E1.18474
G1 X126.934 Y138.135 E.06865
G1 X138.972 Y126.097 E1.18474
G1 X137.985 Y126.097 E.06865
G1 X125.948 Y138.135 E1.18474
G1 X124.961 Y138.135 E.06865
G1 X136.999 Y126.097 E1.18474
G1 X136.012 Y126.097 E.06865
G1 X123.975 Y138.135 E1.18474
G1 X122.989 Y138.135 E.06865
G1 X135.026 Y126.097 E1.18474
G1 X134.04 Y126.097 E.06865
G1 X122.002 Y138.135 E1.18474
G1 X121.016 Y138.135 E.06865
G1 X133.053 Y126.097 E1.18474
G1 X132.067 Y126.097 E.06865
G1 X120.029 Y138.135 E1.18474
G1 X119.043 Y138.135 E.06865
G1 X131.081 Y126.097 E1.18474
G1 X130.094 Y126.097 E.06865
G1 X118.057 Y138.135 E1.18474
G1 X117.07 Y138.135 E.06865
G1 X129.108 Y126.097 E1.18474
G1 X128.121 Y126.097 E.06865
G1 X116.084 Y138.135 E1.18474
G1 X115.098 Y138.135 E.06865
G1 X127.135 Y126.097 E1.18474
G1 X126.149 Y126.097 E.06865
G1 X114.111 Y138.135 E1.18474
G1 X113.125 Y138.135 E.06865
G1 X125.162 Y126.097 E1.18474
G1 X124.176 Y126.097 E.06865
G1 X112.138 Y138.135 E1.18474
G1 X111.152 Y138.135 E.06865
G1 X123.19 Y126.097 E1.18474
G1 X122.203 Y126.097 E.06865
G1 X110.166 Y138.135 E1.18474
G1 X109.179 Y138.135 E.06865
G1 X121.217 Y126.097 E1.18474
G1 X120.23 Y126.097 E.06865
G1 X108.193 Y138.135 E1.18474
G1 X107.207 Y138.135 E.06865
G1 X119.244 Y126.097 E1.18474
G1 X118.258 Y126.097 E.06865
G1 X106.22 Y138.135 E1.18474
G1 X105.234 Y138.135 E.06865
