; HEADER_BLOCK_START
; generated by OrcaSlicer 2.3.1 on 2026-01-03 at 11:05:14
; total layer number: 173
; filament_density: 1.31
; filament_diameter: 1.75
; max_z_height: 43.07
; HEADER_BLOCK_END

; THUMBNAIL_BLOCK_START

;
; THUMBNAIL_BLOCK_END

; THUMBNAIL_BLOCK_START

;
; THUMBNAIL_BLOCK_END

; external perimeters extrusion width = 0.40mm
; perimeters extrusion width = 0.44mm
; infill extrusion width = 0.44mm
; solid infill extrusion width = 0.48mm
; top infill extrusion width = 0.38mm
; first layer extrusion width = 0.48mm

; EXECUTABLE_BLOCK_START
M73 P0 R192
;TYPE:Custom
M115 U3.2.3 ; tell printer latest fw version
G90 ; use absolute coordinates
M83 ; extruder relative mode
M204 S10000 T1500 ; MK2 firmware only supports the old M204 format
M104 S220 ; set extruder temp
M140 S55 ; set bed temp
M190 S55 ; wait for bed temp
M109 S220 ; wait for extruder temp
G28 W ; home all without mesh bed level
G80 ; mesh bed leveling
G1 Z0.2 F720
G1 Y-2 F1000 ; go outside print area
G92 E0
G1 X60 E9 F1000 ; intro line
G1 X100 E12.5 F1000 ; intro line
G92 E0
G90
G21
M83 ; use relative distances for extrusion
; Filament gcode
SET_PRESSURE_ADVANCE ADVANCE=0.0775; Override pressure advance value
M106 S0
;LAYER_CHANGE
;Z:0.2
;HEIGHT:0.2
;BEFORE_LAYER_CHANGE
G92 E0.0
;0.2

G1 E-.4 F2100
;AFTER_LAYER_CHANGE
;0.2
;_SET_FAN_SPEED_CHANGING_LAYER
SET_VELOCITY_LIMIT ACCEL=800 ACCEL_TO_DECEL=400
; printing object Patterin-taso-kissoille.stl id:94756404539072 copy 0
G1 Z.6 F10800
G1 X56.399 Y146.346
G1 Z.6
G1 Z.2
G1 E.4 F2100
;TYPE:Inner wall
;WIDTH:0.479999
G1 F1200
G1 X56.402 Y63.649 E2.9454
G1 X193.601 Y63.654 E4.88655
G1 X193.598 Y146.351 E2.9454
G1 X56.459 Y146.346 E4.88441
G1 X55.94 Y146.805 F10800
;TYPE:Outer wall
G1 F1200
G1 X55.944 Y63.19 E2.97807
G1 X194.06 Y63.195 E4.91921
G1 X194.056 Y146.81 E2.97807
G1 X56 Y146.805 E4.91707
G1 E-.28 F2100
;WIPE_START
G1 F1200
G1 X55.999 Y145.805 E-.12
;WIPE_END
G1 Z.6 F10800
G1 X192.587 Y63.785 Z.6
G1 Z.2
M73 P0 R191
G1 E.4 F2100
;TYPE:Bottom surface
;WIDTH:0.480048
G1 F3600
G1 X193.274 Y64.472 E.03461
G1 X193.274 Y65.09 E.02202
G1 X192.165 Y63.981 E.05584
G1 X191.547 Y63.981 E.02202
G1 X193.274 Y65.708 E.08698
G1 X193.274 Y66.326 E.02202
G1 X190.929 Y63.981 E.11812
G1 X190.31 Y63.981 E.02202
G1 X193.273 Y66.944 E.14926
G1 X193.273 Y67.562 E.02202
G1 X189.692 Y63.981 E.1804
G1 X189.074 Y63.981 E.02202
G1 X193.273 Y68.181 E.21154
G1 X193.273 Y68.799 E.02202
G1 X188.456 Y63.981 E.24269
G1 X187.838 Y63.981 E.02202
G1 X193.273 Y69.417 E.27383
G1 X193.273 Y70.035 E.02202
G1 X187.219 Y63.981 E.30497
G1 X186.601 Y63.981 E.02202
G1 X193.273 Y70.653 E.33611
G1 X193.273 Y71.271 E.02202
G1 X185.983 Y63.981 E.36725
G1 X185.365 Y63.981 E.02202
G1 X193.273 Y71.89 E.39839
G1 X193.273 Y72.508 E.02202
G1 X184.747 Y63.981 E.42953
G1 X184.128 Y63.981 E.02202
G1 X193.273 Y73.126 E.46067
G1 X193.273 Y73.744 E.02202
G1 X183.51 Y63.981 E.49182
G1 X182.892 Y63.981 E.02202
G1 X193.273 Y74.362 E.52296
G1 X193.273 Y74.98 E.02202
G1 X182.274 Y63.981 E.5541
G1 X181.655 Y63.981 E.02202
G1 X193.273 Y75.599 E.58524
G1 X193.273 Y76.217 E.02202
G1 X181.037 Y63.981 E.61638
G1 X180.419 Y63.981 E.02202
G1 X193.273 Y76.835 E.64752
G1 X193.273 Y77.453 E.02202
G1 X179.801 Y63.981 E.67866
G1 X179.183 Y63.981 E.02202
G1 X193.273 Y78.071 E.7098
G1 X193.273 Y78.689 E.02202
G1 X178.564 Y63.981 E.74094
G1 X177.946 Y63.981 E.02202
G1 X193.273 Y79.308 E.77209
G1 X193.273 Y79.926 E.02202
G1 X177.328 Y63.981 E.80323
G1 X176.71 Y63.981 E.02202
G1 X193.273 Y80.544 E.83437
G1 X193.273 Y81.162 E.02202
G1 X176.092 Y63.981 E.86551
G1 X175.473 Y63.981 E.02202
G1 X193.273 Y81.78 E.89665
G1 X193.273 Y82.398 E.02202
G1 X174.855 Y63.981 E.92779
G1 X174.237 Y63.981 E.02202
G1 X193.273 Y83.017 E.95893
G1 X193.273 Y83.635 E.02202
G1 X173.619 Y63.981 E.99007
G1 X173 Y63.981 E.02202
G1 X193.273 Y84.253 E1.02121
G1 X193.273 Y84.871 E.02202
G1 X172.382 Y63.981 E1.05236
G1 X171.764 Y63.981 E.02202
G1 X193.273 Y85.489 E1.0835
G1 X193.273 Y86.107 E.02202
G1 X171.146 Y63.981 E1.11464
G1 X170.528 Y63.98 E.02202
G1 X193.273 Y86.726 E1.14578
G1 X193.273 Y87.344 E.02202
G1 X169.909 Y63.98 E1.17692
G1 X169.291 Y63.98 E.02202
G1 X193.273 Y87.962 E1.20806
G1 X193.273 Y88.58 E.02202
G1 X168.673 Y63.98 E1.2392
G1 X168.055 Y63.98 E.02202
G1 X193.273 Y89.198 E1.27034
G1 X193.273 Y89.816 E.02202
G1 X167.437 Y63.98 E1.30149
G1 X166.818 Y63.98 E.02202
G1 X193.272 Y90.435 E1.33263
G1 X193.272 Y91.053 E.02202
G1 X166.2 Y63.98 E1.36377
G1 X165.582 Y63.98 E.02202
G1 X193.272 Y91.671 E1.39491
G1 X193.272 Y92.289 E.02202
G1 X164.964 Y63.98 E1.42605
G1 X164.345 Y63.98 E.02202
G1 X193.272 Y92.907 E1.45719
G1 X193.272 Y93.525 E.02202
G1 X163.727 Y63.98 E1.48833
G1 X163.109 Y63.98 E.02202
G1 X193.272 Y94.144 E1.51947
G1 X193.272 Y94.762 E.02202
G1 X162.491 Y63.98 E1.55061
G1 X161.873 Y63.98 E.02202
G1 X193.272 Y95.38 E1.58176
G1 X193.272 Y95.998 E.02202
G1 X161.254 Y63.98 E1.6129
G1 X160.636 Y63.98 E.02202
G1 X193.272 Y96.616 E1.64404
G1 X193.272 Y97.234 E.02202
G1 X160.018 Y63.98 E1.67518
G1 X159.4 Y63.98 E.02202
G1 X193.272 Y97.853 E1.70632
G1 X193.272 Y98.471 E.02202
G1 X158.782 Y63.98 E1.73746
G1 X158.163 Y63.98 E.02202
G1 X193.272 Y99.089 E1.7686
G1 X193.272 Y99.707 E.02202
G1 X157.545 Y63.98 E1.79974
G1 X156.927 Y63.98 E.02202
G1 X193.272 Y100.325 E1.83089
G1 X193.272 Y100.943 E.02202
G1 X156.309 Y63.98 E1.86203
G1 X155.69 Y63.98 E.02202
G1 X193.272 Y101.562 E1.89317
G1 X193.272 Y102.18 E.02202
G1 X155.072 Y63.98 E1.92431
G1 X154.454 Y63.98 E.02202
G1 X193.272 Y102.798 E1.95545
G1 X193.272 Y103.416 E.02202
G1 X153.836 Y63.98 E1.98659
G1 X153.218 Y63.98 E.02202
G1 X193.272 Y104.034 E2.01773
G1 X193.272 Y104.652 E.02202
G1 X152.599 Y63.98 E2.04887
G1 X151.981 Y63.98 E.02202
G1 X193.272 Y105.271 E2.08001
G1 X193.272 Y105.889 E.02202
G1 X151.363 Y63.98 E2.11116
G1 X150.745 Y63.98 E.02202
G1 X193.272 Y106.507 E2.1423
G1 X193.272 Y107.125 E.02202
G1 X150.126 Y63.98 E2.17344
G1 X149.508 Y63.98 E.02202
G1 X193.272 Y107.743 E2.20458
G1 X193.272 Y108.361 E.02202
G1 X148.89 Y63.98 E2.23572
G1 X148.272 Y63.98 E.02202
G1 X193.272 Y108.98 E2.26686
G1 X193.272 Y109.598 E.02202
G1 X147.654 Y63.98 E2.298
G1 X147.035 Y63.98 E.02202
G1 X193.272 Y110.216 E2.32914
G1 X193.272 Y110.834 E.02202
G1 X146.417 Y63.98 E2.36028
G1 X145.799 Y63.98 E.02202
G1 X193.272 Y111.452 E2.39143
G1 X193.272 Y112.07 E.02202
G1 X145.181 Y63.98 E2.42257
G1 X144.563 Y63.98 E.02202
G1 X193.272 Y112.689 E2.45371
G1 X193.272 Y113.307 E.02202
G1 X143.944 Y63.98 E2.48485
G1 X143.326 Y63.98 E.02202
G1 X193.272 Y113.925 E2.51599
G1 X193.271 Y114.543 E.02202
G1 X142.708 Y63.979 E2.54713
G1 X142.09 Y63.979 E.02202
G1 X193.271 Y115.161 E2.57827
G1 X193.271 Y115.779 E.02202
G1 X141.471 Y63.979 E2.60941
G1 X140.853 Y63.979 E.02202
G1 X193.271 Y116.398 E2.64056
G1 X193.271 Y117.016 E.02202
M73 P0 R190
G1 X140.235 Y63.979 E2.6717
G1 X139.617 Y63.979 E.02202
G1 X193.271 Y117.634 E2.70284
G1 X193.271 Y118.252 E.02202
G1 X138.999 Y63.979 E2.73398
G1 X138.38 Y63.979 E.02202
M73 P1 R190
G1 X193.271 Y118.87 E2.76512
G1 X193.271 Y119.488 E.02202
G1 X137.762 Y63.979 E2.79626
G1 X137.144 Y63.979 E.02202
G1 X193.271 Y120.107 E2.8274
G1 X193.271 Y120.725 E.02202
G1 X136.526 Y63.979 E2.85854
G1 X135.908 Y63.979 E.02202
G1 X193.271 Y121.343 E2.88968
G1 X193.271 Y121.961 E.02202
G1 X135.289 Y63.979 E2.92083
G1 X134.671 Y63.979 E.02202
G1 X193.271 Y122.579 E2.95197
G1 X193.271 Y123.197 E.02202
G1 X134.053 Y63.979 E2.98311
G1 X133.435 Y63.979 E.02202
G1 X193.271 Y123.816 E3.01425
G1 X193.271 Y124.434 E.02202
G1 X132.816 Y63.979 E3.04539
G1 X132.198 Y63.979 E.02202
G1 X193.271 Y125.052 E3.07653
G1 X193.271 Y125.67 E.02202
G1 X131.58 Y63.979 E3.10767
G1 X130.962 Y63.979 E.02202
G1 X193.271 Y126.288 E3.13881
G1 X193.271 Y126.906 E.02202
G1 X130.344 Y63.979 E3.16995
G1 X129.725 Y63.979 E.02202
G1 X193.271 Y127.525 E3.2011
G1 X193.271 Y128.143 E.02202
G1 X129.107 Y63.979 E3.23224
G1 X128.489 Y63.979 E.02202
G1 X193.271 Y128.761 E3.26338
G1 X193.271 Y129.379 E.02202
G1 X127.871 Y63.979 E3.29452
G1 X127.253 Y63.979 E.02202
G1 X193.271 Y129.997 E3.32566
G1 X193.271 Y130.615 E.02202
G1 X126.634 Y63.979 E3.3568
G1 X126.016 Y63.979 E.02202
G1 X193.271 Y131.234 E3.38794
G1 X193.271 Y131.852 E.02202
G1 X125.398 Y63.979 E3.41908
G1 X124.78 Y63.979 E.02202
G1 X193.271 Y132.47 E3.45023
G1 X193.271 Y133.088 E.02202
G1 X124.161 Y63.979 E3.48137
G1 X123.543 Y63.979 E.02202
G1 X193.271 Y133.706 E3.51251
G1 X193.271 Y134.324 E.02202
G1 X122.925 Y63.979 E3.54365
G1 X122.307 Y63.979 E.02202
G1 X193.271 Y134.943 E3.57479
G1 X193.271 Y135.561 E.02202
G1 X121.689 Y63.979 E3.60593
G1 X121.07 Y63.979 E.02202
G1 X193.271 Y136.179 E3.63707
G1 X193.271 Y136.797 E.02202
G1 X120.452 Y63.979 E3.66821
G1 X119.834 Y63.979 E.02202
G1 X193.271 Y137.415 E3.69935
G1 X193.271 Y138.033 E.02202
G1 X119.216 Y63.979 E3.7305
G1 X118.598 Y63.979 E.02202
G1 X193.27 Y138.652 E3.76164
G1 X193.27 Y139.27 E.02202
G1 X117.979 Y63.979 E3.79278
G1 X117.361 Y63.979 E.02202
G1 X193.27 Y139.888 E3.82392
G1 X193.27 Y140.506 E.02202
M73 P1 R189
G1 X116.743 Y63.979 E3.85506
G1 X116.125 Y63.979 E.02202
G1 X193.27 Y141.124 E3.8862
G1 X193.27 Y141.742 E.02202
G1 X115.506 Y63.979 E3.91734
G1 X114.888 Y63.978 E.02202
G1 X193.27 Y142.361 E3.94848
G1 X193.27 Y142.979 E.02202
G1 X114.27 Y63.978 E3.97962
G1 X113.652 Y63.978 E.02202
G1 X193.27 Y143.597 E4.01077
G1 X193.27 Y144.215 E.02202
G1 X113.034 Y63.978 E4.04191
G1 X112.415 Y63.978 E.02202
G1 X193.27 Y144.833 E4.07305
G1 X193.27 Y145.451 E.02202
G1 X111.797 Y63.978 E4.10419
G1 X111.179 Y63.978 E.02202
G1 X193.224 Y146.024 E4.13302
G1 X192.606 Y146.024 E.02202
G1 X110.561 Y63.978 E4.13302
G1 X109.943 Y63.978 E.02202
G1 X191.988 Y146.024 E4.13302
G1 X191.37 Y146.024 E.02202
G1 X109.324 Y63.978 E4.13302
G1 X108.706 Y63.978 E.02202
G1 X190.751 Y146.024 E4.13302
G1 X190.133 Y146.024 E.02202
G1 X108.088 Y63.978 E4.13302
G1 X107.47 Y63.978 E.02202
G1 X189.515 Y146.023 E4.13302
G1 X188.897 Y146.023 E.02202
G1 X106.851 Y63.978 E4.13302
G1 X106.233 Y63.978 E.02202
G1 X188.279 Y146.023 E4.13302
G1 X187.66 Y146.023 E.02202
G1 X105.615 Y63.978 E4.13302
G1 X104.997 Y63.978 E.02202
G1 X187.042 Y146.023 E4.13302
G1 X186.424 Y146.023 E.02202
G1 X104.379 Y63.978 E4.13302
G1 X103.76 Y63.978 E.02202
G1 X185.806 Y146.023 E4.13302
G1 X185.187 Y146.023 E.02202
G1 X103.142 Y63.978 E4.13302
G1 X102.524 Y63.978 E.02202
G1 X184.569 Y146.023 E4.13302
G1 X183.951 Y146.023 E.02202
G1 X101.906 Y63.978 E4.13302
G1 X101.288 Y63.978 E.02202
G1 X183.333 Y146.023 E4.13302
G1 X182.715 Y146.023 E.02202
G1 X100.669 Y63.978 E4.13302
G1 X100.051 Y63.978 E.02202
G1 X182.096 Y146.023 E4.13302
G1 X181.478 Y146.023 E.02202
G1 X99.433 Y63.978 E4.13302
G1 X98.815 Y63.978 E.02202
M73 P2 R189
G1 X180.86 Y146.023 E4.13302
G1 X180.242 Y146.023 E.02202
M73 P2 R188
G1 X98.196 Y63.978 E4.13302
G1 X97.578 Y63.978 E.02202
G1 X179.624 Y146.023 E4.13302
G1 X179.005 Y146.023 E.02202
G1 X96.96 Y63.978 E4.13302
G1 X96.342 Y63.978 E.02202
G1 X178.387 Y146.023 E4.13302
G1 X177.769 Y146.023 E.02202
G1 X95.724 Y63.978 E4.13302
G1 X95.105 Y63.978 E.02202
G1 X177.151 Y146.023 E4.13302
G1 X176.532 Y146.023 E.02202
G1 X94.487 Y63.978 E4.13302
G1 X93.869 Y63.978 E.02202
G1 X175.914 Y146.023 E4.13302
G1 X175.296 Y146.023 E.02202
G1 X93.251 Y63.978 E4.13302
G1 X92.633 Y63.978 E.02202
G1 X174.678 Y146.023 E4.13302
G1 X174.06 Y146.023 E.02202
G1 X92.014 Y63.978 E4.13302
G1 X91.396 Y63.978 E.02202
G1 X173.441 Y146.023 E4.13302
G1 X172.823 Y146.023 E.02202
G1 X90.778 Y63.978 E4.13302
G1 X90.16 Y63.978 E.02202
G1 X172.205 Y146.023 E4.13302
G1 X171.587 Y146.023 E.02202
G1 X89.541 Y63.978 E4.13302
G1 X88.923 Y63.978 E.02202
G1 X170.969 Y146.023 E4.13302
G1 X170.35 Y146.023 E.02202
G1 X88.305 Y63.978 E4.13302
G1 X87.687 Y63.978 E.02202
G1 X169.732 Y146.023 E4.13302
G1 X169.114 Y146.023 E.02202
G1 X87.069 Y63.977 E4.13302
G1 X86.45 Y63.977 E.02202
G1 X168.496 Y146.023 E4.13302
G1 X167.877 Y146.023 E.02202
G1 X85.832 Y63.977 E4.13302
G1 X85.214 Y63.977 E.02202
G1 X167.259 Y146.023 E4.13302
G1 X166.641 Y146.023 E.02202
G1 X84.596 Y63.977 E4.13302
G1 X83.978 Y63.977 E.02202
G1 X166.023 Y146.023 E4.13302
G1 X165.405 Y146.023 E.02202
G1 X83.359 Y63.977 E4.13302
G1 X82.741 Y63.977 E.02202
G1 X164.786 Y146.023 E4.13302
G1 X164.168 Y146.023 E.02202
G1 X82.123 Y63.977 E4.13302
G1 X81.505 Y63.977 E.02202
G1 X163.55 Y146.023 E4.13302
G1 X162.932 Y146.023 E.02202
G1 X80.886 Y63.977 E4.13302
G1 X80.268 Y63.977 E.02202
G1 X162.314 Y146.023 E4.13302
G1 X161.695 Y146.022 E.02202
M73 P2 R187
G1 X79.65 Y63.977 E4.13302
G1 X79.032 Y63.977 E.02202
G1 X161.077 Y146.022 E4.13302
G1 X160.459 Y146.022 E.02202
G1 X78.414 Y63.977 E4.13302
G1 X77.795 Y63.977 E.02202
G1 X159.841 Y146.022 E4.13302
G1 X159.222 Y146.022 E.02202
G1 X77.177 Y63.977 E4.13302
G1 X76.559 Y63.977 E.02202
G1 X158.604 Y146.022 E4.13302
G1 X157.986 Y146.022 E.02202
G1 X75.941 Y63.977 E4.13302
G1 X75.323 Y63.977 E.02202
G1 X157.368 Y146.022 E4.13302
G1 X156.75 Y146.022 E.02202
G1 X74.704 Y63.977 E4.13302
G1 X74.086 Y63.977 E.02202
G1 X156.131 Y146.022 E4.13302
G1 X155.513 Y146.022 E.02202
G1 X73.468 Y63.977 E4.13302
G1 X72.85 Y63.977 E.02202
G1 X154.895 Y146.022 E4.13302
G1 X154.277 Y146.022 E.02202
G1 X72.231 Y63.977 E4.13302
G1 X71.613 Y63.977 E.02202
G1 X153.659 Y146.022 E4.13302
G1 X153.04 Y146.022 E.02202
G1 X70.995 Y63.977 E4.13302
G1 X70.377 Y63.977 E.02202
G1 X152.422 Y146.022 E4.13302
G1 X151.804 Y146.022 E.02202
G1 X69.759 Y63.977 E4.13302
G1 X69.14 Y63.977 E.02202
G1 X151.186 Y146.022 E4.13302
G1 X150.567 Y146.022 E.02202
G1 X68.522 Y63.977 E4.13302
G1 X67.904 Y63.977 E.02202
G1 X149.949 Y146.022 E4.13302
G1 X149.331 Y146.022 E.02202
G1 X67.286 Y63.977 E4.13302
G1 X66.668 Y63.977 E.02202
G1 X148.713 Y146.022 E4.13302
G1 X148.095 Y146.022 E.02202
G1 X66.049 Y63.977 E4.13302
G1 X65.431 Y63.977 E.02202
G1 X147.476 Y146.022 E4.13302
G1 X146.858 Y146.022 E.02202
G1 X64.813 Y63.977 E4.13302
G1 X64.195 Y63.977 E.02202
G1 X146.24 Y146.022 E4.13302
G1 X145.622 Y146.022 E.02202
G1 X63.576 Y63.977 E4.13302
G1 X62.958 Y63.977 E.02202
M73 P3 R187
G1 X145.004 Y146.022 E4.13302
G1 X144.385 Y146.022 E.02202
G1 X62.34 Y63.977 E4.13302
G1 X61.722 Y63.977 E.02202
G1 X143.767 Y146.022 E4.13302
G1 X143.149 Y146.022 E.02202
M73 P3 R186
G1 X61.104 Y63.977 E4.13302
G1 X60.485 Y63.977 E.02202
G1 X142.531 Y146.022 E4.13302
G1 X141.912 Y146.022 E.02202
G1 X59.867 Y63.977 E4.13302
G1 X59.249 Y63.976 E.02202
G1 X141.294 Y146.022 E4.13302
G1 X140.676 Y146.022 E.02202
G1 X58.631 Y63.976 E4.13302
G1 X58.013 Y63.976 E.02202
G1 X140.058 Y146.022 E4.13302
G1 X139.44 Y146.022 E.02202
G1 X57.394 Y63.976 E4.13302
G1 X56.776 Y63.976 E.02202
G1 X138.821 Y146.022 E4.13302
G1 X138.203 Y146.022 E.02202
G1 X56.73 Y64.548 E4.10421
G1 X56.73 Y65.166 E.02202
G1 X137.585 Y146.022 E4.07307
G1 X136.967 Y146.022 E.02202
G1 X56.73 Y65.785 E4.04192
G1 X56.73 Y66.403 E.02202
G1 X136.349 Y146.022 E4.01078
G1 X135.73 Y146.022 E.02202
G1 X56.73 Y67.021 E3.97964
G1 X56.73 Y67.639 E.02202
G1 X135.112 Y146.022 E3.9485
G1 X134.494 Y146.021 E.02202
G1 X56.73 Y68.257 E3.91736
G1 X56.73 Y68.875 E.02202
G1 X133.876 Y146.021 E3.88622
G1 X133.257 Y146.021 E.02202
G1 X56.73 Y69.494 E3.85508
G1 X56.73 Y70.112 E.02202
G1 X132.639 Y146.021 E3.82394
G1 X132.021 Y146.021 E.02202
G1 X56.73 Y70.73 E3.79279
G1 X56.73 Y71.348 E.02202
G1 X131.403 Y146.021 E3.76165
G1 X130.785 Y146.021 E.02202
G1 X56.73 Y71.966 E3.73051
G1 X56.729 Y72.584 E.02202
G1 X130.166 Y146.021 E3.69937
G1 X129.548 Y146.021 E.02202
G1 X56.729 Y73.203 E3.66823
G1 X56.729 Y73.821 E.02202
G1 X128.93 Y146.021 E3.63709
G1 X128.312 Y146.021 E.02202
G1 X56.729 Y74.439 E3.60595
G1 X56.729 Y75.057 E.02202
G1 X127.693 Y146.021 E3.57481
G1 X127.075 Y146.021 E.02202
G1 X56.729 Y75.675 E3.54367
G1 X56.729 Y76.293 E.02202
G1 X126.457 Y146.021 E3.51252
G1 X125.839 Y146.021 E.02202
G1 X56.729 Y76.912 E3.48138
G1 X56.729 Y77.53 E.02202
G1 X125.221 Y146.021 E3.45024
G1 X124.602 Y146.021 E.02202
G1 X56.729 Y78.148 E3.4191
G1 X56.729 Y78.766 E.02202
M73 P3 R185
G1 X123.984 Y146.021 E3.38796
