M118 E1 OCTOAPP_DISABLE_LAYER_MAXIC
; HEADER_BLOCK_START
; generated by OrcaSlicer 2.3.1 on 2025-11-30 at 12:28:37
; total layer number: 44
; filament_density: 1.31
; filament_diameter: 1.75
; max_z_height: 8.80
; HEADER_BLOCK_END
; THUMBNAIL_BLOCK_START
;
; THUMBNAIL_BLOCK_END
; THUMBNAIL_BLOCK_START
;
; THUMBNAIL_BLOCK_END
; external perimeters extrusion width = 0.45mm
; perimeters extrusion width = 0.45mm
; infill extrusion width = 0.45mm
; solid infill extrusion width = 0.45mm
; top infill extrusion width = 0.40mm
; external perimeters extrusion width = 0.45mm
; perimeters extrusion width = 0.45mm
; infill extrusion width = 0.45mm
; solid infill extrusion width = 0.45mm
; top infill extrusion width = 0.40mm
; external perimeters extrusion width = 0.45mm
; perimeters extrusion width = 0.45mm
; infill extrusion width = 0.45mm
; solid infill extrusion width = 0.45mm
; top infill extrusion width = 0.40mm
; EXECUTABLE_BLOCK_START
M73 P0 R81
M201 X1000 Y1000 Z200 E800
M203 X200 Y200 Z12 E120
M204 P1250 R1000 T1250
M205 X10.00 Y10.00 Z0.40 E5.00 ; sets the jerk limits, mm/sec
;TYPE:Custom
M862.3 P "" ; printer model check
M862.1 P0.4 ; nozzle diameter check
M115 U3.2.3 ; tell printer latest fw version
G90 ; use absolute coordinates
M83 ; extruder relative mode
M204 S1250 T1000 ; MK2 firmware only supports the old M204 format
M104 S220 ; set extruder temp
M140 S55 ; set bed temp
M190 S55 ; wait for bed temp
M109 S220 ; wait for extruder temp
G28 W ; home all without mesh bed level
G80 ; mesh bed leveling
G1 Z2.0 F3000 ;Move Z Axis up
G1 X63.1944 Y65.7978 Z0.8 F5000 ; Move to start
M109 S220 ; wait for nozzle temp to stabilize
G92 E0 ;Reset Extruder
G1 X63.1944 Y95.7978 E30 F360.0 ; Extrude 30mm in Y
G92 E0 ;Reset Extruder
G1 E-0.5 F2100 ; Retract
G1 Y105.798 F5000 ; Move 10mm in Y
G92 E0  ;Reset Extrude
G90
G21
M83 ; use relative distances for extrusion
; Filament gcode
M106 S0
;LAYER_CHANGE
M118 E1 OCTOAPP_LAYER LAYER=0
M117 DASHBOARD_LAYER_INDICATOR 1
;Z:0.2
;HEIGHT:0.2
;BEFORE_LAYER_CHANGE
G92 E0.0
;0.2
G1 E-.8 F1800
;_SET_FAN_SPEED_CHANGING_LAYER
M204 S300
; printing object triquetrav1.stl id:15 copy 0
G1 X117.091 Y122.991 F7200
G1 Z.6
G1 Z.2
G1 E.8 F1800
;TYPE:Inner wall
;WIDTH:0.449999
G1 F1200
G1 X117.061 Y122.849 E.0047
G1 X116.917 Y122.664 E.00762
G1 X113.785 Y119.916 E.13539
G1 X112.995 Y119.174 E.03523
G1 X112.276 Y118.452 E.03309
G1 X111.615 Y117.735 E.03169
G1 X110.995 Y117.004 E.03114
G1 X110.4 Y116.242 E.03143
G1 X109.813 Y115.429 E.03257
G1 X109.224 Y114.553 E.0343
G1 X108.261 Y112.982 E.0599
G1 X107.408 Y111.378 E.05901
G1 X106.664 Y109.735 E.05863
G1 X106.025 Y108.048 E.05861
G1 X105.491 Y106.315 E.05892
G1 X105.061 Y104.535 E.05951
G1 X104.735 Y102.704 E.06044
G1 X104.511 Y100.813 E.06187
G1 X104.437 Y99.85 E.03139
G1 X104.394 Y98.917 E.03035
G1 X104.379 Y98.008 E.02953
G1 X104.398 Y97.106 E.02933
G1 X104.446 Y96.194 E.02967
G1 X104.526 Y95.257 E.03057
G1 X104.639 Y94.282 E.0319
G1 X105.075 Y91.25 E.09952
G1 X105.003 Y90.994 E.00866
G1 X103.981 Y89.085 E.07036
G1 X103.375 Y87.904 E.04313
G1 X102.815 Y86.697 E.04323
G1 X102.296 Y85.455 E.04374
G1 X101.82 Y84.178 E.04428
G1 X101.385 Y82.868 E.04485
G1 X100.993 Y81.524 E.04549
G1 X100.643 Y80.147 E.0462
G1 X100.337 Y78.744 E.04666
G1 X100.167 Y77.742 E.03302
G1 X100.005 Y76.529 E.03978
G1 X99.858 Y75.2 E.04345
G1 X99.737 Y73.855 E.04387
G1 X99.649 Y72.591 E.04116
G1 X99.603 Y71.544 E.03406
G1 X99.601 Y71.037 E.01647
G1 X99.639 Y70.406 E.02056
G1 X99.852 Y69.984 E.01536
G1 X100.119 Y69.687 E.01297
G1 X100.507 Y69.44 E.01494
G1 X101.634 Y69.203 E.03742
G1 X102.61 Y69.068 E.03203
G1 X103.752 Y68.936 E.03736
G1 X104.967 Y68.821 E.03966
G1 X106.177 Y68.73 E.03943
G1 X107.303 Y68.671 E.03661
G1 X108.263 Y68.652 E.0312
G1 X109.852 Y68.697 E.05165
G1 X111.506 Y68.813 E.0539
G1 X113.183 Y68.992 E.0548
G1 X114.84 Y69.231 E.0544
G1 X116.436 Y69.52 E.0527
G1 X117.925 Y69.854 E.0496
G1 X119.264 Y70.223 E.04512
G1 X121.108 Y70.867 E.06348
G1 X121.66 Y70.979 E.01831
G1 X122.179 Y70.955 E.01686
G1 X122.555 Y70.871 E.01254
G1 X124.994 Y70.076 E.08336
G1 X127.071 Y69.511 E.06995
G1 X129.066 Y69.089 E.06624
G1 X131.002 Y68.808 E.06357
G1 X132.906 Y68.664 E.06207
G1 X134.836 Y68.653 E.06271
G1 X136.734 Y68.77 E.06179
G1 X138.707 Y69.018 E.06462
G1 X140.598 Y69.377 E.06253
G1 X142.423 Y69.847 E.06125
G1 X144.196 Y70.432 E.06066
G1 X145.924 Y71.135 E.06064
G1 X147.621 Y71.963 E.06133
G1 X149.295 Y72.921 E.06268
G1 X150.958 Y74.015 E.06468
G1 X152.629 Y75.256 E.06765
G1 X155.054 Y77.137 E.09972
G1 X155.333 Y77.204 E.00932
G1 X157.264 Y77.205 E.06276
G1 X159.01 Y77.235 E.05674
G1 X160.729 Y77.334 E.05595
G1 X162.432 Y77.504 E.05562
G1 X164.123 Y77.743 E.0555
G1 X165.803 Y78.052 E.05549
G1 X167.472 Y78.431 E.05563
G1 X169.134 Y78.88 E.05593
G1 X170.793 Y79.401 E.0565
G1 X171.982 Y79.812 E.04088
G1 X172.917 Y80.17 E.03253
G1 X173.609 Y80.484 E.02471
G1 X174.076 Y80.756 E.01754
G1 X174.413 Y81.071 E.01501
G1 X174.572 Y81.388 E.01151
G1 X174.609 Y81.796 E.01332
G1 X174.579 Y82.204 E.01327
G1 X174.365 Y83.072 E.02907
G1 X173.977 Y84.204 E.03888
G1 X173.439 Y85.519 E.04617
G1 X172.776 Y86.958 E.05146
G1 X172.012 Y88.465 E.05491
G1 X171.169 Y89.986 E.05653
G1 X170.274 Y91.466 E.05621
G1 X169.8 Y92.159 E.02725
G1 X169.16 Y93.027 E.03505
G1 X168.406 Y94.002 E.04006
G1 X166.749 Y96.036 E.08526
G1 X165.954 Y96.962 E.03967
G1 X165.246 Y97.748 E.03435
G1 X164.679 Y98.332 E.02647
G1 X163.779 Y99.197 E.04056
G1 X163.67 Y99.485 E.01001
G1 X163.458 Y101.48 E.06517
G1 X162.937 Y104.624 E.10358
G1 X162.097 Y107.654 E.10218
G1 X160.948 Y110.568 E.10178
G1 X159.508 Y113.339 E.10148
G1 X157.79 Y115.942 E.10134
G1 X155.809 Y118.351 E.10135
G1 X153.58 Y120.541 E.10156
G1 X151.109 Y122.497 E.10238
G1 X150.132 Y123.15 E.03818
G1 X149.099 Y123.782 E.03936
G1 X148.032 Y124.378 E.03971
G1 X146.938 Y124.935 E.03988
G1 X145.827 Y125.447 E.03976
G1 X144.706 Y125.912 E.03944
G1 X143.585 Y126.323 E.03881
G1 X142.461 Y126.681 E.03833
G1 X140.48 Y127.279 E.06723
G1 X140.267 Y127.473 E.00934
G1 X139.314 Y128.895 E.05563
G1 X138.164 Y130.484 E.06374
G1 X136.905 Y132.033 E.06487
G1 X135.545 Y133.541 E.06598
G1 X134.094 Y134.993 E.0667
G1 X132.567 Y136.377 E.06696
G1 X130.976 Y137.679 E.0668
G1 X129.333 Y138.887 E.06627
G1 X127.647 Y139.995 E.06556
G1 X126.206 Y140.85 E.05444
G1 X125.678 Y141.112 E.01917
G1 X125.056 Y141.33 E.02142
G1 X124.579 Y141.29 E.01555
G1 X124.242 Y141.151 E.01183
G1 X123.874 Y140.823 E.01604
G1 X123.314 Y140.058 E.0308
G1 X122.501 Y138.727 E.05067
G1 X121.594 Y137.077 E.06119
G1 X120.751 Y135.345 E.06258
G1 X119.975 Y133.547 E.06364
G1 X119.272 Y131.698 E.06428
G1 X118.647 Y129.816 E.06446
G1 X118.108 Y127.915 E.06421
G1 X117.657 Y126.014 E.06348
G1 X117.299 Y124.117 E.06272
G1 X117.183 Y123.423 E.02287
G1 X117.099 Y123.03 E.01306
G1 X116.701 Y123.134 F7200
;TYPE:Outer wall
G1 F1200
G1 X116.694 Y123.093 E.00136
G1 X116.635 Y122.986 E.00398
G1 X113.497 Y120.234 E.13563
G1 X112.696 Y119.481 E.03571
G1 X111.967 Y118.749 E.03359
G1 X111.294 Y118.019 E.03224
G1 X110.663 Y117.275 E.0317
G1 X110.057 Y116.499 E.03198
G1 X109.462 Y115.674 E.03306
G1 X108.863 Y114.785 E.03482
G1 X107.889 Y113.194 E.06062
G1 X107.023 Y111.568 E.05988
G1 X106.268 Y109.899 E.05951
G1 X105.62 Y108.187 E.05949
G1 X105.078 Y106.429 E.05979
G1 X104.641 Y104.623 E.06036
G1 X104.311 Y102.767 E.06127
G1 X104.084 Y100.855 E.06257
G1 X104.009 Y99.876 E.03189
G1 X103.965 Y98.931 E.03077
G1 X103.951 Y98.007 E.03
G1 X103.969 Y97.09 E.02981
G1 X104.019 Y96.165 E.03012
G1 X104.099 Y95.214 E.031
G1 X104.214 Y94.226 E.03233
G1 X104.645 Y91.308 E.09583
G1 X104.626 Y91.196 E.00371
G1 X103.602 Y89.284 E.07047
G1 X102.989 Y88.093 E.04353
G1 X102.423 Y86.87 E.04378
G1 X101.897 Y85.613 E.04428
G1 X101.416 Y84.321 E.04481
G1 X100.976 Y82.996 E.04536
G1 X100.58 Y81.637 E.04599
G1 X100.226 Y80.245 E.04667
G1 X99.916 Y78.825 E.04722
G1 X99.743 Y77.806 E.03359
G1 X99.58 Y76.58 E.04018
G1 X99.432 Y75.242 E.04374
G1 X99.31 Y73.889 E.04415
G1 X99.221 Y72.616 E.04148
G1 X99.173 Y71.519 E.03568
G1 X99.173 Y70.814 E.02291
G1 X99.22 Y70.295 E.01692
G1 X99.393 Y69.889 E.01434
G1 X99.649 Y69.531 E.01432
G1 X99.976 Y69.242 E.01416
G1 X100.357 Y69.034 E.0141
G1 X101.56 Y68.78 E.03996
G1 X102.556 Y68.642 E.03268
G1 X103.708 Y68.51 E.03766
G1 X104.931 Y68.394 E.03993
G1 X106.15 Y68.302 E.03973
G1 X107.287 Y68.243 E.037
G1 X108.264 Y68.223 E.03176
G1 X109.873 Y68.269 E.05228
G1 X111.544 Y68.386 E.05444
G1 X113.236 Y68.567 E.05531
G1 X114.909 Y68.808 E.05491
G1 X116.521 Y69.1 E.05324
G1 X118.029 Y69.438 E.05022
G1 X119.392 Y69.813 E.04594
G1 X121.175 Y70.441 E.06142
G1 X121.671 Y70.548 E.01648
G1 X122.155 Y70.527 E.01573
G1 X122.423 Y70.463 E.00895
G1 X124.872 Y69.665 E.0837
G1 X126.971 Y69.094 E.07069
G1 X128.991 Y68.667 E.06708
G1 X130.955 Y68.382 E.06449
G1 X132.889 Y68.235 E.06304
G1 X134.848 Y68.225 E.06366
G1 X136.774 Y68.343 E.0627
G1 X138.774 Y68.595 E.0655
G1 X140.691 Y68.959 E.06341
G1 X142.544 Y69.436 E.06216
G1 X144.344 Y70.029 E.0616
G1 X146.099 Y70.744 E.06159
G1 X147.821 Y71.584 E.06226
G1 X149.519 Y72.556 E.06357
G1 X151.204 Y73.663 E.06551
G1 X152.889 Y74.916 E.06822
G1 X155.221 Y76.737 E.09616
G1 X155.333 Y76.776 E.00385
G1 X157.268 Y76.776 E.06288
G1 X159.026 Y76.806 E.05714
G1 X160.763 Y76.907 E.05652
G1 X162.483 Y77.078 E.0562
G1 X164.192 Y77.319 E.05607
G1 X165.889 Y77.632 E.05607
G1 X167.576 Y78.015 E.0562
G1 X169.254 Y78.469 E.05649
G1 X170.927 Y78.994 E.05698
G1 X172.128 Y79.41 E.04131
G1 X173.082 Y79.775 E.03318
G1 X173.705 Y80.057 E.02222
G1 X174.2 Y80.332 E.0184
G1 X174.66 Y80.685 E.01887
G1 X174.865 Y80.962 E.01116
G1 X175.011 Y81.419 E.0156
G1 X175.036 Y81.827 E.0133
G1 X175.004 Y82.271 E.01446
G1 X174.776 Y83.193 E.03087
G1 X174.378 Y84.355 E.0399
G1 X173.832 Y85.69 E.04687
G1 X173.162 Y87.144 E.05203
G1 X172.391 Y88.665 E.05542
G1 X171.54 Y90.201 E.05705
G1 X170.634 Y91.698 E.05686
G1 X170.15 Y92.407 E.02788
G1 X169.502 Y93.285 E.03546
G1 X168.742 Y94.269 E.0404
G1 X167.078 Y96.311 E.08561
G1 X166.275 Y97.245 E.04001
G1 X165.559 Y98.041 E.03478
G1 X164.979 Y98.637 E.02704
G1 X164.152 Y99.417 E.03694
G1 X164.096 Y99.531 E.00411
G1 X163.883 Y101.537 E.06557
G1 X163.356 Y104.717 E.10472
G1 X162.504 Y107.791 E.10365
G1 X161.339 Y110.746 E.10324
G1 X159.878 Y113.557 E.10293
G1 X158.135 Y116.197 E.1028
G1 X156.125 Y118.641 E.10282
G1 X153.864 Y120.863 E.10304
G1 X151.362 Y122.844 E.10369
G1 X150.363 Y123.511 E.03902
G1 X149.316 Y124.152 E.03992
G1 X148.234 Y124.756 E.04026
G1 X147.125 Y125.321 E.04042
G1 X145.999 Y125.84 E.04031
G1 X144.862 Y126.311 E.04
G1 X143.723 Y126.728 E.0394
G1 X142.586 Y127.091 E.03878
G1 X140.721 Y127.641 E.06318
G1 X140.622 Y127.713 E.00399
G1 X139.666 Y129.14 E.05581
G1 X138.504 Y130.745 E.06438
G1 X137.231 Y132.312 E.06562
G1 X135.856 Y133.836 E.0667
G1 X134.389 Y135.303 E.0674
G1 X132.847 Y136.702 E.06766
G1 X131.239 Y138.017 E.06752
G1 X129.578 Y139.239 E.067
G1 X127.874 Y140.359 E.06624
G1 X126.457 Y141.202 E.05358
G1 X125.954 Y141.466 E.01846
G1 X125.336 Y141.699 E.02147
G1 X124.983 Y141.772 E.01174
G1 X124.469 Y141.708 E.01683
G1 X124.012 Y141.519 E.01606
G1 X123.555 Y141.113 E.01988
G1 X122.957 Y140.297 E.03286
G1 X122.13 Y138.942 E.05158
G1 X121.214 Y137.274 E.06185
G1 X120.362 Y135.524 E.06324
G1 X119.578 Y133.709 E.06426
G1 X118.868 Y131.842 E.06489
G1 X118.238 Y129.942 E.06507
G1 X117.693 Y128.023 E.06481
G1 X117.237 Y126.103 E.06411
G1 X116.877 Y124.192 E.0632
G1 X116.708 Y123.174 E.03355
G1 E-.08 F1800
;WIPE_START
G1 F1200
G1 X116.694 Y123.093 E-.05891
G1 X116.635 Y122.986 E-.08822
G1 X116.036 Y122.461 E-.57287
;WIPE_END
G1 X122.588 Y118.546 Z.6 F7200
G1 X163.638 Y94.011 Z.6
G1 Z.2
G1 E.8 F1800
;TYPE:Inner wall
G1 F1200
G1 X163.545 Y93.982 E.00316
G1 X163.397 Y93.859 E.00622
G1 X163.256 Y93.566 E.01057
G1 X163.055 Y92.466 E.03634
G1 X162.816 Y91.358 E.03683
G1 X162.494 Y90.17 E.03999
G1 X162.095 Y88.924 E.04252
G1 X161.632 Y87.653 E.04396
G1 X161.118 Y86.39 E.04432
G1 X160.565 Y85.17 E.0435
G1 X159.989 Y84.029 E.04155
G1 X158.703 Y81.799 E.08364
G1 X158.422 Y81.178 E.02215
G1 X158.359 Y80.949 E.00773
G1 X158.418 Y80.636 E.01036
G1 X158.547 Y80.459 E.00709
G1 X158.707 Y80.35 E.00628
G1 X159.104 Y80.275 E.01314
G1 X159.588 Y80.235 E.01578
G1 X160.142 Y80.268 E.01802
G1 X160.935 Y80.35 E.02593
G1 X161.874 Y80.467 E.03073
G1 X163.66 Y80.73 E.05867
G1 X164.841 Y80.928 E.03891
G1 X165.664 Y81.09 E.02726
G1 X167.442 Y81.515 E.05939
G1 X168.956 Y81.942 E.05112
G1 X169.569 Y82.142 E.02095
G1 X170.408 Y82.496 E.02959
G1 X170.594 Y82.62 E.00728
G1 X170.948 Y83.007 E.01705
G1 X171.007 Y83.393 E.0127
G1 X170.875 Y83.882 E.01645
G1 X170.609 Y84.529 E.02275
G1 X169.823 Y86.151 E.05855
G1 X168.843 Y88.002 E.06807
G1 X167.934 Y89.56 E.0586
G1 X167.333 Y90.454 E.035
G1 X166.768 Y91.248 E.03167
G1 X166.298 Y91.889 E.02583
G1 X165.782 Y92.54 E.027
G1 X164.624 Y93.927 E.05871
G1 X164.543 Y94.007 E.00371
G1 X164.286 Y94.132 E.00928
G1 X164 Y94.126 E.0093
G1 X163.676 Y94.023 E.01105
G1 X163.764 Y93.613 F7200
;TYPE:Outer wall
G1 F1200
G1 X163.678 Y93.489 E.0049
G1 X163.476 Y92.382 E.03657
G1 X163.233 Y91.257 E.03742
G1 X162.905 Y90.049 E.04067
G1 X162.501 Y88.785 E.04311
G1 X162.032 Y87.499 E.0445
G1 X161.511 Y86.22 E.04484
G1 X160.952 Y84.985 E.04406
G1 X160.366 Y83.825 E.04223
G1 X159.075 Y81.585 E.08403
G1 X158.813 Y81.003 E.02072
G1 X158.789 Y80.865 E.00455
G1 X158.89 Y80.738 E.00528
G1 X159.533 Y80.663 E.02104
G1 X160.116 Y80.696 E.01896
G1 X160.891 Y80.776 E.02533
G1 X161.816 Y80.892 E.03029
G1 X163.597 Y81.154 E.05852
G1 X164.768 Y81.35 E.03857
G1 X165.573 Y81.509 E.02665
G1 X167.342 Y81.932 E.05911
G1 X168.839 Y82.354 E.05056
G1 X169.436 Y82.549 E.02038
G1 X170.24 Y82.89 E.02839
G1 X170.568 Y83.204 E.01474
G1 X170.581 Y83.336 E.00432
G1 X170.455 Y83.79 E.01531
G1 X170.217 Y84.355 E.0199
G1 X169.436 Y85.967 E.05822
G1 X168.465 Y87.802 E.06748
G1 X167.567 Y89.337 E.05779
G1 X166.978 Y90.215 E.03435
G1 X165.953 Y91.636 E.05694
G1 X165.45 Y92.27 E.0263
G1 X164.295 Y93.652 E.05853
G1 X164.194 Y93.713 E.00383
G1 X163.803 Y93.622 E.01307
G1 E-.08 F1800
;WIPE_START
G1 F1200
G1 X163.678 Y93.489 E-.13143
G1 X163.531 Y92.685 E-.58857
;WIPE_END
G1 X157.332 Y97.138 Z.6 F7200
G1 X146.394 Y104.996 Z.6
G1 Z.2
G1 E.8 F1800
;TYPE:Inner wall
G1 F1200
G1 X146.194 Y104.946 E.00672
G1 X146.024 Y104.807 E.00711
G1 X145.881 Y104.386 E.01444
G1 X145.941 Y104.146 E.00804
G1 X146.22 Y103.568 E.02086
G1 X146.674 Y102.333 E.04276
G1 X147.005 Y101.059 E.04278
G1 X147.21 Y99.758 E.0428
G1 X147.286 Y98.443 E.04278
G1 X147.232 Y97.128 E.04278
G1 X147.05 Y95.824 E.04277
G1 X146.741 Y94.544 E.04281
G1 X146.308 Y93.3 E.04278
G1 X145.756 Y92.106 E.04278
G1 X145.088 Y90.97 E.0428
G1 X144.314 Y89.906 E.04277
G1 X143.437 Y88.923 E.04281
G1 X142.47 Y88.03 E.04276
G1 X141.419 Y87.237 E.04279
G1 X140.225 Y86.507 E.04547
G1 X139.995 Y86.254 E.01111
G1 X139.748 Y85.749 E.01828
G1 X139.615 Y85.243 E.01698
G1 X139.607 Y85.006 E.00771
G1 X139.742 Y84.712 E.01053
G1 X140.138 Y84.399 E.0164
G1 X140.712 Y84.085 E.02126
G1 X141.673 Y83.645 E.03436
G1 X143.663 Y82.834 E.06981
G1 X144.713 Y82.439 E.03645
G1 X145.7 Y82.092 E.03401
G1 X147.232 Y81.63 E.052
G1 X148.709 Y81.25 E.04956
G1 X149.462 Y81.075 E.02511
G1 X150.948 Y80.769 E.04931
G1 X152.853 Y80.454 E.06273
G1 X153.46 Y80.362 E.01994
G1 X153.731 Y80.383 E.00884
G1 X153.977 Y80.529 E.00932
G1 X155.614 Y82.697 E.08828
G1 X156.33 Y83.761 E.04164
G1 X156.985 Y84.836 E.04092
G1 X157.601 Y85.946 E.04126
G1 X158.166 Y87.072 E.04094
G1 X158.671 Y88.202 E.0402
G1 X159.112 Y89.323 E.03916
G1 X159.482 Y90.426 E.03779
G1 X159.639 Y90.989 E.01899
G1 X159.888 Y92.049 E.0354
G1 X160.046 Y92.74 E.02304
G1 X160.298 Y94.108 E.04519
G1 X160.477 Y95.217 E.0365
G1 X160.562 Y95.924 E.02314
G1 X160.606 Y96.512 E.01918
G1 X160.6 Y97.297 E.02549
G1 X160.562 Y97.502 E.00678
G1 X160.379 Y97.967 E.01623
G1 X159.847 Y98.567 E.02605
G1 X159.122 Y99.181 E.03089
G1 X158.193 Y99.855 E.03728
G1 X157.147 Y100.544 E.04072
G1 X156.016 Y101.233 E.04302
G1 X154.941 Y101.845 E.04023
G1 X154.038 Y102.328 E.03325
