M118 E1 OCTOAPP_DISABLE_LAYER_MAXIC
; HEADER_BLOCK_START
; generated by OrcaSlicer 2.3.0 on 2025-09-10 at 20:00:52
; total layer number: 100
;_GP_TOTAL_LAYER_NUMBER_PLACEHOLDER
; filament_density: 1.31
; filament_diameter: 1.75
; max_z_height: 20.00
; HEADER_BLOCK_END
; THUMBNAIL_BLOCK_START
;
; THUMBNAIL_BLOCK_END
; THUMBNAIL_BLOCK_START
;
; THUMBNAIL_BLOCK_END
; external perimeters extrusion width = 0.45mm
; perimeters extrusion width = 0.45mm
; infill extrusion width = 0.45mm
; solid infill extrusion width = 0.45mm
; top infill extrusion width = 0.40mm
; EXECUTABLE_BLOCK_START
M73 P0 R43
M201 X1000 Y1000 Z200 E800
M203 X200 Y200 Z12 E120
M204 P1250 R1000 T1250
M205 X10.00 Y10.00 Z0.40 E5.00 ; sets the jerk limits, mm/sec
;TYPE:Custom
M862.3 P "" ; printer model check
M862.1 P0.4 ; nozzle diameter check
M115 U3.2.3 ; tell printer latest fw version
G90 ; use absolute coordinates
M83 ; extruder relative mode
M204 S1250 T1000 ; MK2 firmware only supports the old M204 format
M104 S220 ; set extruder temp
M140 S55 ; set bed temp
M190 S55 ; wait for bed temp
M109 S220 ; wait for extruder temp
G28 W ; home all without mesh bed level
G80 ; mesh bed leveling
G1 Z2.0 F3000 ;Move Z Axis up
G1 X95.7 Y95.9 Z0.8 F5000 ; Move to start
M109 S220 ; wait for nozzle temp to stabilize
G92 E0 ;Reset Extruder
G1 X95.7 Y125.9 E30 F360.0 ; Extrude 30mm in Y
G92 E0 ;Reset Extruder
G1 E-0.5 F2100 ; Retract
M73 P0 R42
G1 Y135.9 F5000 ; Move 10mm in Y
G92 E0  ;Reset Extrude
G90
G21
M83 ; use relative distances for extrusion
; Filament gcode
M106 S0
;LAYER_CHANGE
M118 E1 OCTOAPP_LAYER LAYER=0
M117 DASHBOARD_LAYER_INDICATOR 1
;Z:0.2
;HEIGHT:0.2
;BEFORE_LAYER_CHANGE
G92 E0.0
;0.2
G1 E-.8 F1800
;_SET_FAN_SPEED_CHANGING_LAYER
M204 S300
; printing object yafic_v2_test.stl id:30962698416554083 copy 0
G1 X132.269 Y111.32 F7200
G1 Z.6
G1 Z.2
G1 E.8 F1800
;TYPE:Inner wall
;WIDTH:0.449999
G1 F1200
G1 X132.391 Y110.772 E.01824
G1 X132.444 Y110.216 E.01813
G1 X132.454 Y109.222 E.03231
G1 X132.453 Y100.27 E.29091
G1 X132.393 Y99.253 E.03309
G1 X132.269 Y98.68 E.01904
G1 X132.908 Y98.728 E.02081
G1 X133.51 Y98.753 E.01957
G1 X141.446 Y98.754 E.2579
G1 X141.446 Y111.246 E.40596
G1 X133.484 Y111.247 E.25874
G1 X132.864 Y111.273 E.02016
G1 X132.309 Y111.317 E.01808
G1 X131.65 Y111.436 F7200
;TYPE:Outer wall
G1 F1200
G1 X131.833 Y111.305 E.0073
G1 X131.964 Y110.729 E.01921
G1 X132.015 Y110.215 E.0168
G1 X132.025 Y109.218 E.03239
G1 X132.024 Y100.254 E.29129
G1 X131.961 Y99.248 E.03274
G1 X131.833 Y98.695 E.01846
G1 X131.679 Y98.571 E.00642
;WIDTH:0.428616
G1 X131.55 Y98.564 E.00399
;WIDTH:0.431717
G1 X128.062 Y98.571 E.10824
G1 X127.82 Y98.543 E.00758
G1 X127.824 Y98.264 E.00865
G1 X127.968 Y98.143 E.00583
G1 X131.623 Y98.136 E.11342
;WIDTH:0.449999
G1 X132.247 Y98.244 E.02059
G1 X132.926 Y98.3 E.02214
G1 X133.51 Y98.325 E.01899
G1 X141.875 Y98.325 E.27182
G1 X141.875 Y111.675 E.43381
G1 X133.505 Y111.675 E.27199
G1 X132.754 Y111.707 E.02442
G1 X132.247 Y111.756 E.01654
G1 X131.549 Y111.864 E.02295
;WIDTH:0.432677
G1 X127.973 Y111.862 E.11124
G1 X127.824 Y111.736 E.00607
;WIDTH:0.430803
G1 X127.819 Y111.457 E.00865
;WIDTH:0.432677
G1 X128.206 Y111.43 E.01206
G1 X131.61 Y111.436 E.10591
G1 E-.08 F1800
;WIPE_START
G1 F1200
G1 X131.833 Y111.305 E-.18603
G1 X131.964 Y110.729 E-.42554
G1 X131.979 Y110.579 E-.10842
;WIPE_END
G1 X136.958 Y104.794 Z.6 F7200
G1 X141.324 Y99.721 Z.6
G1 Z.2
G1 E.8 F1800
;TYPE:Bottom surface
;WIDTH:0.460767
G1 F3600
G1 X140.662 Y99.059 E.03125
G1 X140.071 Y99.059 E.01971
G1 X141.141 Y100.129 E.05049
G1 X141.141 Y100.72 E.01971
G1 X139.48 Y99.059 E.07836
G1 X138.889 Y99.059 E.01971
G1 X141.141 Y101.311 E.10624
G1 X141.141 Y101.902 E.01971
G1 X138.298 Y99.059 E.13412
G1 X137.707 Y99.059 E.01971
G1 X141.141 Y102.493 E.16199
G1 X141.141 Y103.084 E.01971
G1 X137.116 Y99.059 E.18987
G1 X136.525 Y99.059 E.01971
G1 X141.141 Y103.675 E.21774
G1 X141.141 Y104.266 E.01971
G1 X135.934 Y99.059 E.24562
G1 X135.343 Y99.059 E.01971
G1 X141.141 Y104.857 E.27349
G1 X141.141 Y105.447 E.01971
G1 X134.752 Y99.058 E.30137
G1 X134.161 Y99.058 E.01971
G1 X141.141 Y106.038 E.32924
G1 X141.141 Y106.629 E.01971
G1 X133.57 Y99.058 E.35712
G1 X132.957 Y99.036 E.02048
G1 X141.141 Y107.22 E.38606
G1 X141.141 Y107.811 E.01971
G1 X132.706 Y99.376 E.3979
G1 X132.742 Y100.003 E.02096
G1 X141.141 Y108.402 E.39619
G1 X141.141 Y108.993 E.01971
G1 X132.758 Y100.61 E.39542
G1 X132.758 Y101.201 E.01971
G1 X141.141 Y109.584 E.39542
G1 X141.141 Y110.175 E.01971
G1 X132.758 Y101.792 E.39542
G1 X132.758 Y102.383 E.01971
G1 X141.141 Y110.766 E.39542
G1 X141.141 Y110.941 E.00585
G1 X140.726 Y110.941 E.01386
G1 X132.758 Y102.974 E.37582
G1 X132.758 Y103.565 E.01971
G1 X140.135 Y110.941 E.34794
G1 X139.544 Y110.941 E.01971
G1 X132.758 Y104.156 E.32007
G1 X132.759 Y104.747 E.01971
G1 X138.953 Y110.941 E.29219
G1 X138.362 Y110.941 E.01971
G1 X132.759 Y105.338 E.26432
G1 X132.759 Y105.929 E.01971
G1 X137.771 Y110.941 E.23645
G1 X137.18 Y110.941 E.01971
G1 X132.759 Y106.52 E.20857
G1 X132.759 Y107.111 E.01971
G1 X136.589 Y110.941 E.1807
G1 X135.999 Y110.941 E.01971
G1 X132.759 Y107.702 E.15282
G1 X132.759 Y108.293 E.01971
G1 X135.408 Y110.941 E.12495
G1 X134.817 Y110.942 E.01971
G1 X132.759 Y108.884 E.09707
G1 X132.756 Y109.471 E.0196
G1 X134.226 Y110.942 E.06935
G1 X133.635 Y110.942 E.01971
G1 X132.748 Y110.055 E.04183
G1 X132.745 Y110.297 E.00808
G1 X132.714 Y110.611 E.01053
G1 X133.238 Y111.136 E.02475
G1 E-.3 F1800
;WIPE_START
G1 F3600
G1 X132.714 Y110.611 E-.37107
G1 X132.739 Y110.355 E-.12893
;WIPE_END
G1 X128.11 Y109.946 Z.6 F7200
G1 Z.2
G1 E.8 F1800
;TYPE:Inner wall
;WIDTH:0.449999
G1 F1200
G1 X121.89 Y109.946 E.20211
G1 X121.89 Y100.054 E.32147
G1 X128.11 Y100.054 E.20212
G1 X128.11 Y109.906 E.32017
G1 X128.538 Y110.375 F7200
;TYPE:Outer wall
G1 F1200
G1 X121.461 Y110.375 E.22997
G1 X121.461 Y99.625 E.34932
M73 P1 R42
G1 X128.538 Y99.625 E.22997
G1 X128.538 Y110.335 E.34802
G1 E-.08 F1800
;WIPE_START
G1 F1200
G1 X127.538 Y110.341 E-.72
;WIPE_END
G1 X127.905 Y102.717 Z.6 F7200
G1 X127.988 Y101.008 Z.6
G1 Z.2
G1 E.8 F1800
;TYPE:Bottom surface
;WIDTH:0.454242
G1 F3600
G1 X127.339 Y100.359 E.03012
G1 X126.757 Y100.359 E.0191
G1 X127.805 Y101.406 E.04863
G1 X127.805 Y101.988 E.0191
G1 X126.176 Y100.359 E.07564
G1 X125.594 Y100.359 E.0191
G1 X127.805 Y102.569 E.10265
G1 X127.805 Y103.151 E.0191
G1 X125.012 Y100.359 E.12966
G1 X124.431 Y100.359 E.0191
G1 X127.805 Y103.733 E.15667
G1 X127.805 Y104.315 E.0191
G1 X123.849 Y100.359 E.18368
G1 X123.267 Y100.359 E.0191
G1 X127.805 Y104.896 E.21069
G1 X127.805 Y105.478 E.0191
G1 X122.685 Y100.359 E.2377
G1 X122.195 Y100.359 E.0161
G1 X122.195 Y100.45 E.003
G1 X127.805 Y106.06 E.26046
G1 X127.805 Y106.641 E.0191
G1 X122.195 Y101.032 E.26046
G1 X122.195 Y101.614 E.0191
G1 X127.805 Y107.223 E.26046
G1 X127.805 Y107.805 E.0191
G1 X122.195 Y102.195 E.26046
G1 X122.195 Y102.777 E.0191
G1 X127.805 Y108.386 E.26046
G1 X127.805 Y108.968 E.0191
G1 X122.195 Y103.359 E.26046
G1 X122.195 Y103.94 E.0191
G1 X127.804 Y109.55 E.26046
G1 X127.804 Y109.641 E.003
G1 X127.314 Y109.641 E.0161
G1 X122.195 Y104.522 E.23769
G1 X122.195 Y105.104 E.0191
G1 X126.732 Y109.641 E.21068
G1 X126.151 Y109.641 E.0191
G1 X122.195 Y105.686 E.18367
G1 X122.195 Y106.267 E.0191
G1 X125.569 Y109.641 E.15666
G1 X124.987 Y109.641 E.0191
G1 X122.195 Y106.849 E.12965
G1 X122.195 Y107.431 E.0191
G1 X124.406 Y109.641 E.10264
G1 X123.824 Y109.641 E.0191
G1 X122.195 Y108.012 E.07563
G1 X122.195 Y108.594 E.0191
G1 X123.242 Y109.641 E.04862
G1 X122.661 Y109.641 E.0191
G1 X122.012 Y108.993 E.03012
G1 E-.3 F1800
;WIPE_START
G1 F3600
G1 X122.661 Y109.641 E-.45863
G1 X122.743 Y109.641 E-.04137
;WIPE_END
G1 X119.569 Y102.7 Z.6 F7200
G1 X117.731 Y98.68 Z.6
G1 Z.2
G1 E.8 F1800
;TYPE:Inner wall
;WIDTH:0.449999
G1 F1200
G1 X117.609 Y99.228 E.01824
G1 X117.556 Y99.778 E.01796
G1 X117.547 Y100.288 E.01657
G1 X117.556 Y110.241 E.32341
G1 X117.609 Y110.772 E.01734
G1 X117.731 Y111.32 E.01824
G1 X117.136 Y111.273 E.01938
G1 X116.49 Y111.247 E.02099
G1 X108.554 Y111.246 E.25791
G1 X108.554 Y98.754 E.40596
G1 X116.512 Y98.753 E.25862
G1 X117.136 Y98.727 E.02028
G1 X117.691 Y98.683 E.01808
G1 X118.35 Y98.564 F7200
;TYPE:Outer wall
G1 F1200
G1 X118.167 Y98.695 E.00731
G1 X118.036 Y99.271 E.01921
G1 X117.985 Y99.786 E.01682
G1 X117.976 Y100.288 E.0163
G1 X117.985 Y110.22 E.32273
G1 X118.039 Y110.752 E.01739
G1 X118.167 Y111.305 E.01846
G1 X118.321 Y111.429 E.00642
;WIDTH:0.428626
G1 X118.451 Y111.436 E.004
;WIDTH:0.432676
G1 X121.794 Y111.43 E.10402
G1 X122.181 Y111.457 E.01206
;WIDTH:0.430801
G1 X122.176 Y111.736 E.00865
G1 X122.033 Y111.857 E.00578
;WIDTH:0.432676
G1 X118.377 Y111.864 E.11374
;WIDTH:0.449999
G1 X117.753 Y111.756 E.02059
G1 X117.118 Y111.702 E.02071
G1 X116.494 Y111.675 E.0203
G1 X108.125 Y111.675 E.27194
G1 X108.125 Y98.325 E.43381
G1 X116.494 Y98.325 E.27195
G1 X117.246 Y98.293 E.02447
G1 X117.753 Y98.244 E.01654
G1 X118.451 Y98.136 E.02295
;WIDTH:0.43171
G1 X121.959 Y98.14 E.10885
G1 X122.176 Y98.264 E.00776
G1 X122.18 Y98.543 E.00865
G1 X121.938 Y98.571 E.00758
G1 X118.39 Y98.564 E.1101
G1 X116.764 Y98.864 F7200
;TYPE:Bottom surface
;WIDTH:0.460828
G1 F3600
G1 X117.29 Y99.389 E.02478
G1 X117.255 Y99.702 E.01049
G1 X117.25 Y99.94 E.00796
G1 X116.368 Y99.058 E.0416
G1 X115.777 Y99.058 E.01971
G1 X117.242 Y100.524 E.06912
G1 X117.243 Y101.115 E.01973
G1 X115.186 Y99.058 E.09703
G1 X114.595 Y99.059 E.01971
G1 X117.243 Y101.707 E.12493
G1 X117.244 Y102.298 E.01973
G1 X114.004 Y99.059 E.15284
G1 X113.413 Y99.059 E.01971
G1 X117.244 Y102.89 E.18075
G1 X117.245 Y103.481 E.01973
G1 X112.822 Y99.059 E.20865
G1 X112.231 Y99.059 E.01971
G1 X117.245 Y104.073 E.23656
G1 X117.246 Y104.664 E.01973
G1 X111.64 Y99.059 E.26446
G1 X111.049 Y99.059 E.01971
G1 X117.246 Y105.256 E.29237
G1 X117.247 Y105.848 E.01973
G1 X110.458 Y99.059 E.32028
G1 X109.867 Y99.059 E.01971
G1 X117.247 Y106.439 E.34818
G1 X117.248 Y107.031 E.01973
G1 X109.276 Y99.059 E.37609
G1 X108.859 Y99.059 E.01392
G1 X108.859 Y99.233 E.0058
G1 X117.248 Y107.622 E.3958
G1 X117.249 Y108.214 E.01973
G1 X108.859 Y99.824 E.39582
G1 X108.859 Y100.415 E.01972
G1 X117.25 Y108.805 E.39585
G1 X117.25 Y109.397 E.01973
G1 X108.859 Y101.006 E.39587
G1 X108.859 Y101.597 E.01972
G1 X117.251 Y109.988 E.3959
G1 X117.251 Y110.216 E.00758
G1 X117.288 Y110.617 E.01345
G1 X108.859 Y102.188 E.39767
G1 X108.859 Y102.779 E.01972
G1 X117.044 Y110.964 E.38617
G1 X116.431 Y110.942 E.02049
G1 X108.859 Y103.37 E.35722
G1 X108.859 Y103.961 E.01972
G1 X115.84 Y110.942 E.32934
G1 X115.249 Y110.942 E.01972
G1 X108.859 Y104.552 E.30145
G1 X108.859 Y105.143 E.01972
G1 X114.658 Y110.941 E.27357
G1 X114.067 Y110.941 E.01972
G1 X108.859 Y105.734 E.24569
G1 X108.859 Y106.325 E.01972
G1 X113.476 Y110.941 E.2178
G1 X112.885 Y110.941 E.01972
G1 X108.859 Y106.916 E.18992
G1 X108.859 Y107.507 E.01972
G1 X112.293 Y110.941 E.16204
G1 X111.702 Y110.941 E.01972
G1 X108.859 Y108.098 E.13415
G1 X108.859 Y108.689 E.01972
G1 X111.111 Y110.941 E.10627
G1 X110.52 Y110.941 E.01972
G1 X108.859 Y109.28 E.07839
G1 X108.859 Y109.871 E.01972
G1 X109.929 Y110.941 E.0505
G1 X109.338 Y110.941 E.01972
G1 X108.676 Y110.279 E.03126
; stop printing object yafic_v2_test.stl id:30962698416554083 copy 0
M106 S255
;LAYER_CHANGE
M118 E1 OCTOAPP_LAYER LAYER=1
M117 DASHBOARD_LAYER_INDICATOR 2
;Z:0.4
;HEIGHT:0.2
;BEFORE_LAYER_CHANGE
G92 E0.0
;0.4
G1 E-.3 F1800
;WIPE_START
G1 F3600
G1 X109.338 Y110.941 E-.46854
G1 X109.401 Y110.941 E-.03146
;WIPE_END
;_SET_FAN_SPEED_CHANGING_LAYER
M204 S500
; printing object yafic_v2_test.stl id:30962698416554083 copy 0
M204 S180
G1 X117.03 Y111.18 Z.8 F7200
G1 X131.915 Y111.646 Z.8
G1 Z.4
G1 E.8 F1800
M204 S300
;TYPE:Inner wall
;WIDTH:0.449999
G1 F3600
G1 X132.254 Y111.243 E.01712
G1 X132.254 Y98.757 E.40573
G1 X131.852 Y98.356 E.01844
G1 X141.846 Y98.362 E.32475
G1 X141.846 Y111.646 E.43168
G1 X131.955 Y111.646 E.32143
M204 S180
G1 X131.682 Y111.475 F7200
M204 S500
;TYPE:Outer wall
;WIDTH:0.549995
G1 F3600
G1 X131.754 Y111.359 E.00551
;WIDTH:0.499997
G1 X131.825 Y111.243 E.00497
;WIDTH:0.449999
G1 X131.825 Y98.757 E.40573
;WIDTH:0.499481
G1 X131.734 Y98.641 E.00537
M73 P2 R42
;WIDTH:0.548962
G1 X131.643 Y98.526 E.00595
;WIDTH:0.549985
G1 X128.228 Y98.525 E.13824
G1 X127.693 Y98.54 E.02164
;WIDTH:0.519731
G1 X127.436 Y98.54 E.00978
G1 F3360
G1 X127.236 Y98.54 E.00761
M204 S250
;TYPE:Overhang wall
G1 F1500
G1 X127.153 Y98.54 E.00316
G1 X127.153 Y98.186 E.01347
G1 X127.236 Y98.159 E.00332
M204 S500
;TYPE:Outer wall
G1 F3360
G1 X127.436 Y98.095 E.00799
M106 S255
G1 F3600
G1 X127.664 Y98.022 E.00911
;WIDTH:0.549985
G1 X128.212 Y97.975 E.02228
G1 X131.643 Y97.977 E.13887
;WIDTH:0.548962
G1 X132.149 Y97.952 E.02046
;WIDTH:0.499481
G1 X132.655 Y97.928 E.01846
;WIDTH:0.449999
G1 X142.213 Y97.933 E.31058
G1 X142.275 Y98.062 E.00463
G1 X142.275 Y111.907 E.4499
G1 X142.107 Y112.075 E.00773
G1 X132.657 Y112.075 E.30707
;WIDTH:0.499997
G1 X132.15 Y112.05 E.01852
;WIDTH:0.549995
G1 X131.643 Y112.025 E.02055
G1 X128.217 Y112.025 E.13867
G1 X127.637 Y111.975 E.02357
;WIDTH:0.51973
G1 X127.436 Y111.908 E.00806
G1 F3360
G1 X127.236 Y111.842 E.00802
M204 S250
;TYPE:Overhang wall
G1 F1500
G1 X127.153 Y111.814 E.00333
G1 X127.153 Y111.46 E.01347
G1 X127.236 Y111.46 E.00316
M204 S500
;TYPE:Outer wall
G1 F3360
G1 X127.436 Y111.46 E.00761
M106 S255
G1 F3600
G1 X127.693 Y111.46 E.00978
;WIDTH:0.549995
G1 X128.228 Y111.475 E.02165
G1 X131.642 Y111.475 E.13821
M204 S180
G1 E-.3 F1800
;WIPE_START
G1 F3600
G1 X131.754 Y111.359 E-.0804
G1 X131.825 Y111.243 E-.0681
G1 X131.825 Y110.54 E-.3515
;WIPE_END
G1 X139.43 Y111.183 Z.8 F7200
G1 X140.096 Y111.239 Z.8
G1 Z.4
G1 E.8 F1800
M204 S500
;TYPE:Internal solid infill
;WIDTH:0.449999
G1 F4200
G1 X141.439 Y111.239 E.04365
G1 X141.439 Y109.896 E.04365
G1 X140.125 Y111.211 E.06042
M204 S180
G1 X141.07 Y110.805 F7200
M204 S500
;WIDTH:0.422636
G1 F4200
G1 X140.999 Y110.846 E.00249
G1 X141.073 Y110.881 E.0025
M204 S180
G1 X141.684 Y109.129 F7200
M204 S500
;WIDTH:0.456977
G1 F4200
G1 X139.512 Y111.3 E.10151
G1 X138.926 Y111.3 E.01935
G1 X141.5 Y108.726 E.12031
G1 X141.5 Y108.141 E.01935
G1 X138.341 Y111.3 E.14768
G1 X137.755 Y111.3 E.01935
G1 X141.5 Y107.555 E.17505
G1 X141.5 Y106.97 E.01935
G1 X137.17 Y111.3 E.20243
G1 X136.584 Y111.3 E.01935
G1 X141.5 Y106.384 E.2298
G1 X141.5 Y105.799 E.01935
G1 X135.999 Y111.3 E.25717
G1 X135.413 Y111.3 E.01935
G1 X141.5 Y105.213 E.28454
G1 X141.5 Y104.628 E.01935
G1 X134.828 Y111.3 E.31191
G1 X134.242 Y111.3 E.01935
G1 X141.5 Y104.042 E.33928
G1 X141.5 Y103.456 E.01935
G1 X133.656 Y111.3 E.36665
G1 X133.071 Y111.3 E.01935
G1 X141.5 Y102.871 E.39402
G1 X141.5 Y102.285 E.01935
G1 X132.6 Y111.186 E.41605
G1 X132.6 Y110.601 E.01935
G1 X141.5 Y101.7 E.41605
G1 X141.5 Y101.114 E.01935
G1 X132.6 Y110.015 E.41605
G1 X132.6 Y109.429 E.01935
G1 X141.5 Y100.529 E.41605
G1 X141.5 Y99.943 E.01935
G1 X132.6 Y108.844 E.41605
G1 X132.6 Y108.258 E.01935
G1 X141.5 Y99.357 E.41605
G1 X141.5 Y98.772 E.01935
G1 X132.6 Y107.673 E.41605
G1 X132.6 Y107.087 E.01935
G1 X140.98 Y98.707 E.3917
G1 X140.394 Y98.707 E.01934
G1 X132.6 Y106.502 E.36435
G1 X132.6 Y105.916 E.01935
G1 X139.809 Y98.707 E.33699
G1 X139.224 Y98.706 E.01934
G1 X132.6 Y105.331 E.30964
G1 X132.6 Y104.745 E.01935
G1 X138.639 Y98.706 E.28228
G1 X138.053 Y98.705 E.01934
G1 X132.6 Y104.159 E.25493
G1 X132.6 Y103.574 E.01935
G1 X137.468 Y98.705 E.22758
G1 X136.883 Y98.705 E.01934
G1 X132.6 Y102.988 E.20022
G1 X132.6 Y102.403 E.01935
G1 X136.298 Y98.704 E.17287
G1 X135.713 Y98.704 E.01934
G1 X132.6 Y101.817 E.14551
G1 X132.6 Y101.232 E.01935
G1 X135.127 Y98.704 E.11816
G1 X134.542 Y98.703 E.01934
G1 X132.6 Y100.646 E.0908
G1 X132.6 Y100.06 E.01935
G1 X133.957 Y98.703 E.06345
G1 X133.372 Y98.703 E.01934
G1 X132.6 Y99.475 E.0361
G1 X132.6 Y98.889 E.01935
G1 X132.97 Y98.519 E.0173
M204 S180
G1 E-.37143 F1800
;WIPE_START
G1 F4200
G1 X132.6 Y98.889 E-.2243
G1 X132.6 Y99.366 E-.20427
;WIPE_END
G1 X130.094 Y106.575 Z.8 F7200
G1 X128.853 Y110.146 Z.8
M73 P2 R41
G1 Z.4
G1 E.8 F1800
