M118 E1 OCTOAPP_DISABLE_LAYER_MAXIC
; HEADER_BLOCK_START
; generated by OrcaSlicer 2.3.1 on 2025-11-30 at 07:41:54
; total layer number: 100
; filament_density: 1.31
; filament_diameter: 1.75
; max_z_height: 20.00
; HEADER_BLOCK_END
; THUMBNAIL_BLOCK_START
;
; THUMBNAIL_BLOCK_END
; THUMBNAIL_BLOCK_START
;
; THUMBNAIL_BLOCK_END
; external perimeters extrusion width = 0.45mm
; perimeters extrusion width = 0.45mm
; infill extrusion width = 0.45mm
; solid infill extrusion width = 0.45mm
; top infill extrusion width = 0.40mm
; EXECUTABLE_BLOCK_START
M73 P0 R174
M201 X1000 Y1000 Z200 E800
M203 X200 Y200 Z12 E120
M204 P1250 R1000 T1250
M205 X10.00 Y10.00 Z0.40 E5.00 ; sets the jerk limits, mm/sec
;TYPE:Custom
M862.3 P "" ; printer model check
M862.1 P0.4 ; nozzle diameter check
M115 U3.2.3 ; tell printer latest fw version
G90 ; use absolute coordinates
M83 ; extruder relative mode
M204 S1250 T1000 ; MK2 firmware only supports the old M204 format
M104 S220 ; set extruder temp
M140 S55 ; set bed temp
M190 S55 ; wait for bed temp
M109 S220 ; wait for extruder temp
G28 W ; home all without mesh bed level
G80 ; mesh bed leveling
G1 Z2.0 F3000 ;Move Z Axis up
G1 X75.3 Y85.7 Z0.8 F5000 ; Move to start
M109 S220 ; wait for nozzle temp to stabilize
G92 E0 ;Reset Extruder
G1 X75.3 Y115.7 E30 F360.0 ; Extrude 30mm in Y
G92 E0 ;Reset Extruder
G1 E-0.5 F2100 ; Retract
G1 Y125.7 F5000 ; Move 10mm in Y
G92 E0  ;Reset Extrude
G90
G21
M83 ; use relative distances for extrusion
; Filament gcode
M106 S0
;LAYER_CHANGE
M117 DASHBOARD_LAYER_INDICATOR 1
M118 E1 OCTOAPP_LAYER LAYER=0
M117 DASHBOARD_LAYER_INDICATOR 1
;Z:0.2
;HEIGHT:0.2
;BEFORE_LAYER_CHANGE
G92 E0.0
;0.2
G1 E-.8 F1800
;_SET_FAN_SPEED_CHANGING_LAYER
M204 S300
; printing object yafic_v2(1).stl id:15 copy 0
G1 X111.867 Y121.532 F7200
G1 Z.6
G1 Z.2
G1 E.8 F1800
;TYPE:Inner wall
;WIDTH:0.449999
G1 F1200
G1 X111.991 Y120.972 E.01866
G1 X112.044 Y120.416 E.01813
G1 X112.054 Y119.422 E.03231
G1 X112.053 Y110.47 E.29091
G1 X111.993 Y109.453 E.03309
M73 P0 R173
G1 X111.869 Y108.88 E.01904
G1 X112.508 Y108.928 E.02081
G1 X113.11 Y108.953 E.01958
G1 X121.046 Y108.954 E.25789
G1 X121.046 Y121.447 E.40597
G1 X113.069 Y121.451 E.25922
G1 X112.462 Y121.467 E.01974
G1 X111.906 Y121.528 E.01816
G1 X111.255 Y121.635 F7200
;TYPE:Outer wall
G1 F1200
G1 X111.433 Y121.505 E.00715
G1 X111.564 Y120.929 E.01921
G1 X111.615 Y120.412 E.01688
G1 X111.625 Y119.418 E.03231
G1 X111.624 Y110.454 E.29129
G1 X111.561 Y109.448 E.03274
G1 X111.433 Y108.895 E.01846
G1 X111.279 Y108.771 E.00642
;WIDTH:0.428612
G1 X111.15 Y108.764 E.00398
;WIDTH:0.431552
G1 X107.676 Y108.771 E.10778
G1 X107.406 Y108.739 E.00842
G1 X107.413 Y108.477 E.00813
G1 X107.581 Y108.342 E.00669
G1 X111.223 Y108.336 E.11299
;WIDTH:0.449999
G1 X111.847 Y108.444 E.02058
G1 X112.526 Y108.5 E.02214
G1 X113.11 Y108.525 E.01899
G1 X121.475 Y108.525 E.27182
G1 X121.475 Y121.875 E.43381
G1 X112.928 Y121.88 E.27772
G1 X112.355 Y121.901 E.01864
G1 X111.255 Y122.062 E.03613
;WIDTH:0.432464
G1 X107.586 Y122.062 E.11409
G1 X107.412 Y121.923 E.00692
;WIDTH:0.430823
G1 X107.406 Y121.661 E.00813
;WIDTH:0.432464
G1 X107.806 Y121.63 E.01248
G1 X111.215 Y121.635 E.106
G1 E-.08 F1800
;WIPE_START
G1 F1200
G1 X111.433 Y121.505 E-.18252
G1 X111.564 Y120.929 E-.42554
G1 X111.58 Y120.774 E-.11194
;WIPE_END
G1 X111.953 Y113.151 Z.6 F7200
G1 X112.125 Y109.629 Z.6
G1 Z.2
G1 E.8 F1800
;TYPE:Bottom surface
;WIDTH:0.455852
G1 F3600
G1 X120.741 Y109.629 E.284
G1 X120.741 Y110.042 E.01361
G1 X112.333 Y110.042 E.27716
G1 X112.357 Y110.455 E.01363
G1 X120.741 Y110.455 E.27638
G1 X120.741 Y110.868 E.01361
G1 X112.358 Y110.868 E.27632
G1 X112.358 Y111.281 E.01361
G1 X120.741 Y111.281 E.27632
G1 X120.741 Y111.694 E.01361
G1 X112.358 Y111.694 E.27632
G1 X112.358 Y112.106 E.01361
G1 X120.741 Y112.106 E.27631
G1 X120.741 Y112.519 E.01361
G1 X112.358 Y112.519 E.27631
G1 X112.358 Y112.932 E.01361
G1 X120.741 Y112.932 E.27631
G1 X120.741 Y113.345 E.01361
G1 X112.358 Y113.345 E.27631
G1 X112.358 Y113.758 E.01361
G1 X120.741 Y113.758 E.27631
G1 X120.741 Y114.171 E.01361
G1 X112.358 Y114.171 E.27631
G1 X112.359 Y114.584 E.01361
G1 X120.741 Y114.584 E.27631
G1 X120.741 Y114.997 E.01361
G1 X112.359 Y114.997 E.27631
G1 X112.359 Y115.41 E.01361
G1 X120.741 Y115.41 E.27631
G1 X120.741 Y115.823 E.01361
G1 X112.359 Y115.823 E.27631
G1 X112.359 Y116.236 E.01361
G1 X120.741 Y116.236 E.27631
G1 X120.741 Y116.649 E.01361
G1 X112.359 Y116.649 E.2763
G1 X112.359 Y117.062 E.01361
G1 X120.741 Y117.062 E.2763
G1 X120.741 Y117.475 E.01361
G1 X112.359 Y117.475 E.2763
G1 X112.359 Y117.888 E.01361
G1 X120.741 Y117.888 E.2763
G1 X120.741 Y118.3 E.01361
G1 X112.359 Y118.3 E.2763
G1 X112.359 Y118.713 E.01361
G1 X120.741 Y118.713 E.2763
G1 X120.741 Y119.126 E.01361
G1 X112.359 Y119.126 E.2763
G1 X112.357 Y119.539 E.01361
G1 X120.741 Y119.539 E.27635
G1 X120.741 Y119.952 E.01361
G1 X112.352 Y119.952 E.27652
G1 X112.347 Y120.365 E.01361
G1 X120.741 Y120.365 E.2767
G1 X120.741 Y120.778 E.01361
G1 X112.133 Y120.778 E.28375
G1 E-.3 F1800
;WIPE_START
G1 F3600
G1 X113.133 Y120.778 E-.5
;WIPE_END
G1 X107.471 Y115.66 Z.6 F7200
G1 X101.489 Y110.254 Z.6
G1 Z.2
G1 E.8 F1800
;TYPE:Inner wall
;WIDTH:0.449999
G1 F1200
G1 X107.711 Y110.254 E.20216
G1 X107.711 Y120.146 E.32147
G1 X101.489 Y120.146 E.20216
G1 X101.489 Y110.294 E.32017
G1 X101.061 Y109.825 F7200
;TYPE:Outer wall
G1 F1200
G1 X108.139 Y109.825 E.23001
G1 X108.139 Y120.575 E.34932
G1 X101.061 Y120.575 E.23001
G1 X101.061 Y109.865 E.34802
G1 E-.08 F1800
;WIPE_START
G1 F1200
G1 X102.061 Y109.859 E-.72
;WIPE_END
G1 X107.589 Y110.566 Z.6 F7200
G1 Z.2
G1 E.8 F1800
;TYPE:Bottom surface
;WIDTH:0.464198
G1 F3600
G1 X101.795 Y110.566 E.19484
G1 X101.795 Y110.987 E.01417
G1 X107.405 Y110.987 E.18868
G1 X107.405 Y111.409 E.01417
G1 X101.795 Y111.409 E.18868
G1 X101.795 Y111.83 E.01417
G1 X107.405 Y111.83 E.18868
G1 X107.405 Y112.251 E.01417
G1 X101.795 Y112.251 E.18868
G1 X101.795 Y112.672 E.01417
G1 X107.405 Y112.672 E.18868
G1 X107.405 Y113.094 E.01417
G1 X101.795 Y113.094 E.18868
G1 X101.795 Y113.515 E.01417
G1 X107.405 Y113.515 E.18868
G1 X107.405 Y113.936 E.01417
G1 X101.795 Y113.936 E.18868
G1 X101.795 Y114.357 E.01417
G1 X107.405 Y114.357 E.18868
G1 X107.405 Y114.779 E.01417
G1 X101.795 Y114.779 E.18868
G1 X101.795 Y115.2 E.01417
G1 X107.405 Y115.2 E.18868
G1 X107.405 Y115.621 E.01417
G1 X101.795 Y115.621 E.18868
G1 X101.795 Y116.043 E.01417
G1 X107.405 Y116.043 E.18868
G1 X107.405 Y116.464 E.01417
G1 X101.795 Y116.464 E.18868
G1 X101.795 Y116.885 E.01417
G1 X107.405 Y116.885 E.18868
G1 X107.405 Y117.306 E.01417
G1 X101.795 Y117.306 E.18868
G1 X101.795 Y117.728 E.01417
G1 X107.405 Y117.728 E.18868
G1 X107.405 Y118.149 E.01417
G1 X101.795 Y118.149 E.18868
G1 X101.795 Y118.57 E.01417
G1 X107.405 Y118.57 E.18868
G1 X107.405 Y118.992 E.01417
G1 X101.795 Y118.992 E.18868
G1 X101.795 Y119.413 E.01417
G1 X107.405 Y119.413 E.18868
G1 X107.405 Y119.834 E.01417
G1 X101.611 Y119.834 E.19484
G1 E-.3 F1800
;WIPE_START
G1 F3600
G1 X102.611 Y119.834 E-.5
;WIPE_END
G1 X97.331 Y121.52 Z.6 F7200
G1 Z.2
G1 E.8 F1800
;TYPE:Inner wall
;WIDTH:0.449999
G1 F1200
G1 X96.692 Y121.472 E.02081
G1 X96.091 Y121.447 E.01955
G1 X88.154 Y121.446 E.25792
G1 X88.154 Y108.953 E.40597
G1 X96.648 Y108.943 E.27602
G1 X97.335 Y108.86 E.0225
G1 X97.209 Y109.428 E.01892
G1 X97.156 Y109.978 E.01796
G1 X97.147 Y110.488 E.01655
G1 X97.147 Y119.93 E.30684
G1 X97.207 Y120.947 E.03309
G1 X97.322 Y121.481 E.01774
G1 X97.921 Y121.629 F7200
;TYPE:Outer wall
;WIDTH:0.428621
G1 F1200
G1 X98.051 Y121.636 E.00401
;WIDTH:0.432465
G1 X101.395 Y121.63 E.10398
G1 X101.794 Y121.661 E.01244
;WIDTH:0.430833
G1 X101.788 Y121.923 E.00813
G1 X101.621 Y122.057 E.00663
;WIDTH:0.432465
G1 X97.978 Y122.064 E.11328
;WIDTH:0.449999
G1 X97.353 Y121.956 E.0206
G1 X96.674 Y121.9 E.02215
G1 X96.091 Y121.875 E.01896
G1 X87.725 Y121.875 E.27184
G1 X87.725 Y108.525 E.43381
G1 X96.597 Y108.517 E.28828
G1 X98.046 Y108.336 E.04748
;WIDTH:0.42859
G1 X101.623 Y108.344 E.11012
G1 X101.789 Y108.476 E.00652
G1 X101.795 Y108.74 E.00813
G1 X101.531 Y108.772 E.00819
G1 X97.906 Y108.764 E.1116
;WIDTH:0.449999
G1 X97.767 Y108.895 E.0062
G1 X97.636 Y109.471 E.01921
G1 X97.586 Y109.971 E.01634
G1 X97.576 Y119.946 E.32413
G1 X97.639 Y120.952 E.03274
G1 X97.767 Y121.505 E.01846
G1 X97.89 Y121.604 E.00512
G1 E-.08 F1800
;WIPE_START
G1 F1200
G1 X98.051 Y121.636 E-.11837
G1 X98.887 Y121.634 E-.60163
;WIPE_END
G1 X97.749 Y114.087 Z.6 F7200
G1 X97.073 Y109.6 Z.6
G1 Z.2
G1 E.8 F1800
;TYPE:Bottom surface
;WIDTH:0.456606
G1 F3600
G1 X88.459 Y109.6 E.28445
G1 X88.459 Y110.014 E.01366
G1 X96.852 Y110.014 E.27718
G1 X96.843 Y110.428 E.01366
G1 X88.459 Y110.428 E.27687
G1 X88.459 Y110.842 E.01366
G1 X96.842 Y110.842 E.27682
G1 X96.842 Y111.255 E.01366
G1 X88.459 Y111.255 E.27682
G1 X88.459 Y111.669 E.01366
G1 X96.842 Y111.669 E.27682
G1 X96.842 Y112.083 E.01366
G1 X88.459 Y112.083 E.27682
G1 X88.459 Y112.496 E.01366
G1 X96.842 Y112.496 E.27682
G1 X96.842 Y112.91 E.01366
G1 X88.459 Y112.91 E.27682
G1 X88.459 Y113.324 E.01366
G1 X96.842 Y113.324 E.27682
G1 X96.842 Y113.737 E.01366
G1 X88.459 Y113.737 E.27682
G1 X88.459 Y114.151 E.01366
G1 X96.842 Y114.151 E.27682
G1 X96.842 Y114.565 E.01366
G1 X88.459 Y114.565 E.27682
G1 X88.459 Y114.978 E.01366
G1 X96.842 Y114.978 E.27682
G1 X96.842 Y115.392 E.01366
G1 X88.459 Y115.392 E.27682
G1 X88.459 Y115.806 E.01366
G1 X96.842 Y115.806 E.27682
G1 X96.842 Y116.219 E.01366
G1 X88.459 Y116.219 E.27682
G1 X88.459 Y116.633 E.01366
G1 X96.842 Y116.633 E.27682
G1 X96.842 Y117.047 E.01366
G1 X88.459 Y117.047 E.27682
G1 X88.459 Y117.461 E.01366
G1 X96.842 Y117.461 E.27682
G1 X96.842 Y117.874 E.01366
G1 X88.459 Y117.874 E.27682
G1 X88.459 Y118.288 E.01366
G1 X96.842 Y118.288 E.27682
G1 X96.842 Y118.702 E.01366
G1 X88.459 Y118.702 E.27682
G1 X88.459 Y119.115 E.01366
G1 X96.842 Y119.115 E.27682
G1 X96.842 Y119.529 E.01366
G1 X88.459 Y119.529 E.27682
G1 X88.459 Y119.943 E.01366
G1 X96.843 Y119.943 E.27687
G1 X96.867 Y120.356 E.01368
G1 X88.459 Y120.356 E.27767
G1 X88.459 Y120.77 E.01366
G1 X97.075 Y120.77 E.28451
G1 E-.3 F1800
;WIPE_START
G1 F3600
G1 X96.075 Y120.77 E-.5
;WIPE_END
G1 X99.771 Y114.092 Z.6 F7200
G1 X107.711 Y99.746 Z.6
G1 Z.2
G1 E.8 F1800
;TYPE:Inner wall
;WIDTH:0.449999
G1 F1200
G1 X101.489 Y99.746 E.20216
G1 X101.489 Y89.854 E.32147
G1 X107.711 Y89.854 E.20216
G1 X107.711 Y99.706 E.32017
G1 X108.139 Y100.175 F7200
;TYPE:Outer wall
G1 F1200
G1 X101.061 Y100.175 E.23001
G1 X101.061 Y89.425 E.34932
G1 X108.139 Y89.425 E.23001
G1 X108.139 Y100.135 E.34802
G1 E-.08 F1800
;WIPE_START
G1 F1200
G1 X107.139 Y100.141 E-.72
;WIPE_END
G1 X107.483 Y92.516 Z.6 F7200
G1 X107.589 Y90.166 Z.6
G1 Z.2
G1 E.8 F1800
;TYPE:Bottom surface
;WIDTH:0.464198
G1 F3600
G1 X101.795 Y90.166 E.19484
G1 X101.795 Y90.587 E.01417
G1 X107.405 Y90.587 E.18868
G1 X107.405 Y91.009 E.01417
G1 X101.795 Y91.009 E.18868
G1 X101.795 Y91.43 E.01417
G1 X107.405 Y91.43 E.18868
G1 X107.405 Y91.851 E.01417
G1 X101.795 Y91.851 E.18868
G1 X101.795 Y92.272 E.01417
G1 X107.405 Y92.272 E.18868
G1 X107.405 Y92.694 E.01417
G1 X101.795 Y92.694 E.18868
G1 X101.795 Y93.115 E.01417
G1 X107.405 Y93.115 E.18868
G1 X107.405 Y93.536 E.01417
G1 X101.795 Y93.536 E.18868
G1 X101.795 Y93.957 E.01417
G1 X107.405 Y93.957 E.18868
G1 X107.405 Y94.379 E.01417
G1 X101.795 Y94.379 E.18868
G1 X101.795 Y94.8 E.01417
G1 X107.405 Y94.8 E.18868
G1 X107.405 Y95.221 E.01417
G1 X101.795 Y95.221 E.18868
G1 X101.795 Y95.643 E.01417
G1 X107.405 Y95.643 E.18868
G1 X107.405 Y96.064 E.01417
G1 X101.795 Y96.064 E.18868
G1 X101.795 Y96.485 E.01417
G1 X107.405 Y96.485 E.18868
G1 X107.405 Y96.906 E.01417
G1 X101.795 Y96.906 E.18868
G1 X101.795 Y97.328 E.01417
G1 X107.405 Y97.328 E.18868
G1 X107.405 Y97.749 E.01417
G1 X101.795 Y97.749 E.18868
G1 X101.795 Y98.17 E.01417
G1 X107.405 Y98.17 E.18868
G1 X107.405 Y98.592 E.01417
G1 X101.795 Y98.592 E.18868
G1 X101.795 Y99.013 E.01417
G1 X107.405 Y99.013 E.18868
G1 X107.405 Y99.434 E.01417
G1 X101.611 Y99.434 E.19484
G1 E-.3 F1800
;WIPE_START
G1 F3600
G1 X102.611 Y99.434 E-.5
;WIPE_END
G1 X97.331 Y101.12 Z.6 F7200
G1 Z.2
G1 E.8 F1800
;TYPE:Inner wall
;WIDTH:0.449999
G1 F1200
G1 X96.692 Y101.072 E.02081
G1 X96.091 Y101.047 E.01955
G1 X88.154 Y101.046 E.25792
G1 X88.154 Y88.553 E.40597
G1 X96.648 Y88.543 E.27602
G1 X97.335 Y88.46 E.0225
G1 X97.209 Y89.028 E.01892
G1 X97.156 Y89.578 E.01796
G1 X97.147 Y90.088 E.01655
G1 X97.147 Y99.53 E.30684
G1 X97.207 Y100.547 E.03309
G1 X97.322 Y101.081 E.01774
G1 X97.921 Y101.229 F7200
;TYPE:Outer wall
;WIDTH:0.428622
G1 F1200
G1 X98.051 Y101.236 E.00401
;WIDTH:0.432466
G1 X101.395 Y101.23 E.10398
G1 X101.794 Y101.261 E.01244
;WIDTH:0.430834
G1 X101.788 Y101.523 E.00813
G1 X101.621 Y101.657 E.00663
;WIDTH:0.432466
G1 X97.978 Y101.664 E.11328
;WIDTH:0.449999
G1 X97.353 Y101.556 E.0206
G1 X96.674 Y101.5 E.02215
G1 X96.091 Y101.475 E.01896
G1 X87.725 Y101.475 E.27185
G1 X87.725 Y88.125 E.43381
G1 X96.597 Y88.117 E.28828
G1 X98.046 Y87.936 E.04748
;WIDTH:0.428589
G1 X101.623 Y87.944 E.11012
G1 X101.789 Y88.076 E.00652
G1 X101.795 Y88.34 E.00813
G1 X101.531 Y88.372 E.00819
G1 X97.906 Y88.364 E.1116
;WIDTH:0.449999
G1 X97.767 Y88.495 E.0062
G1 X97.636 Y89.071 E.01921
G1 X97.586 Y89.571 E.01634
G1 X97.576 Y99.546 E.32413
G1 X97.639 Y100.552 E.03274
G1 X97.767 Y101.105 E.01846
G1 X97.89 Y101.204 E.00512
G1 E-.08 F1800
;WIPE_START
G1 F1200
G1 X98.051 Y101.236 E-.11837
G1 X98.887 Y101.234 E-.60163
;WIPE_END
G1 X97.749 Y93.687 Z.6 F7200
G1 X97.073 Y89.2 Z.6
G1 Z.2
G1 E.8 F1800
;TYPE:Bottom surface
;WIDTH:0.456606
G1 F3600
G1 X88.459 Y89.2 E.28445
G1 X88.459 Y89.614 E.01366
G1 X96.852 Y89.614 E.27718
G1 X96.843 Y90.028 E.01366
G1 X88.459 Y90.028 E.27687
G1 X88.459 Y90.442 E.01366
G1 X96.842 Y90.442 E.27682
G1 X96.842 Y90.855 E.01366
G1 X88.459 Y90.855 E.27682
G1 X88.459 Y91.269 E.01366
G1 X96.842 Y91.269 E.27682
G1 X96.842 Y91.683 E.01366
G1 X88.459 Y91.683 E.27682
G1 X88.459 Y92.096 E.01366
M73 P0 R172
G1 X96.842 Y92.096 E.27682
G1 X96.842 Y92.51 E.01366
G1 X88.459 Y92.51 E.27682
G1 X88.459 Y92.924 E.01366
G1 X96.842 Y92.924 E.27682
G1 X96.842 Y93.337 E.01366
G1 X88.459 Y93.337 E.27682
G1 X88.459 Y93.751 E.01366
G1 X96.842 Y93.751 E.27682
G1 X96.842 Y94.165 E.01366
G1 X88.459 Y94.165 E.27682
G1 X88.459 Y94.578 E.01366
G1 X96.842 Y94.578 E.27682
G1 X96.842 Y94.992 E.01366
G1 X88.459 Y94.992 E.27682
G1 X88.459 Y95.406 E.01366
G1 X96.842 Y95.406 E.27682
G1 X96.842 Y95.819 E.01366
G1 X88.459 Y95.819 E.27682
G1 X88.459 Y96.233 E.01366
G1 X96.842 Y96.233 E.27682
G1 X96.842 Y96.647 E.01366
G1 X88.459 Y96.647 E.27682
G1 X88.459 Y97.061 E.01366
G1 X96.842 Y97.061 E.27682
G1 X96.842 Y97.474 E.01366
G1 X88.459 Y97.474 E.27682
G1 X88.459 Y97.888 E.01366
G1 X96.842 Y97.888 E.27682
G1 X96.842 Y98.302 E.01366
G1 X88.459 Y98.302 E.27682
G1 X88.459 Y98.715 E.01366
G1 X96.842 Y98.715 E.27682
G1 X96.842 Y99.129 E.01366
G1 X88.459 Y99.129 E.27682
G1 X88.459 Y99.543 E.01366
G1 X96.843 Y99.543 E.27687
G1 X96.867 Y99.956 E.01368
G1 X88.459 Y99.956 E.27767
G1 X88.459 Y100.37 E.01366
G1 X97.075 Y100.37 E.28451
G1 E-.3 F1800
;WIPE_START
G1 F3600
G1 X96.075 Y100.37 E-.5
;WIPE_END
G1 X103.699 Y100.732 Z.6 F7200
G1 X111.869 Y101.12 Z.6
G1 Z.2
G1 E.8 F1800
;TYPE:Inner wall
;WIDTH:0.449999
G1 F1200
G1 X111.991 Y100.572 E.01824
G1 X112.044 Y100.016 E.01813
G1 X112.054 Y99.022 E.03231
G1 X112.053 Y90.07 E.29091
G1 X111.993 Y89.053 E.03309
G1 X111.869 Y88.48 E.01904
G1 X112.508 Y88.528 E.02081
G1 X113.11 Y88.553 E.01956
G1 X121.046 Y88.554 E.2579
G1 X121.046 Y101.046 E.40596
G1 X113.084 Y101.047 E.25875
G1 X112.464 Y101.073 E.02015
G1 X111.909 Y101.117 E.01808
G1 X111.25 Y101.236 F7200
;TYPE:Outer wall
G1 F1200
G1 X111.433 Y101.105 E.0073
G1 X111.564 Y100.529 E.01921
G1 X111.615 Y100.015 E.01679
G1 X111.625 Y99.018 E.03239
G1 X111.624 Y90.054 E.29129
G1 X111.561 Y89.048 E.03274
G1 X111.433 Y88.495 E.01846
G1 X111.279 Y88.371 E.00642
;WIDTH:0.428612
G1 X111.149 Y88.364 E.004
;WIDTH:0.431552
G1 X107.676 Y88.371 E.10776
G1 X107.406 Y88.339 E.00842
