M118 E1 OCTOAPP_DISABLE_LAYER_MAXIC
; HEADER_BLOCK_START
; generated by OrcaSlicer 2.3.1 on 2025-11-29 at 13:42:38
; total layer number: 98
; filament_density: 1.31
; filament_diameter: 1.75
; max_z_height: 23.92
; HEADER_BLOCK_END
; THUMBNAIL_BLOCK_START
;
; THUMBNAIL_BLOCK_END
; THUMBNAIL_BLOCK_START
;
; THUMBNAIL_BLOCK_END
; external perimeters extrusion width = 0.45mm
; perimeters extrusion width = 0.45mm
; infill extrusion width = 0.45mm
; solid infill extrusion width = 0.45mm
; top infill extrusion width = 0.40mm
; EXECUTABLE_BLOCK_START
M73 P0 R161
M201 X1000 Y1000 Z200 E800
M203 X200 Y200 Z12 E120
M204 P1250 R1000 T1250
M205 X10.00 Y10.00 Z0.40 E5.00 ; sets the jerk limits, mm/sec
;TYPE:Custom
M862.3 P "" ; printer model check
M862.1 P0.4 ; nozzle diameter check
M115 U3.2.3 ; tell printer latest fw version
G90 ; use absolute coordinates
M83 ; extruder relative mode
M204 S1250 T1000 ; MK2 firmware only supports the old M204 format
M104 S220 ; set extruder temp
M140 S55 ; set bed temp
M190 S55 ; wait for bed temp
M109 S220 ; wait for extruder temp
G28 W ; home all without mesh bed level
G80 ; mesh bed leveling
G1 Z2.0 F3000 ;Move Z Axis up
G1 X58.7471 Y48.7512 Z0.8 F5000 ; Move to start
M109 S220 ; wait for nozzle temp to stabilize
G92 E0 ;Reset Extruder
G1 X58.7471 Y78.7512 E30 F360.0 ; Extrude 30mm in Y
G92 E0 ;Reset Extruder
G1 E-0.5 F2100 ; Retract
G1 Y88.7512 F5000 ; Move 10mm in Y
G92 E0  ;Reset Extrude
G90
G21
M83 ; use relative distances for extrusion
; Filament gcode
M106 S0
;LAYER_CHANGE
M118 E1 OCTOAPP_LAYER LAYER=0
M117 DASHBOARD_LAYER_INDICATOR 1
;Z:0.2
;HEIGHT:0.2
;BEFORE_LAYER_CHANGE
G92 E0.0
;0.2
G1 E-.8 F1800
;_SET_FAN_SPEED_CHANGING_LAYER
M204 S300
; printing object Yarn holder base.stl id:15 copy 0
G1 X155.842 Y61.408 F7200
G1 Z.6
G1 Z.2
G1 E.8 F1800
;TYPE:Inner wall
;WIDTH:0.449999
G1 F1200
G1 X156.928 Y62.197 E.04361
G1 X157.993 Y63.013 E.04361
G1 X159.038 Y63.855 E.04361
G1 X160.061 Y64.723 E.04361
G1 X161.062 Y65.617 E.04361
G1 X162.041 Y66.536 E.04361
G1 X162.996 Y67.479 E.04361
G1 X163.926 Y68.446 E.04361
G1 X164.833 Y69.435 E.04361
G1 X165.714 Y70.448 E.04361
G1 X166.569 Y71.482 E.04361
G1 X167.399 Y72.537 E.04361
G1 X168.201 Y73.613 E.04361
G1 X168.976 Y74.708 E.04361
G1 X169.724 Y75.823 E.04361
G1 X170.443 Y76.956 E.04361
G1 X171.133 Y78.107 E.04361
G1 X171.794 Y79.275 E.04361
G1 X172.426 Y80.459 E.04361
G1 X173.028 Y81.658 E.04361
G1 X173.599 Y82.873 E.04361
G1 X174.14 Y84.101 E.04361
G1 X174.65 Y85.342 E.04361
G1 X175.128 Y86.596 E.04361
G1 X175.575 Y87.862 E.04361
G1 X175.989 Y89.138 E.04361
G1 X176.372 Y90.425 E.04362
G1 X176.722 Y91.72 E.04361
G1 X177.039 Y93.024 E.04361
G1 X177.324 Y94.336 E.04361
G1 X177.575 Y95.654 E.04361
G1 X177.793 Y96.978 E.04361
G1 X177.978 Y98.307 E.04361
G1 X178.13 Y99.641 E.04361
G1 X178.248 Y100.978 E.04361
G1 X178.332 Y102.309 E.04336
G1 X178.385 Y103.832 E.04949
G1 X178.399 Y105 E.03797
G1 X178.382 Y106.345 E.04372
G1 X178.332 Y107.69 E.04372
G1 X178.248 Y109.022 E.04339
G1 X178.13 Y110.359 E.04361
G1 X177.978 Y111.693 E.04361
G1 X177.793 Y113.022 E.04361
G1 X177.575 Y114.346 E.04361
G1 X177.324 Y115.664 E.04361
G1 X177.039 Y116.976 E.04361
G1 X176.722 Y118.28 E.04361
G1 X176.372 Y119.575 E.04361
G1 X175.989 Y120.862 E.04362
G1 X175.575 Y122.138 E.04361
G1 X175.128 Y123.404 E.04361
G1 X174.65 Y124.658 E.04361
G1 X174.14 Y125.899 E.04361
G1 X173.599 Y127.127 E.04361
G1 X173.028 Y128.342 E.04361
G1 X172.426 Y129.541 E.04361
G1 X171.794 Y130.725 E.04361
G1 X171.133 Y131.893 E.04361
G1 X170.443 Y133.044 E.04361
G1 X169.724 Y134.177 E.04361
G1 X168.976 Y135.292 E.04361
G1 X168.201 Y136.387 E.0436
G1 X167.399 Y137.463 E.04361
G1 X166.569 Y138.518 E.04361
G1 X165.714 Y139.552 E.04361
G1 X164.833 Y140.565 E.04361
G1 X163.926 Y141.554 E.04361
G1 X162.996 Y142.521 E.04361
G1 X162.041 Y143.464 E.04361
G1 X161.062 Y144.383 E.04361
G1 X160.061 Y145.277 E.04361
G1 X159.038 Y146.145 E.04361
G1 X157.993 Y146.987 E.04361
G1 X156.928 Y147.803 E.04361
G1 X155.842 Y148.592 E.04361
G1 X154.737 Y149.353 E.04361
G1 X153.613 Y150.087 E.04361
G1 X152.471 Y150.791 E.04361
G1 X151.311 Y151.467 E.04361
G1 X150.135 Y152.114 E.04361
G1 X148.943 Y152.731 E.04361
G1 X147.736 Y153.317 E.04361
G1 X146.515 Y153.873 E.04361
G1 X145.28 Y154.399 E.04361
G1 X144.032 Y154.893 E.04361
G1 X142.938 Y155.294 E.03788
G1 X141.5 Y155.786 E.04937
G1 X140.22 Y156.185 E.04358
G1 X138.929 Y156.551 E.04361
G1 X137.629 Y156.885 E.04361
G1 X136.321 Y157.186 E.04361
G1 X135.006 Y157.454 E.04361
G1 X133.685 Y157.688 E.04361
G1 X132.358 Y157.89 E.04361
G1 X131.026 Y158.058 E.04361
G1 X129.691 Y158.193 E.04361
G1 X128.353 Y158.294 E.04361
G1 X127.013 Y158.361 E.04361
G1 X125.671 Y158.395 E.04361
G1 X124.329 Y158.395 E.04361
G1 X122.987 Y158.361 E.04361
G1 X121.647 Y158.294 E.04361
G1 X120.309 Y158.193 E.04361
G1 X118.974 Y158.058 E.04361
G1 X117.642 Y157.89 E.04361
G1 X116.315 Y157.688 E.04361
G1 X114.994 Y157.454 E.04361
G1 X113.679 Y157.186 E.04361
G1 X112.371 Y156.885 E.04361
G1 X111.071 Y156.551 E.04361
G1 X109.78 Y156.185 E.04361
G1 X108.499 Y155.786 E.04361
G1 X107.228 Y155.355 E.04361
G1 X105.968 Y154.893 E.04361
G1 X104.72 Y154.399 E.04361
G1 X103.485 Y153.873 E.04361
G1 X102.264 Y153.317 E.04361
G1 X101.057 Y152.731 E.04361
G1 X99.865 Y152.114 E.04361
G1 X98.689 Y151.467 E.04361
G1 X97.529 Y150.791 E.04361
G1 X96.387 Y150.087 E.04361
G1 X95.263 Y149.353 E.04361
G1 X94.158 Y148.592 E.04361
G1 X93.072 Y147.803 E.04361
G1 X92.007 Y146.987 E.04361
G1 X90.962 Y146.145 E.04361
G1 X89.939 Y145.277 E.04361
G1 X88.938 Y144.383 E.04361
G1 X87.959 Y143.464 E.04361
G1 X87.004 Y142.521 E.04361
G1 X86.074 Y141.554 E.04361
G1 X85.167 Y140.565 E.04361
G1 X84.286 Y139.552 E.04361
G1 X83.431 Y138.518 E.04361
G1 X82.601 Y137.463 E.04361
G1 X81.799 Y136.387 E.04361
G1 X81.024 Y135.292 E.04361
G1 X80.276 Y134.177 E.04361
G1 X79.557 Y133.044 E.04361
G1 X78.867 Y131.893 E.04361
G1 X78.206 Y130.725 E.04361
G1 X77.574 Y129.541 E.04361
G1 X76.972 Y128.342 E.04361
G1 X76.401 Y127.127 E.04361
G1 X75.86 Y125.899 E.04361
G1 X75.35 Y124.658 E.04361
G1 X74.872 Y123.404 E.04361
G1 X74.425 Y122.138 E.04361
G1 X74.011 Y120.862 E.04361
G1 X73.628 Y119.575 E.04362
G1 X73.278 Y118.28 E.04361
G1 X72.961 Y116.976 E.04361
G1 X72.676 Y115.664 E.04361
G1 X72.425 Y114.346 E.04361
G1 X72.28 Y113.466 E.02899
G1 X72.021 Y111.691 E.05829
G1 X71.87 Y110.359 E.04354
G1 X71.752 Y109.022 E.04362
G1 X71.668 Y107.683 E.0436
G1 X71.617 Y106.342 E.04361
G1 X71.601 Y105 E.04361
G1 X71.617 Y103.658 E.04361
G1 X71.668 Y102.317 E.04361
G1 X71.752 Y100.978 E.0436
G1 X71.87 Y99.641 E.04362
G1 X72.022 Y98.307 E.04361
G1 X72.207 Y96.978 E.04361
G1 X72.425 Y95.654 E.04361
G1 X72.676 Y94.336 E.04361
G1 X72.961 Y93.024 E.04361
G1 X73.278 Y91.72 E.04361
G1 X73.628 Y90.425 E.04361
G1 X74.011 Y89.138 E.04362
G1 X74.425 Y87.862 E.04361
G1 X74.872 Y86.596 E.04361
G1 X75.35 Y85.342 E.04361
G1 X75.86 Y84.101 E.04361
G1 X76.401 Y82.873 E.04361
G1 X76.972 Y81.658 E.04361
G1 X77.574 Y80.459 E.04361
G1 X78.206 Y79.275 E.04361
G1 X78.867 Y78.107 E.04361
G1 X79.557 Y76.956 E.04361
G1 X80.276 Y75.823 E.04361
G1 X81.024 Y74.708 E.04361
G1 X81.799 Y73.613 E.0436
G1 X82.601 Y72.537 E.04361
G1 X83.431 Y71.482 E.04361
G1 X84.286 Y70.448 E.04361
G1 X85.167 Y69.435 E.04361
G1 X86.074 Y68.446 E.04361
G1 X87.004 Y67.479 E.04361
G1 X87.959 Y66.536 E.04361
G1 X88.938 Y65.617 E.04361
G1 X89.939 Y64.723 E.04361
G1 X90.962 Y63.855 E.04361
G1 X92.007 Y63.013 E.04361
G1 X93.072 Y62.197 E.04361
G1 X94.158 Y61.408 E.04361
G1 X95.263 Y60.647 E.04361
G1 X96.387 Y59.913 E.04361
G1 X97.529 Y59.209 E.04361
G1 X98.689 Y58.533 E.04361
G1 X99.865 Y57.886 E.04361
G1 X101.057 Y57.269 E.04361
G1 X102.264 Y56.683 E.04361
G1 X103.485 Y56.127 E.04361
G1 X104.72 Y55.601 E.04361
G1 X105.968 Y55.107 E.04361
G1 X107.228 Y54.645 E.04361
G1 X108.499 Y54.214 E.04361
G1 X109.78 Y53.815 E.04361
G1 X111.071 Y53.449 E.04361
G1 X112.371 Y53.115 E.04361
G1 X113.679 Y52.814 E.04361
G1 X114.994 Y52.546 E.04361
G1 X116.315 Y52.312 E.04361
G1 X117.642 Y52.11 E.04361
G1 X118.974 Y51.942 E.04361
G1 X120.309 Y51.807 E.04361
G1 X121.647 Y51.706 E.04361
G1 X122.987 Y51.639 E.04361
G1 X124.329 Y51.605 E.04361
G1 X125.671 Y51.605 E.04361
G1 X127.013 Y51.639 E.04361
G1 X128.353 Y51.706 E.04361
G1 X129.691 Y51.807 E.04361
G1 X131.026 Y51.942 E.04361
G1 X132.358 Y52.11 E.04361
G1 X133.685 Y52.312 E.04361
G1 X135.006 Y52.546 E.04361
G1 X136.321 Y52.814 E.04361
G1 X137.629 Y53.115 E.04361
G1 X138.929 Y53.449 E.04361
G1 X140.22 Y53.815 E.04361
G1 X141.501 Y54.214 E.04361
G1 X142.772 Y54.645 E.04361
G1 X144.032 Y55.107 E.04361
G1 X145.28 Y55.601 E.04361
G1 X146.515 Y56.127 E.04361
G1 X147.736 Y56.683 E.04361
G1 X148.943 Y57.269 E.04361
G1 X150.135 Y57.886 E.04361
G1 X151.311 Y58.533 E.04361
G1 X152.471 Y59.209 E.04361
G1 X153.613 Y59.913 E.04361
G1 X154.737 Y60.647 E.04361
G1 X155.809 Y61.385 E.04231
G1 X156.089 Y61.057 F7200
;TYPE:Outer wall
G1 F1200
G1 X156.09 Y61.058 E.00004
G1 X157.184 Y61.853 E.04396
G1 X158.258 Y62.676 E.04396
G1 X159.311 Y63.525 E.04396
G1 X160.343 Y64.4 E.04396
G1 X161.352 Y65.301 E.04396
G1 X162.338 Y66.227 E.04396
G1 X163.301 Y67.178 E.04396
G1 X164.239 Y68.152 E.04396
G1 X165.153 Y69.15 E.04396
G1 X166.041 Y70.17 E.04396
G1 X166.903 Y71.213 E.04396
G1 X167.739 Y72.276 E.04396
G1 X168.548 Y73.361 E.04396
G1 X169.329 Y74.465 E.04396
G1 X170.082 Y75.589 E.04396
G1 X170.807 Y76.731 E.04396
G1 X171.503 Y77.891 E.04396
G1 X172.17 Y79.068 E.04396
G1 X172.807 Y80.262 E.04396
G1 X173.413 Y81.471 E.04396
G1 X173.989 Y82.695 E.04396
G1 X174.534 Y83.933 E.04396
G1 X175.048 Y85.185 E.04396
G1 X175.53 Y86.449 E.04396
G1 X175.98 Y87.724 E.04396
G1 X176.398 Y89.011 E.04396
G1 X176.784 Y90.308 E.04397
G1 X177.137 Y91.614 E.04396
G1 X177.457 Y92.928 E.04396
G1 X177.744 Y94.25 E.04396
G1 X177.997 Y95.579 E.04396
G1 X178.217 Y96.914 E.04396
G1 X178.404 Y98.254 E.04396
G1 X178.556 Y99.598 E.04396
G1 X178.675 Y100.945 E.04396
G1 X178.76 Y102.288 E.04373
G1 X178.813 Y103.821 E.04984
G1 X178.828 Y105 E.0383
G1 X178.811 Y106.356 E.04407
G1 X178.76 Y107.711 E.04407
G1 X178.675 Y109.055 E.04374
G1 X178.556 Y110.402 E.04396
G1 X178.404 Y111.746 E.04396
G1 X178.217 Y113.086 E.04396
G1 X177.997 Y114.421 E.04396
G1 X177.744 Y115.75 E.04396
G1 X177.457 Y117.072 E.04396
G1 X177.137 Y118.386 E.04396
G1 X176.784 Y119.692 E.04396
G1 X176.398 Y120.989 E.04397
G1 X175.98 Y122.276 E.04396
G1 X175.53 Y123.551 E.04396
G1 X175.048 Y124.815 E.04396
G1 X174.534 Y126.067 E.04396
G1 X173.989 Y127.305 E.04396
G1 X173.413 Y128.529 E.04396
G1 X172.807 Y129.738 E.04396
G1 X172.17 Y130.932 E.04396
G1 X171.503 Y132.109 E.04396
G1 X170.807 Y133.269 E.04396
G1 X170.082 Y134.411 E.04396
G1 X169.329 Y135.535 E.04396
G1 X168.548 Y136.639 E.04395
G1 X167.739 Y137.724 E.04396
G1 X166.903 Y138.787 E.04396
G1 X166.041 Y139.83 E.04396
G1 X165.153 Y140.85 E.04396
G1 X164.239 Y141.848 E.04396
G1 X163.301 Y142.822 E.04396
G1 X162.338 Y143.773 E.04396
G1 X161.352 Y144.699 E.04396
G1 X160.343 Y145.6 E.04396
G1 X159.311 Y146.475 E.04396
G1 X158.258 Y147.324 E.04396
G1 X157.184 Y148.147 E.04396
G1 X156.09 Y148.942 E.04396
G1 X154.976 Y149.709 E.04396
G1 X153.843 Y150.448 E.04396
G1 X152.691 Y151.159 E.04396
G1 X151.523 Y151.84 E.04396
G1 X150.337 Y152.492 E.04396
G1 X149.136 Y153.114 E.04396
G1 X147.919 Y153.705 E.04396
G1 X146.688 Y154.266 E.04396
G1 X145.443 Y154.795 E.04396
G1 X144.185 Y155.293 E.04396
G1 X143.081 Y155.698 E.03821
G1 X141.633 Y156.194 E.04972
G1 X140.342 Y156.595 E.04395
G1 X139.041 Y156.965 E.04396
G1 X137.73 Y157.301 E.04396
G1 X136.412 Y157.604 E.04396
G1 X135.086 Y157.875 E.04396
G1 X133.754 Y158.111 E.04396
G1 X132.417 Y158.315 E.04396
G1 X131.075 Y158.484 E.04396
G1 X129.729 Y158.62 E.04396
G1 X128.38 Y158.722 E.04396
G1 X127.029 Y158.79 E.04396
G1 X125.676 Y158.824 E.04396
G1 X124.324 Y158.824 E.04396
G1 X122.971 Y158.79 E.04396
G1 X121.62 Y158.722 E.04396
G1 X120.271 Y158.62 E.04396
G1 X118.925 Y158.484 E.04396
G1 X117.583 Y158.315 E.04396
G1 X116.246 Y158.111 E.04396
G1 X114.914 Y157.875 E.04396
G1 X113.588 Y157.604 E.04396
G1 X112.27 Y157.301 E.04396
G1 X110.959 Y156.965 E.04396
G1 X109.658 Y156.595 E.04396
G1 X108.366 Y156.193 E.04396
G1 X107.085 Y155.759 E.04396
G1 X105.815 Y155.293 E.04396
G1 X104.557 Y154.795 E.04396
G1 X103.312 Y154.266 E.04396
G1 X102.081 Y153.705 E.04396
G1 X100.864 Y153.114 E.04396
G1 X99.663 Y152.492 E.04396
G1 X98.477 Y151.84 E.04396
G1 X97.309 Y151.159 E.04396
G1 X96.157 Y150.448 E.04396
G1 X95.024 Y149.709 E.04396
G1 X93.91 Y148.942 E.04396
G1 X92.816 Y148.147 E.04396
G1 X91.742 Y147.324 E.04396
G1 X90.689 Y146.475 E.04396
G1 X89.657 Y145.6 E.04396
G1 X88.648 Y144.699 E.04396
G1 X87.662 Y143.773 E.04396
G1 X86.699 Y142.822 E.04396
G1 X85.761 Y141.848 E.04396
G1 X84.847 Y140.85 E.04396
G1 X83.959 Y139.83 E.04396
G1 X83.097 Y138.787 E.04396
G1 X82.261 Y137.724 E.04396
G1 X81.452 Y136.639 E.04396
G1 X80.671 Y135.535 E.04396
G1 X79.918 Y134.411 E.04396
G1 X79.193 Y133.269 E.04396
G1 X78.497 Y132.109 E.04396
G1 X77.83 Y130.932 E.04396
G1 X77.193 Y129.738 E.04396
G1 X76.587 Y128.529 E.04396
G1 X76.011 Y127.305 E.04396
G1 X75.466 Y126.067 E.04396
G1 X74.952 Y124.815 E.04396
G1 X74.47 Y123.551 E.04396
G1 X74.02 Y122.276 E.04396
G1 X73.602 Y120.989 E.04396
G1 X73.216 Y119.692 E.04397
G1 X72.863 Y118.386 E.04396
G1 X72.543 Y117.072 E.04396
G1 X72.256 Y115.75 E.04396
G1 X72.003 Y114.421 E.04396
G1 X71.856 Y113.532 E.0293
G1 X71.596 Y111.746 E.05864
G1 X71.444 Y110.402 E.04393
G1 X71.325 Y109.055 E.04397
G1 X71.24 Y107.705 E.04395
G1 X71.189 Y106.353 E.04396
G1 X71.172 Y105 E.04396
G1 X71.189 Y103.647 E.04396
G1 X71.24 Y102.295 E.04396
G1 X71.325 Y100.945 E.04395
G1 X71.444 Y99.598 E.04397
G1 X71.596 Y98.254 E.04396
G1 X71.783 Y96.914 E.04396
G1 X72.003 Y95.579 E.04396
G1 X72.256 Y94.25 E.04396
G1 X72.543 Y92.928 E.04396
G1 X72.863 Y91.614 E.04396
G1 X73.216 Y90.308 E.04396
G1 X73.602 Y89.011 E.04397
G1 X74.02 Y87.724 E.04396
G1 X74.47 Y86.449 E.04396
G1 X74.952 Y85.185 E.04396
G1 X75.466 Y83.933 E.04396
G1 X76.011 Y82.695 E.04396
G1 X76.587 Y81.471 E.04396
G1 X77.193 Y80.262 E.04396
G1 X77.83 Y79.068 E.04396
G1 X78.497 Y77.891 E.04396
G1 X79.193 Y76.731 E.04396
G1 X79.918 Y75.589 E.04396
G1 X80.671 Y74.465 E.04396
G1 X81.452 Y73.361 E.04395
G1 X82.261 Y72.276 E.04396
G1 X83.097 Y71.213 E.04396
G1 X83.959 Y70.17 E.04396
G1 X84.847 Y69.15 E.04396
G1 X85.761 Y68.152 E.04396
G1 X86.699 Y67.178 E.04396
G1 X87.662 Y66.227 E.04396
G1 X88.648 Y65.301 E.04396
G1 X89.657 Y64.4 E.04396
G1 X90.689 Y63.525 E.04396
G1 X91.742 Y62.676 E.04396
G1 X92.816 Y61.853 E.04396
G1 X93.91 Y61.058 E.04396
G1 X95.024 Y60.291 E.04396
G1 X96.157 Y59.552 E.04396
G1 X97.309 Y58.841 E.04396
G1 X98.477 Y58.16 E.04396
G1 X99.663 Y57.508 E.04396
G1 X100.864 Y56.886 E.04396
G1 X102.081 Y56.295 E.04396
G1 X103.312 Y55.734 E.04396
G1 X104.557 Y55.205 E.04396
G1 X105.815 Y54.707 E.04396
G1 X107.085 Y54.241 E.04396
G1 X108.366 Y53.807 E.04396
G1 X109.658 Y53.405 E.04396
G1 X110.959 Y53.035 E.04396
G1 X112.27 Y52.699 E.04396
G1 X113.588 Y52.396 E.04396
G1 X114.914 Y52.125 E.04396
G1 X116.246 Y51.889 E.04396
G1 X117.583 Y51.685 E.04396
G1 X118.925 Y51.516 E.04396
G1 X120.271 Y51.38 E.04396
G1 X121.62 Y51.278 E.04396
G1 X122.971 Y51.21 E.04396
G1 X124.324 Y51.176 E.04396
G1 X125.676 Y51.176 E.04396
G1 X127.029 Y51.21 E.04396
G1 X128.38 Y51.278 E.04396
G1 X129.729 Y51.38 E.04396
G1 X131.075 Y51.516 E.04396
G1 X132.417 Y51.685 E.04396
G1 X133.754 Y51.889 E.04396
G1 X135.086 Y52.125 E.04396
G1 X136.412 Y52.396 E.04396
G1 X137.73 Y52.699 E.04396
G1 X139.041 Y53.035 E.04396
G1 X140.342 Y53.405 E.04396
G1 X141.634 Y53.807 E.04396
G1 X142.915 Y54.241 E.04396
G1 X144.185 Y54.707 E.04396
G1 X145.443 Y55.205 E.04396
G1 X146.688 Y55.734 E.04396
G1 X147.919 Y56.295 E.04396
G1 X149.136 Y56.886 E.04396
G1 X150.337 Y57.508 E.04396
G1 X151.523 Y58.16 E.04396
G1 X152.691 Y58.841 E.04396
G1 X153.843 Y59.552 E.04396
G1 X154.976 Y60.291 E.04396
G1 X156.056 Y61.035 E.04262
G1 E-.08 F1800
;WIPE_START
G1 F1200
G1 X156.09 Y61.058 E-.02958
G1 X156.865 Y61.622 E-.69042
