M118 E1 OCTOAPP_DISABLE_LAYER_MAXIC
; HEADER_BLOCK_START
; generated by OrcaSlicer 2.3.1 on 2025-11-29 at 16:36:02
; total layer number: 106
; filament_density: 1.31
; filament_diameter: 1.75
; max_z_height: 16.40
; HEADER_BLOCK_END
; THUMBNAIL_BLOCK_START
;
; THUMBNAIL_BLOCK_END
; THUMBNAIL_BLOCK_START
;
; THUMBNAIL_BLOCK_END
; external perimeters extrusion width = 0.45mm
; perimeters extrusion width = 0.45mm
; infill extrusion width = 0.45mm
; solid infill extrusion width = 0.45mm
; top infill extrusion width = 0.40mm
; support material extrusion width = 0.40mm
; EXECUTABLE_BLOCK_START
M73 P0 R17
M201 X1000 Y1000 Z200 E800
M203 X200 Y200 Z12 E120
M204 P1250 R1000 T1250
M205 X10.00 Y10.00 Z0.40 E5.00 ; sets the jerk limits, mm/sec
;TYPE:Custom
M862.3 P "" ; printer model check
M862.1 P0.4 ; nozzle diameter check
M115 U3.2.3 ; tell printer latest fw version
G90 ; use absolute coordinates
M83 ; extruder relative mode
M204 S1250 T1000 ; MK2 firmware only supports the old M204 format
M104 S220 ; set extruder temp
M140 S55 ; set bed temp
M190 S55 ; wait for bed temp
M109 S220 ; wait for extruder temp
G28 W ; home all without mesh bed level
G80 ; mesh bed leveling
G1 Z2.0 F3000 ;Move Z Axis up
G1 X102.45 Y92.4503 Z0.8 F5000 ; Move to start
M109 S220 ; wait for nozzle temp to stabilize
G92 E0 ;Reset Extruder
G1 X102.45 Y122.45 E30 F360.0 ; Extrude 30mm in Y
M73 P0 R16
G92 E0 ;Reset Extruder
G1 E-0.5 F2100 ; Retract
G1 Y132.45 F5000 ; Move 10mm in Y
G92 E0  ;Reset Extrude
G90
G21
M83 ; use relative distances for extrusion
; Filament gcode
M106 S0
;LAYER_CHANGE
M117 DASHBOARD_LAYER_INDICATOR 1
M118 E1 OCTOAPP_LAYER LAYER=0
M117 DASHBOARD_LAYER_INDICATOR 1
;Z:0.2
;HEIGHT:0.2
;BEFORE_LAYER_CHANGE
G92 E0.0
;0.2
G1 E-.8 F1800
;_SET_FAN_SPEED_CHANGING_LAYER
M204 S300
; printing object Yarn Holder v28_Spindle Peg (1).stl id:15 copy 0
G1 X115.081 Y109.675 F7200
G1 Z.6
G1 Z.2
G1 E.8 F1800
;TYPE:Support
;WIDTH:0.4
G1 F1200
G1 X115.081 Y100.486 E.26192
G1 X115.478 Y100.486 E.01131
G1 X115.478 Y109.514 E.25734
G1 X115.875 Y109.514 E.01131
G1 X115.875 Y100.486 E.25734
G1 X116.271 Y100.486 E.01131
G1 X116.271 Y109.514 E.25734
G1 X116.668 Y109.514 E.01131
G1 X116.668 Y100.486 E.25734
G1 X117.065 Y100.486 E.01131
M73 P1 R16
G1 X117.065 Y109.514 E.25734
G1 X117.462 Y109.514 E.01131
G1 X117.462 Y100.486 E.25734
G1 X117.629 Y100.486 E.00476
G1 X117.629 Y97.629 E.08144
G1 X117.858 Y97.629 E.00655
G1 X117.858 Y112.371 E.42021
G1 X118.255 Y112.371 E.01131
G1 X118.255 Y97.629 E.42021
G1 X118.652 Y97.629 E.01131
G1 X118.652 Y112.371 E.42021
G1 X119.049 Y112.371 E.01131
G1 X119.049 Y97.629 E.42021
G1 X119.445 Y97.629 E.01131
G1 X119.445 Y112.371 E.42021
G1 X119.842 Y112.371 E.01131
G1 X119.842 Y97.629 E.42021
G1 X120.239 Y97.629 E.01131
G1 X120.239 Y112.532 E.42479
G1 E-.08 F1800
;WIPE_START
G1 F1200
G1 X120.239 Y111.532 E-.72
;WIPE_END
G1 X123.091 Y104.453 Z.6 F7200
G1 X124.606 Y100.695 Z.6
G1 Z.2
G1 E.8 F1800
G1 F1200
G1 X124.241 Y100.743 E.01047
G1 X123.867 Y100.827 E.01094
G1 X123.484 Y100.95 E.01147
G1 X123.114 Y101.109 E.01147
G1 X122.761 Y101.301 E.01147
G1 X122.427 Y101.526 E.01147
G1 X122.115 Y101.78 E.01147
G1 X121.828 Y102.062 E.01147
G1 X121.569 Y102.37 E.01147
G1 X121.339 Y102.7 E.01147
G1 X121.141 Y103.051 E.01147
G1 X120.977 Y103.418 E.01147
G1 X120.847 Y103.799 E.01147
G1 X120.754 Y104.19 E.01147
G1 X120.695 Y104.607 E.012
G1 X120.677 Y105.009 E.01147
G1 X120.697 Y105.411 E.01147
G1 X120.754 Y105.81 E.01147
G1 X120.847 Y106.201 E.01147
G1 X120.977 Y106.582 E.01147
G1 X121.141 Y106.949 E.01147
G1 X121.339 Y107.3 E.01147
G1 X121.568 Y107.629 E.01143
G1 X121.816 Y107.925 E.01103
G1 X122.115 Y108.22 E.01196
G1 X122.427 Y108.474 E.01147
G1 X122.761 Y108.699 E.01147
G1 X123.114 Y108.891 E.01147
G1 X123.484 Y109.05 E.01147
G1 X123.867 Y109.173 E.01147
G1 X124.26 Y109.261 E.01147
G1 X124.659 Y109.311 E.01147
G1 X125.061 Y109.324 E.01147
G1 X125.444 Y109.302 E.01094
G1 X125.842 Y109.242 E.01147
G1 X126.246 Y109.142 E.01188
G1 X126.627 Y109.008 E.0115
G1 X126.981 Y108.845 E.01111
G1 X127.33 Y108.644 E.01147
G1 X127.659 Y108.412 E.01147
G1 X127.973 Y108.142 E.01181
G1 X128.252 Y107.853 E.01146
G1 X128.503 Y107.538 E.01146
G1 X128.724 Y107.202 E.01146
G1 X128.912 Y106.847 E.01146
G1 X129.067 Y106.476 E.01146
G1 X129.186 Y106.091 E.01146
G1 X129.296 Y105.505 E.01702
G1 X129.325 Y105.094 E.01173
G1 X129.315 Y104.692 E.01147
G1 X129.268 Y104.292 E.01147
G1 X129.184 Y103.899 E.01147
G1 X129.063 Y103.515 E.01147
G1 X128.908 Y103.144 E.01147
G1 X128.718 Y102.788 E.01147
G1 X128.496 Y102.453 E.01147
G1 X128.245 Y102.139 E.01147
G1 X127.824 Y101.724 E.01684
G1 X127.659 Y101.588 E.0061
G1 X127.34 Y101.362 E.01112
G1 X126.992 Y101.161 E.01146
G1 X126.627 Y100.992 E.01146
G1 X126.246 Y100.858 E.0115
G1 X125.842 Y100.758 E.01188
G1 X125.448 Y100.698 E.01136
G1 X125.057 Y100.676 E.01115
G1 X124.659 Y100.689 E.01137
G1 X129.836 Y97.307 F7200
G1 F1200
G1 X132.693 Y97.307 E.08144
G1 X132.693 Y100.164 E.08144
G1 X135.55 Y100.164 E.08144
G1 X135.55 Y109.836 E.27566
G1 X132.693 Y109.836 E.08144
G1 X132.693 Y112.693 E.08144
M73 P2 R16
G1 X129.836 Y112.693 E.08144
G1 X129.836 Y115.55 E.08144
G1 X120.164 Y115.55 E.27566
G1 X120.164 Y112.693 E.08144
G1 X117.307 Y112.693 E.08144
G1 X117.307 Y109.836 E.08144
G1 X114.45 Y109.836 E.08144
G1 X114.45 Y100.164 E.27566
G1 X117.307 Y100.164 E.08144
G1 X117.307 Y97.307 E.08144
G1 X120.164 Y97.307 E.08144
G1 X120.164 Y94.45 E.08144
G1 X129.836 Y94.45 E.27566
G1 X129.836 Y97.254 E.07991
G1 X129.364 Y94.611 F7200
G1 F1200
G1 X129.364 Y103.402 E.25058
G1 X129.196 Y103.002 E.01237
G1 X128.968 Y102.582 E.01365
G1 X128.968 Y94.772 E.22261
G1 X128.571 Y94.772 E.01131
G1 X128.571 Y102.028 E.20683
G1 X128.174 Y101.606 E.01651
G1 X128.174 Y94.772 E.1948
G1 X127.777 Y94.772 E.01131
G1 X127.777 Y101.276 E.1854
G1 X127.381 Y101.011 E.0136
G1 X127.381 Y94.772 E.17785
G1 X126.984 Y94.772 E.01131
G1 X126.984 Y100.8 E.17183
G1 X126.587 Y100.635 E.01225
G1 X126.587 Y94.772 E.16712
G1 X126.19 Y94.772 E.01131
G1 X126.19 Y100.512 E.16363
G1 X125.794 Y100.425 E.01158
G1 X125.794 Y94.772 E.16115
G1 X125.397 Y94.772 E.01131
G1 X125.397 Y100.373 E.15964
G1 X125 Y100.355 E.01132
G1 X125 Y94.772 E.15915
G1 X124.603 Y94.772 E.01131
G1 X124.603 Y100.371 E.1596
G1 X124.206 Y100.422 E.0114
G1 X124.206 Y94.772 E.16107
G1 X123.81 Y94.772 E.01131
G1 X123.81 Y100.51 E.16357
G1 X123.413 Y100.636 E.01186
G1 X123.413 Y94.772 E.16714
G1 X123.016 Y94.772 E.01131
G1 X123.016 Y100.801 E.17186
G1 X122.619 Y101.012 E.01281
G1 X122.619 Y94.772 E.17788
G1 X122.223 Y94.772 E.01131
G1 X122.223 Y101.277 E.18542
G1 X121.826 Y101.612 E.01481
M73 P3 R16
G1 X121.826 Y94.772 E.19499
G1 X121.429 Y94.772 E.01131
G1 X121.429 Y102.036 E.20707
G1 X121.297 Y102.196 E.0059
G1 X121.032 Y102.588 E.0135
G1 X121.032 Y94.772 E.22281
G1 X120.636 Y94.772 E.01131
G1 X120.636 Y103.421 E.24654
G1 X120.531 Y103.736 E.00945
G1 X120.433 Y104.157 E.01232
G1 X120.377 Y104.551 E.01137
G1 X120.356 Y104.983 E.01232
G1 X120.374 Y105.415 E.01232
G1 X120.433 Y105.843 E.01232
G1 X120.531 Y106.264 E.01232
G1 X120.636 Y106.579 E.00945
G1 X120.636 Y115.228 E.24654
G1 X121.032 Y115.228 E.01131
G1 X121.032 Y107.412 E.22281
G1 X121.297 Y107.803 E.01347
G1 X121.429 Y107.965 E.00595
G1 X121.429 Y115.228 E.20703
G1 X121.826 Y115.228 E.01131
G1 X121.826 Y108.388 E.19499
G1 X122.223 Y108.723 E.01481
G1 X122.223 Y115.228 E.18542
G1 X122.619 Y115.228 E.01131
G1 X122.619 Y108.988 E.17788
G1 X123.016 Y109.199 E.01281
G1 X123.016 Y115.228 E.17186
G1 X123.413 Y115.228 E.01131
G1 X123.413 Y109.364 E.16714
G1 X123.81 Y109.49 E.01186
G1 X123.81 Y115.228 E.16357
G1 X124.206 Y115.228 E.01131
G1 X124.206 Y109.578 E.16107
G1 X124.603 Y109.629 E.0114
G1 X124.603 Y115.228 E.1596
G1 X125 Y115.228 E.01131
G1 X125 Y109.645 E.15916
G1 X125.397 Y109.627 E.01132
G1 X125.397 Y115.228 E.15967
G1 X125.794 Y115.228 E.01131
G1 X125.794 Y109.575 E.16115
G1 X126.19 Y109.488 E.01158
G1 X126.19 Y115.228 E.16363
G1 X126.587 Y115.228 E.01131
G1 X126.587 Y109.365 E.16712
G1 X126.984 Y109.2 E.01225
G1 X126.984 Y115.228 E.17183
G1 X127.381 Y115.228 E.01131
G1 X127.381 Y108.989 E.17785
G1 X127.777 Y108.724 E.0136
G1 X127.777 Y115.228 E.1854
G1 X128.174 Y115.228 E.01131
G1 X128.174 Y108.394 E.1948
G1 X128.571 Y107.972 E.01651
G1 X128.571 Y115.228 E.20683
G1 X128.968 Y115.228 E.01131
G1 X128.968 Y107.418 E.22261
G1 X129.196 Y106.998 E.01365
M73 P4 R16
G1 X129.364 Y106.598 E.01237
G1 X129.364 Y115.228 E.246
G1 X129.514 Y115.228 E.00427
G1 X129.514 Y112.371 E.08144
G1 X129.761 Y112.371 E.00704
G1 X129.761 Y97.629 E.42021
G1 X130.158 Y97.629 E.01131
G1 X130.158 Y112.371 E.42021
G1 X130.555 Y112.371 E.01131
G1 X130.555 Y97.629 E.42021
G1 X130.951 Y97.629 E.01131
G1 X130.951 Y112.371 E.42021
G1 X131.348 Y112.371 E.01131
G1 X131.348 Y97.629 E.42021
G1 X131.745 Y97.629 E.01131
G1 X131.745 Y112.371 E.42021
G1 X132.142 Y112.371 E.01131
G1 X132.142 Y97.629 E.42021
G1 X132.371 Y97.629 E.00655
G1 X132.371 Y100.486 E.08144
G1 X132.538 Y100.486 E.00476
G1 X132.538 Y109.514 E.25734
G1 X132.935 Y109.514 E.01131
G1 X132.935 Y100.486 E.25734
G1 X133.332 Y100.486 E.01131
G1 X133.332 Y109.514 E.25734
G1 X133.729 Y109.514 E.01131
G1 X133.729 Y100.486 E.25734
G1 X134.125 Y100.486 E.01131
G1 X134.125 Y109.514 E.25734
G1 X134.522 Y109.514 E.01131
G1 X134.522 Y100.486 E.25734
G1 X134.919 Y100.486 E.01131
G1 X134.919 Y109.675 E.26192
G1 E-.08 F1800
;WIPE_START
G1 F1200
G1 X134.919 Y108.675 E-.72
;WIPE_END
G1 X127.433 Y107.185 Z.6 F7200
G1 X123.201 Y106.342 Z.6
M73 P5 R16
G1 Z.2
G1 E.8 F1800
;TYPE:Inner wall
;WIDTH:0.449999
G1 F1200
G1 X122.905 Y105.819 E.01954
G1 X122.79 Y105.417 E.01359
G1 X122.751 Y105 E.01359
G1 X122.79 Y104.583 E.01359
G1 X122.905 Y104.181 E.01359
G1 X123.093 Y103.807 E.01359
G1 X123.347 Y103.475 E.01359
G1 X123.658 Y103.195 E.01359
G1 X124.015 Y102.977 E.01359
G1 X124.407 Y102.83 E.01359
G1 X124.832 Y102.755 E.01402
G1 X125.266 Y102.769 E.01413
G1 X125.845 Y102.913 E.01937
G1 X126.216 Y103.105 E.01359
G1 X126.546 Y103.363 E.01359
G1 X126.822 Y103.677 E.01359
G1 X127.036 Y104.036 E.01359
G1 X127.179 Y104.429 E.01359
G1 X127.249 Y105 E.01869
G1 X127.226 Y105.283 E.00922
G1 X127.1 Y105.787 E.01689
G1 X126.831 Y106.309 E.01907
G1 X126.331 Y106.812 E.02305
G1 X125.845 Y107.087 E.01816
G1 X125.444 Y107.207 E.01359
G1 X125.028 Y107.25 E.0136
G1 X124.611 Y107.216 E.01359
G1 X124.207 Y107.106 E.01359
G1 X123.831 Y106.922 E.01359
G1 X123.486 Y106.665 E.01399
G1 X123.227 Y106.372 E.0127
G1 X122.909 Y106.616 F7200
G1 F1200
G1 X122.75 Y106.417 E.00829
G1 X122.525 Y105.967 E.01635
G1 X122.388 Y105.492 E.01606
G1 X122.342 Y105 E.01606
G1 X122.388 Y104.508 E.01606
G1 X122.525 Y104.033 E.01606
G1 X122.747 Y103.591 E.01606
G1 X123.046 Y103.198 E.01606
G1 X123.414 Y102.867 E.01606
G1 X123.836 Y102.61 E.01606
G1 X124.298 Y102.435 E.01606
G1 X125 Y102.346 E.02298
G1 X125.515 Y102.39 E.01679
G1 X125.998 Y102.534 E.01638
G1 X126.437 Y102.761 E.01606
G1 X126.826 Y103.065 E.01606
G1 X127.153 Y103.436 E.01606
G1 X127.405 Y103.861 E.01606
G1 X127.574 Y104.326 E.01606
G1 X127.656 Y105.176 E.02775
G1 X127.574 Y105.674 E.01642
G1 X127.405 Y106.139 E.01606
G1 X127.159 Y106.553 E.01566
G1 X126.839 Y106.9 E.01535
G1 X126.446 Y107.235 E.01676
G1 X125.998 Y107.466 E.01639
G1 X125.524 Y107.608 E.01606
G1 X125.032 Y107.659 E.01607
G1 X124.54 Y107.619 E.01606
G1 X124.063 Y107.488 E.01606
G1 X123.619 Y107.271 E.01606
G1 X123.074 Y106.823 E.02294
G1 X122.934 Y106.648 E.00727
G1 X122.592 Y106.869 F7200
G1 F1200
G1 X122.402 Y106.631 E.00991
G1 X122.144 Y106.116 E.0187
G1 X121.987 Y105.568 E.01853
G1 X121.934 Y105 E.01853
G1 X121.987 Y104.432 E.01853
G1 X122.144 Y103.884 E.01853
G1 X122.4 Y103.374 E.01853
G1 X122.746 Y102.921 E.01853
G1 X123.169 Y102.539 E.01853
G1 X123.657 Y102.242 E.01853
G1 X124.19 Y102.041 E.01853
G1 X124.472 Y101.991 E.00931
G1 X124.997 Y101.939 E.01712
G1 X125.599 Y101.99 E.01964
G1 X126.151 Y102.155 E.01872
G1 X126.657 Y102.417 E.01853
G1 X127.107 Y102.768 E.01853
G1 X127.484 Y103.196 E.01853
G1 X127.774 Y103.686 E.01853
G1 X127.97 Y104.222 E.01853
G1 X128.016 Y104.502 E.00921
G1 X128.063 Y105.209 E.02304
G1 X127.97 Y105.778 E.01874
G1 X127.774 Y106.314 E.01853
G1 X127.487 Y106.798 E.01829
G1 X126.991 Y107.335 E.02375
G1 X126.663 Y107.581 E.01334
G1 X126.151 Y107.845 E.01872
G1 X125.604 Y108.009 E.01853
G1 X125.037 Y108.068 E.01853
G1 X124.469 Y108.022 E.01853
G1 X123.919 Y107.871 E.01853
G1 X123.406 Y107.621 E.01853
G1 X123.176 Y107.449 E.00933
G1 X122.779 Y107.104 E.01709
G1 X122.617 Y106.9 E.00845
G1 X122.258 Y107.135 F7200
;TYPE:Outer wall
G1 F1200
G1 X122.035 Y106.855 E.01162
G1 X121.743 Y106.273 E.02118
G1 X121.564 Y105.648 E.02113
G1 X121.503 Y105 E.02113
G1 X121.564 Y104.352 E.02113
G1 X121.743 Y103.727 E.02113
G1 X122.035 Y103.146 E.02113
G1 X122.429 Y102.629 E.02113
G1 X122.912 Y102.194 E.02113
G1 X123.468 Y101.856 E.02113
G1 X124.076 Y101.626 E.02113
G1 X124.45 Y101.56 E.01232
G1 X124.993 Y101.511 E.01773
G1 X125.688 Y101.569 E.02264
G1 X126.312 Y101.756 E.02117
G1 X126.89 Y102.054 E.02113
G1 X127.402 Y102.455 E.02113
G1 X127.832 Y102.943 E.02113
G1 X128.163 Y103.502 E.02113
G1 X128.386 Y104.113 E.02113
G1 X128.44 Y104.44 E.01077
G1 X128.492 Y105.244 E.02618
G1 X128.386 Y105.887 E.02118
G1 X128.163 Y106.498 E.02113
G1 X127.833 Y107.055 E.02106
G1 X127.28 Y107.654 E.0265
G1 X126.891 Y107.945 E.01577
G1 X126.312 Y108.244 E.02117
G1 X125.689 Y108.431 E.02113
G1 X125.042 Y108.498 E.02113
G1 X124.394 Y108.445 E.02113
G1 X123.767 Y108.273 E.02113
G1 X123.182 Y107.988 E.02113
G1 X122.881 Y107.764 E.01221
G1 X122.469 Y107.4 E.01786
G1 X122.283 Y107.166 E.0097
G1 E-.08 F1800
;WIPE_START
G1 F1200
G1 X122.035 Y106.855 E-.28636
G1 X121.765 Y106.317 E-.43364
;WIPE_END
G1 X124.927 Y105.249 Z.6 F7200
G1 Z.2
G1 E.8 F1800
;TYPE:Bottom surface
;WIDTH:0.545009
G1 F3600
G1 X125.113 Y105.235 E.00747
G1 X125.254 Y105.066 E.00881
G1 X125.265 Y105 E.0027
G1 X125.194 Y104.826 E.00753
G1 X125.049 Y104.751 E.00655
G1 X124.864 Y104.78 E.00752
G1 X124.752 Y104.931 E.00753
G1 X124.767 Y105.11 E.00724
G1 X124.897 Y105.223 E.00688
G1 X124.589 Y105.583 F7200
;WIDTH:0.449999
G1 F3600
G1 X124.877 Y105.706 E.0102
G1 X125.202 Y105.686 E.01058
G1 X125.418 Y105.588 E.0077
G1 X125.65 Y105.307 E.01183
G1 X125.723 Y105 E.01027
G1 X125.65 Y104.693 E.01027
G1 X125.444 Y104.439 E.01061
G1 X125.161 Y104.302 E.01022
G1 X124.812 Y104.308 E.01133
G1 X124.526 Y104.467 E.01062
G1 X124.363 Y104.681 E.00875
G1 X124.284 Y105 E.01068
G1 X124.356 Y105.306 E.01021
G1 X124.563 Y105.552 E.01045
G1 X124.186 Y105.759 F7200
G1 F3600
G1 X124.416 Y105.962 E.00997
G1 X124.806 Y106.109 E.01355
G1 X125.223 Y106.104 E.01355
G1 X125.633 Y105.936 E.01438
G1 X125.928 Y105.636 E.01371
G1 X126.091 Y105.286 E.01254
G1 X126.13 Y105 E.00937
G1 X126.055 Y104.614 E.01276
G1 X125.913 Y104.338 E.01011
G1 X125.609 Y104.052 E.01354
G1 X125.232 Y103.898 E.01324
G1 X124.791 Y103.898 E.01431
G1 X124.508 Y103.988 E.00965
G1 X124.174 Y104.237 E.01355
G1 X123.953 Y104.59 E.01355
G1 X123.876 Y105 E.01355
G1 X123.953 Y105.41 E.01355
G1 X124.164 Y105.726 E.01234
G1 X123.874 Y106.021 F7200
G1 F3600
G1 X124.203 Y106.311 E.01427
G1 X124.601 Y106.475 E.01397
G1 X125.019 Y106.535 E.01374
G1 X125.449 Y106.462 E.01417
G1 X125.849 Y106.283 E.01425
G1 X126.257 Y105.88 E.0186
G1 X126.44 Y105.516 E.01325
G1 X126.537 Y105.084 E.01439
G1 X126.487 Y104.611 E.01547
G1 X126.315 Y104.218 E.01392
G1 X126.055 Y103.883 E.01378
G1 X125.689 Y103.635 E.01436
G1 X125.303 Y103.495 E.01336
G1 X124.877 Y103.47 E.01387
G1 X124.457 Y103.572 E.01405
G1 X124.085 Y103.769 E.01366
G1 X123.786 Y104.074 E.0139
G1 X123.572 Y104.442 E.01381
G1 X123.48 Y104.861 E.01397
G1 X123.493 Y105.284 E.01374
G1 X123.629 Y105.671 E.01332
G1 X123.851 Y105.988 E.01258
G1 X123.489 Y106.195 F7200
G1 F3600
G1 X123.694 Y106.44 E.01038
G1 X124.138 Y106.732 E.01728
G1 X124.664 Y106.914 E.01808
G1 X125.201 Y106.925 E.01745
G1 X125.73 Y106.803 E.01764
G1 X126.239 Y106.5 E.01924
G1 X126.585 Y106.125 E.01658
G1 X126.823 Y105.656 E.0171
G1 X126.944 Y105.117 E.01792
