M118 E1 OCTOAPP_DISABLE_LAYER_MAXIC
; HEADER_BLOCK_START
; generated by OrcaSlicer 2.3.0 on 2025-06-09 at 18:12:39
; total layer number: 60
;_GP_TOTAL_LAYER_NUMBER_PLACEHOLDER
; filament_density: 1.31
; filament_diameter: 1.75
; max_z_height: 14.95
; HEADER_BLOCK_END
; THUMBNAIL_BLOCK_START
;
; THUMBNAIL_BLOCK_END
; THUMBNAIL_BLOCK_START
;
; THUMBNAIL_BLOCK_END
; external perimeters extrusion width = 0.80mm
; perimeters extrusion width = 0.80mm
; infill extrusion width = 0.80mm
; solid infill extrusion width = 0.80mm
; top infill extrusion width = 0.80mm
; EXECUTABLE_BLOCK_START
M73 P0 R96
M201 X1000 Y1000 Z200 E800
M203 X200 Y200 Z12 E120
M204 P1250 R1000 T1250
M205 X6.00 Y6.00 Z0.40 E1.00 ; sets the jerk limits, mm/sec
;TYPE:Custom
M862.3 P "" ; printer model check
M862.1 P0.4 ; nozzle diameter check
M115 U3.2.3 ; tell printer latest fw version
G90 ; use absolute coordinates
M83 ; extruder relative mode
M204 S1250 T1000 ; MK2 firmware only supports the old M204 format
M104 S220 ; set extruder temp
M140 S55 ; set bed temp
M190 S55 ; wait for bed temp
M109 S220 ; wait for extruder temp
G28 W ; home all without mesh bed level
G80 ; mesh bed leveling
G1 Z2.0 F3000 ;Move Z Axis up
G1 X53.9 Y43.9 Z0.8 F5000 ; Move to start
M109 S220 ; wait for nozzle temp to stabilize
G92 E0 ;Reset Extruder
G1 X53.9 Y73.9 E30 F360.0 ; Extrude 30mm in Y
G92 E0 ;Reset Extruder
G1 E-0.5 F2100 ; Retract
G1 Y83.9 F5000 ; Move 10mm in Y
G92 E0  ;Reset Extrude
G90
G21
M83 ; use relative distances for extrusion
; Filament gcode
M106 S0
;LAYER_CHANGE
M118 E1 OCTOAPP_LAYER LAYER=0
M117 DASHBOARD_LAYER_INDICATOR 1
;Z:0.2
;HEIGHT:0.2
;BEFORE_LAYER_CHANGE
G92 E0.0
;0.2
G1 E-.8 F1800
;_SET_FAN_SPEED_CHANGING_LAYER
M204 S300
; printing object CrochetBlock.stl id:18446744073668834883 copy 0
G1 X153.644 Y153.727 F7200
G1 Z.6
G1 Z.2
G1 E.8 F1800
;TYPE:Inner wall
;WIDTH:0.799999
G1 F1200
G1 X153.621 Y153.857 E.00816
G1 X153.621 Y156.483 E.162
G1 X153.72 Y156.837 E.02268
G1 X153.955 Y157.177 E.02548
G1 X159.526 Y162.735 E.48549
G1 X158.357 Y162.721 E.07213
G1 X100.482 Y162.727 E3.57041
G1 X106.159 Y157.064 E.49467
M73 P0 R95
G1 X106.339 Y156.67 E.02672
G1 X106.379 Y156.373 E.01845
G1 X106.379 Y153.758 E.16133
G1 X106.245 Y153.323 E.02811
G1 X106.026 Y153.035 E.02231
G1 X105.68 Y152.809 E.02551
G1 X105.243 Y152.721 E.02748
G1 X77.279 Y152.721 E1.72519
G1 X77.279 Y122.502 E1.86429
G1 X77.106 Y122.064 E.02906
G1 X76.857 Y121.782 E.02321
G1 X76.578 Y121.616 E.02007
G1 X75.993 Y121.415 E.03814
G1 X75.645 Y121.423 E.02148
G1 X75.285 Y121.552 E.02359
G1 X75.04 Y121.738 E.01896
G1 X67.668 Y129.11 E.64319
G1 X67.264 Y129.548 E.03676
G1 X67.278 Y128.848 E.04315
G1 X67.278 Y71.133 E3.5606
G1 X67.255 Y70.443 E.04256
G1 X67.739 Y70.961 E.0437
G1 X75.123 Y78.346 E.64428
G1 X75.409 Y78.509 E.02029
G1 X75.752 Y78.591 E.02178
G1 X76.13 Y78.558 E.02343
G1 X76.718 Y78.315 E.03921
G1 X76.99 Y78.092 E.02169
G1 X77.199 Y77.753 E.02455
G1 X77.279 Y77.335 E.02628
G1 X77.279 Y47.279 E1.85426
G1 X98.558 Y47.278 E1.31276
G1 X99.191 Y47.255 E.03907
G1 X91.057 Y55.367 E.70868
G1 X90.866 Y55.716 E.02454
G1 X90.803 Y56.035 E.02007
G1 X90.842 Y56.395 E.02235
G1 X91.082 Y56.968 E.03827
G1 X91.304 Y57.24 E.02169
G1 X91.643 Y57.449 E.02455
G1 X92.061 Y57.529 E.02628
G1 X167.173 Y57.529 E4.63384
G1 X168.191 Y57.5 E.0628
G1 X168.494 Y57.383 E.02006
G1 X168.793 Y57.141 E.02374
G1 X168.988 Y56.827 E.02276
G1 X169.169 Y56.351 E.03147
G1 X169.192 Y55.969 E.02357
G1 X169.09 Y55.609 E.02306
G1 X168.866 Y55.29 E.02412
G1 X160.833 Y47.265 E.70048
G1 X183.622 Y47.278 E1.40588
G1 X183.637 Y70.094 E1.40754
G1 X183.187 Y69.612 E.04065
G1 X174.71 Y61.134 E.73963
G1 X174.5 Y60.969 E.01649
G1 X174.181 Y60.835 E.02133
G1 X173.802 Y60.806 E.02345
G1 X173.472 Y60.888 E.02095
G1 X173.014 Y61.093 E.03098
G1 X172.737 Y61.331 E.02254
G1 X172.544 Y61.663 E.02368
G1 X172.471 Y62.061 E.02498
G1 X172.471 Y138.09 E4.6904
G1 X172.644 Y138.54 E.02969
G1 X172.893 Y138.822 E.02321
G1 X173.172 Y138.988 E.02007
G1 X173.73 Y139.185 E.03646
G1 X174.076 Y139.186 E.02134
G1 X174.393 Y139.089 E.02045
G1 X174.71 Y138.866 E.02395
G1 X183.202 Y130.374 E.74089
G1 X183.636 Y129.907 E.03936
G1 X183.622 Y152.721 E1.4075
G1 X154.587 Y152.721 E1.79124
G1 X154.132 Y152.909 E.03035
G1 X153.849 Y153.176 E.02401
G1 X153.69 Y153.468 E.02053
G1 X153.651 Y153.687 E.01372
G1 X154.4 Y154.434 F7200
;TYPE:Outer wall
G1 F1200
G1 X154.4 Y156.412 E.12204
G1 X154.505 Y156.626 E.0147
G1 X160.046 Y162.156 E.48296
G1 X160.439 Y162.493 E.03194
G1 X161.206 Y163.045 E.05828
G1 X161.862 Y163.7 E.05718
G1 X160.912 Y163.7 E.05857
G1 X159.867 Y163.534 E.06527
G1 X159.349 Y163.505 E.03203
G1 X158.353 Y163.5 E.06145
G1 X100.603 Y163.505 E3.5627
G1 X99.988 Y163.554 E.03805
G1 X99.125 Y163.7 E.05406
G1 X98.138 Y163.7 E.06083
G1 X98.794 Y163.045 E.05718
G1 X99.674 Y162.398 E.06736
G1 X100.054 Y162.058 E.03148
G1 X105.535 Y156.587 E.47774
G1 X105.6 Y156.373 E.01377
G1 X105.6 Y153.762 E.1611
G1 X105.439 Y153.559 E.01598
G1 X105.243 Y153.5 E.01266
G1 X76.5 Y153.5 E1.77322
G1 X76.5 Y122.665 E1.90229
G1 X76.475 Y122.533 E.00826
G1 X76.368 Y122.387 E.01118
G1 X75.98 Y122.211 E.02629
G1 X75.781 Y122.189 E.01235
G1 X75.59 Y122.288 E.01323
G1 X68.28 Y129.6 E.63788
G1 X67.531 Y130.41 E.06804
G1 X66.973 Y131.188 E.05909
G1 X66.3 Y131.862 E.05874
G1 X66.3 Y130.912 E.05855
G1 X66.466 Y129.867 E.06529
G1 X66.494 Y129.367 E.03091
G1 X66.5 Y128.852 E.03178
G1 X66.5 Y71.124 E3.56137
G1 X66.452 Y70.024 E.0679
G1 X66.3 Y69.125 E.0563
G1 X66.3 Y68.138 E.06083
G1 X66.973 Y68.812 E.05874
G1 X67.604 Y69.674 E.0659
G1 X68.29 Y70.41 E.06208
G1 X75.643 Y77.764 E.64156
G1 X75.85 Y77.816 E.01321
G1 X76.28 Y77.665 E.02808
G1 X76.446 Y77.524 E.01345
G1 X76.5 Y77.335 E.01213
G1 X76.5 Y46.5 E1.90229
G1 X98.601 Y46.5 E1.36344
G1 X99.585 Y46.459 E.06075
G1 X100.538 Y46.3 E.05965
G1 X101.508 Y46.3 E.05982
G1 X100.831 Y46.977 E.05908
G1 X100.399 Y47.278 E.0325
G1 X99.969 Y47.603 E.03324
G1 X99.268 Y48.264 E.05946
G1 X91.638 Y55.887 E.66536
G1 X91.58 Y56.093 E.01319
G1 X91.731 Y56.53 E.02851
G1 X91.872 Y56.696 E.01345
G1 X92.061 Y56.75 E.01213
G1 X167.173 Y56.75 E4.63384
G1 X168.018 Y56.741 E.05211
M73 P1 R95
G1 X168.207 Y56.628 E.0136
G1 X168.393 Y56.23 E.02711
G1 X168.414 Y56.028 E.01251
G1 X168.315 Y55.84 E.01308
G1 X160.413 Y47.945 E.68913
G1 X160.006 Y47.582 E.03367
G1 X159.196 Y47.004 E.06138
G1 X158.492 Y46.3 E.06141
G1 X159.448 Y46.3 E.059
G1 X160.502 Y46.467 E.06581
G1 X161.022 Y46.495 E.0321
G1 X184.4 Y46.5 E1.44228
G1 X184.405 Y69.89 E1.44298
G1 X184.445 Y70.494 E.03735
G1 X184.6 Y71.414 E.05755
G1 X184.6 Y72.408 E.06133
G1 X183.913 Y71.72 E.05998
G1 X183.305 Y70.88 E.06398
G1 X182.637 Y70.162 E.06049
G1 X174.133 Y61.658 E.74195
G1 X173.914 Y61.58 E.01435
G1 X173.47 Y61.731 E.0289
G1 X173.296 Y61.887 E.01442
G1 X173.25 Y62.061 E.01114
G1 X173.25 Y137.939 E4.68105
G1 X173.275 Y138.07 E.00826
G1 X173.382 Y138.216 E.01118
G1 X173.77 Y138.393 E.02629
G1 X173.96 Y138.416 E.01179
G1 X174.159 Y138.315 E.01378
G1 X182.686 Y129.789 E.74391
G1 X183.35 Y129.067 E.06048
G1 X183.913 Y128.28 E.05973
G1 X184.6 Y127.592 E.05998
G1 X184.6 Y128.542 E.05861
G1 X184.434 Y129.588 E.06535
G1 X184.405 Y130.109 E.03216
G1 X184.4 Y153.5 E1.44306
G1 X154.757 Y153.5 E1.82875
G1 X154.62 Y153.527 E.00864
M73 P1 R94
G1 X154.471 Y153.643 E.01159
G1 X154.4 Y153.857 E.01393
G1 X154.4 Y154.394 E.03312
G1 E-.08 F1800
;WIPE_START
G1 F1200
G1 X154.4 Y155.394 E-.72
;WIPE_END
G1 X160.344 Y150.606 Z.6 F7200
G1 X166.779 Y145.423 Z.6
G1 Z.2
G1 E.8 F1800
;TYPE:Inner wall
G1 F1200
G1 X166.779 Y145.893 E.029
G1 X166.707 Y146.29 E.02487
G1 X166.547 Y146.58 E.02046
G1 X166.264 Y146.844 E.02387
G1 X165.796 Y147.029 E.03104
G1 X84.107 Y147.029 E5.03957
G1 X83.656 Y146.935 E.02842
G1 X83.304 Y146.696 E.02625
G1 X83.065 Y146.344 E.02625
G1 X82.971 Y146.032 E.02008
G1 X82.971 Y122.665 E1.44158
G1 X82.971 Y64.357 E3.59715
G1 X83.057 Y63.924 E.02727
G1 X83.28 Y63.578 E.02535
G1 X83.566 Y63.359 E.02221
G1 X83.979 Y63.229 E.02673
G1 X84.876 Y63.221 E.05537
G1 X165.643 Y63.221 E4.98267
G1 X166.064 Y63.302 E.02644
G1 X166.356 Y63.473 E.02086
G1 X166.604 Y63.753 E.02308
G1 X166.779 Y64.193 E.02924
G1 X166.779 Y145.383 E5.00877
G1 X166 Y145.423 F7200
;TYPE:Outer wall
G1 F1200
G1 X166 Y145.896 E.02918
G1 X165.927 Y146.109 E.0139
G1 X165.779 Y146.223 E.01152
G1 X165.643 Y146.25 E.00857
G1 X84.107 Y146.25 E5.03014
G1 X83.905 Y146.187 E.01307
G1 X83.779 Y146.035 E.01217
G1 X83.75 Y145.893 E.00894
G1 X83.75 Y64.357 E5.03014
G1 X83.808 Y64.162 E.01257
G1 X83.982 Y64.022 E.01376
G1 X84.876 Y64 E.05518
G1 X165.643 Y64 E4.98267
G1 X165.833 Y64.055 E.0122
G1 X165.975 Y64.225 E.01365
G1 X166 Y64.357 E.00831
G1 X166 Y145.383 E4.99867
G1 E-.08 F1800
;WIPE_START
G1 F1200
G1 X166 Y145.896 E-.36933
G1 X165.927 Y146.109 E-.16221
G1 X165.779 Y146.223 E-.13447
G1 X165.706 Y146.238 E-.05399
;WIPE_END
G1 X167.072 Y138.728 Z.6 F7200
G1 X183.395 Y49.037 Z.6
G1 Z.2
G1 E.8 F1800
;TYPE:Bottom surface
;WIDTH:0.800383
G1 F3600
G1 X182.204 Y47.846 E.10397
G1 X181.132 Y47.846 E.06613
G1 X183.054 Y49.768 E.16778
G1 X183.055 Y50.839 E.06613
G1 X180.061 Y47.845 E.26132
G1 X178.99 Y47.845 E.06613
G1 X183.055 Y51.91 E.35487
G1 X183.055 Y52.982 E.06613
G1 X177.918 Y47.845 E.44842
G1 X176.847 Y47.845 E.06613
G1 X183.055 Y54.053 E.54197
G1 X183.056 Y55.125 E.06613
G1 X175.775 Y47.844 E.63551
G1 X174.704 Y47.844 E.06613
G1 X183.056 Y56.196 E.72906
G1 X183.056 Y57.268 E.06613
G1 X173.632 Y47.844 E.82261
G1 X172.561 Y47.844 E.06613
G1 X183.056 Y58.339 E.91616
G1 X183.057 Y59.411 E.06613
G1 X171.489 Y47.843 E1.0097
G1 X170.418 Y47.843 E.06613
G1 X183.057 Y60.482 E1.10325
G1 X183.057 Y61.554 E.06613
G1 X169.346 Y47.843 E1.1968
G1 X168.275 Y47.843 E.06613
G1 X183.057 Y62.625 E1.29035
G1 X183.057 Y63.696 E.06613
G1 X167.204 Y47.843 E1.3839
G1 X166.132 Y47.842 E.06613
G1 X183.058 Y64.768 E1.47744
G1 X183.058 Y65.839 E.06613
G1 X165.061 Y47.842 E1.57099
G1 X163.989 Y47.842 E.06613
G1 X183.058 Y66.911 E1.66454
G1 X183.058 Y67.982 E.06613
G1 X162.918 Y47.842 E1.75809
G1 X162.214 Y47.841 E.04345
G1 X169.271 Y54.892 E.61573
M73 P2 R94
G1 X169.405 Y55.043 E.01247
G1 X169.517 Y55.205 E.01213
G1 X169.606 Y55.371 E.01167
G1 X169.723 Y55.718 E.02257
G1 X174.283 Y60.278 E.39808
G1 X173.944 Y60.233 E.0211
G1 X173.748 Y60.241 E.0121
G1 X173.519 Y60.278 E.01433
G1 X173.286 Y60.353 E.0151
G1 X169.647 Y56.714 E.31765
G1 X169.51 Y57.052 E.02253
G1 X169.392 Y57.283 E.01605
G1 X169.287 Y57.425 E.01084
G1 X172.574 Y60.711 E.28688
G1 X172.51 Y60.757 E.00486
G1 X172.281 Y60.991 E.02018
G1 X172.089 Y61.297 E.02235
G1 X168.703 Y57.911 E.29556
G1 X168.537 Y57.988 E.01126
G1 X168.313 Y58.055 E.01444
G1 X167.949 Y58.096 E.02261
G1 X167.816 Y58.096 E.0082
G1 X171.904 Y62.184 E.35677
G1 X171.904 Y63.255 E.06612
G1 X166.745 Y58.096 E.45028
G1 X165.674 Y58.096 E.06612
G1 X171.904 Y64.326 E.54378
G1 X171.904 Y65.397 E.06612
G1 X164.603 Y58.096 E.63729
G1 X163.532 Y58.096 E.06612
G1 X171.904 Y66.468 E.7308
G1 X171.904 Y67.54 E.06612
G1 X162.46 Y58.096 E.8243
G1 X161.389 Y58.096 E.06612
G1 X171.904 Y68.611 E.91781
G1 X171.904 Y69.682 E.06612
G1 X167.346 Y65.125 E.39781
G1 X167.346 Y66.196 E.06612
G1 X171.904 Y70.753 E.39781
G1 X171.904 Y71.824 E.06612
G1 X167.346 Y67.267 E.39781
G1 X167.346 Y68.338 E.06612
G1 X171.904 Y72.896 E.39781
G1 X171.904 Y73.967 E.06612
G1 X167.346 Y69.41 E.39781
G1 X167.346 Y70.481 E.06612
G1 X171.904 Y75.038 E.39781
G1 X171.904 Y76.109 E.06612
G1 X167.346 Y71.552 E.39781
G1 X167.346 Y72.623 E.06612
G1 X171.904 Y77.181 E.39781
G1 X171.904 Y78.252 E.06612
G1 X167.346 Y73.694 E.39781
G1 X167.346 Y74.766 E.06612
G1 X171.904 Y79.323 E.39781
G1 X171.904 Y80.394 E.06612
G1 X167.346 Y75.837 E.39781
G1 X167.346 Y76.908 E.06612
G1 X171.904 Y81.465 E.39781
G1 X171.904 Y82.537 E.06612
G1 X167.346 Y77.979 E.39781
G1 X167.346 Y79.05 E.06612
G1 X171.904 Y83.608 E.39781
G1 X171.904 Y84.679 E.06612
G1 X167.346 Y80.122 E.39781
G1 X167.346 Y81.193 E.06612
G1 X171.904 Y85.75 E.39781
G1 X171.904 Y86.821 E.06612
G1 X167.346 Y82.264 E.39781
G1 X167.346 Y83.335 E.06612
G1 X171.904 Y87.893 E.39781
G1 X171.904 Y88.964 E.06612
G1 X167.346 Y84.407 E.39781
G1 X167.346 Y85.478 E.06612
G1 X171.904 Y90.035 E.39781
G1 X171.904 Y91.106 E.06612
G1 X167.346 Y86.549 E.39781
G1 X167.346 Y87.62 E.06612
G1 X171.904 Y92.178 E.39781
G1 X171.904 Y93.249 E.06612
G1 X167.346 Y88.691 E.39781
G1 X167.346 Y89.763 E.06612
G1 X171.904 Y94.32 E.39781
G1 X171.904 Y95.391 E.06612
G1 X167.346 Y90.834 E.39781
G1 X167.346 Y91.905 E.06612
G1 X171.904 Y96.462 E.39781
G1 X171.904 Y97.534 E.06612
G1 X167.346 Y92.976 E.39781
G1 X167.346 Y94.048 E.06612
G1 X171.904 Y98.605 E.39781
G1 X171.904 Y99.676 E.06612
M73 P2 R93
G1 X167.346 Y95.119 E.39781
G1 X167.346 Y96.19 E.06612
G1 X171.904 Y100.747 E.39781
G1 X171.904 Y101.818 E.06612
G1 X167.346 Y97.261 E.39781
G1 X167.346 Y98.332 E.06612
G1 X171.904 Y102.89 E.39781
G1 X171.904 Y103.961 E.06612
G1 X167.346 Y99.404 E.39781
G1 X167.346 Y100.475 E.06612
G1 X171.904 Y105.032 E.39781
G1 X171.904 Y106.103 E.06612
G1 X167.346 Y101.546 E.39781
G1 X167.346 Y102.617 E.06612
G1 X171.904 Y107.175 E.39781
G1 X171.904 Y108.246 E.06612
G1 X167.346 Y103.688 E.39781
G1 X167.346 Y104.76 E.06612
G1 X171.904 Y109.317 E.39781
G1 X171.904 Y110.388 E.06612
G1 X167.346 Y105.831 E.39781
G1 X167.346 Y106.902 E.06612
G1 X171.904 Y111.459 E.39781
G1 X171.904 Y112.531 E.06612
G1 X167.346 Y107.973 E.39781
G1 X167.346 Y109.045 E.06612
G1 X171.904 Y113.602 E.39781
G1 X171.904 Y114.673 E.06612
G1 X167.346 Y110.116 E.39781
G1 X167.346 Y111.187 E.06612
G1 X171.904 Y115.744 E.39781
G1 X171.904 Y116.815 E.06612
G1 X167.346 Y112.258 E.39781
G1 X167.346 Y113.329 E.06612
G1 X171.904 Y117.887 E.39781
G1 X171.904 Y118.958 E.06612
G1 X167.346 Y114.401 E.39781
G1 X167.346 Y115.472 E.06612
G1 X171.904 Y120.029 E.39781
G1 X171.904 Y121.1 E.06612
G1 X167.346 Y116.543 E.39781
G1 X167.346 Y117.614 E.06612
G1 X171.904 Y122.172 E.39781
G1 X171.904 Y123.243 E.06612
G1 X167.346 Y118.685 E.39781
G1 X167.346 Y119.757 E.06612
G1 X171.904 Y124.314 E.39781
G1 X171.904 Y125.385 E.06612
G1 X167.346 Y120.828 E.39781
G1 X167.346 Y121.899 E.06612
G1 X171.904 Y126.456 E.39781
G1 X171.904 Y127.528 E.06612
G1 X167.346 Y122.97 E.39781
G1 X167.346 Y124.042 E.06612
G1 X171.904 Y128.599 E.39781
G1 X171.904 Y129.67 E.06612
G1 X167.346 Y125.113 E.39781
G1 X167.346 Y126.184 E.06612
G1 X171.904 Y130.741 E.39781
G1 X171.904 Y131.812 E.06612
G1 X167.346 Y127.255 E.39781
G1 X167.346 Y128.326 E.06612
G1 X171.904 Y132.884 E.39781
G1 X171.904 Y133.955 E.06612
G1 X167.346 Y129.398 E.39781
G1 X167.346 Y130.469 E.06612
G1 X171.904 Y135.026 E.39781
G1 X171.904 Y136.097 E.06612
G1 X167.346 Y131.54 E.39781
G1 X167.346 Y132.611 E.06612
G1 X172.244 Y137.509 E.42755
G1 E-.3 F1800
;WIPE_START
G1 F3600
G1 X171.537 Y136.802 E-.5
;WIPE_END
G1 X178.402 Y133.466 Z.6 F7200
G1 X182.35 Y131.547 Z.6
G1 Z.2
G1 E.8 F1800
G1 F3600
G1 X183.059 Y132.255 E.06185
G1 X183.058 Y133.326 E.0661
G1 X182.055 Y132.323 E.08755
G1 X181.52 Y132.859 E.04675
G1 X183.058 Y134.397 E.13428
G1 X183.058 Y135.468 E.0661
G1 X180.984 Y133.394 E.18101
G1 X180.449 Y133.93 E.04675
G1 X183.058 Y136.539 E.22774
G1 X183.057 Y137.61 E.0661
G1 X179.913 Y134.466 E.27447
G1 X179.377 Y135.001 E.04675
G1 X183.057 Y138.681 E.3212
G1 X183.057 Y139.752 E.0661
G1 X178.842 Y135.537 E.36794
G1 X178.306 Y136.073 E.04675
G1 X183.057 Y140.823 E.41467
G1 X183.056 Y141.894 E.0661
G1 X177.771 Y136.608 E.4614
G1 X177.235 Y137.144 E.04675
G1 X183.056 Y142.965 E.50813
G1 X183.056 Y144.036 E.0661
G1 X176.699 Y137.679 E.55486
G1 X176.164 Y138.215 E.04675
G1 X183.056 Y145.107 E.60159
G1 X183.055 Y146.178 E.0661
G1 X175.628 Y138.751 E.64832
G1 X175.092 Y139.285 E.04675
G1 X183.055 Y147.249 E.69513
G1 X183.055 Y148.32 E.0661
G1 X174.135 Y139.4 E.77865
G1 E-.3 F1800
;WIPE_START
G1 F3600
G1 X174.842 Y140.107 E-.5
;WIPE_END
G1 X169.064 Y135.119 Z.6 F7200
G1 X167.006 Y133.342 Z.6
G1 Z.2
G1 E.8 F1800
G1 F3600
G1 X183.055 Y149.391 E1.40092
G1 X183.054 Y150.462 E.0661
G1 X167.346 Y134.754 E1.37116
G1 X167.346 Y135.825 E.06612
